assets/ricoh/Ricoh_GR2_PS_Filter/LUT/GR2_Hi_BW.cube
TITLE "Ricoh GR2 High Contrast BW"
LUT_3D_SIZE 5
DOMAIN_MIN 0.000000 0.000000 0.000000
DOMAIN_MAX 1.000000 1.000000 1.000000
0.000000 0.000000 0.000000
0.000000 0.000000 0.000000
0.035831 0.035831 0.035831
0.108937 0.108937 0.108937
0.160868 0.160868 0.160868
0.083338 0.083338 0.083338
0.134864 0.134864 0.134864
0.209169 0.209169 0.209169
0.282275 0.282275 0.282275
0.334206 0.334206 0.334206
0.333305 0.333305 0.333305
0.384831 0.384831 0.384831
0.459136 0.459136 0.459136
0.532241 0.532241 0.532241
0.584173 0.584173 0.584173
0.579236 0.579236 0.579236
0.630763 0.630763 0.630763
0.705068 0.705068 0.705068
0.778173 0.778173 0.778173
0.830104 0.830104 0.830104
0.753936 0.753936 0.753936
0.805462 0.805462 0.805462
0.879767 0.879767 0.879767
0.952873 0.952873 0.952873
1.000000 1.000000 1.000000
0.000000 0.000000 0.000000
0.000000 0.000000 0.000000
0.053330 0.053330 0.053330
0.126435 0.126435 0.126435
0.178367 0.178367 0.178367
0.100836 0.100836 0.100836
0.152363 0.152363 0.152363
0.226668 0.226668 0.226668
0.299773 0.299773 0.299773
0.351704 0.351704 0.351704
0.350803 0.350803 0.350803
0.402329 0.402329 0.402329
0.476634 0.476634 0.476634
0.549740 0.549740 0.549740
0.601671 0.601671 0.601671
0.596735 0.596735 0.596735
0.648261 0.648261 0.648261
0.722566 0.722566 0.722566
0.795672 0.795672 0.795672
0.847603 0.847603 0.847603
0.771435 0.771435 0.771435
0.822961 0.822961 0.822961
0.897266 0.897266 0.897266
0.970371 0.970371 0.970371
1.000000 1.000000 1.000000
0.000000 0.000000 0.000000
0.004259 0.004259 0.004259
0.078564 0.078564 0.078564
0.151670 0.151670 0.151670
0.203601 0.203601 0.203601
0.126071 0.126071 0.126071
0.177597 0.177597 0.177597
0.251902 0.251902 0.251902
0.325008 0.325008 0.325008
0.376939 0.376939 0.376939
0.376037 0.376037 0.376037
0.427564 0.427564 0.427564
0.501869 0.501869 0.501869
0.574974 0.574974 0.574974
0.626905 0.626905 0.626905
0.621969 0.621969 0.621969
0.673496 0.673496 0.673496
0.747801 0.747801 0.747801
0.820906 0.820906 0.820906
0.872837 0.872837 0.872837
0.796669 0.796669 0.796669
0.848195 0.848195 0.848195
0.922500 0.922500 0.922500
0.995606 0.995606 0.995606
1.000000 1.000000 1.000000
0.000000 0.000000 0.000000
0.029086 0.029086 0.029086
0.103391 0.103391 0.103391
0.176497 0.176497 0.176497
0.228428 0.228428 0.228428
0.150898 0.150898 0.150898
0.202424 0.202424 0.202424
0.276729 0.276729 0.276729
0.349835 0.349835 0.349835
0.401766 0.401766 0.401766
0.400864 0.400864 0.400864
0.452391 0.452391 0.452391
0.526696 0.526696 0.526696
0.599801 0.599801 0.599801
0.651732 0.651732 0.651732
0.646796 0.646796 0.646796
0.698323 0.698323 0.698323
0.772628 0.772628 0.772628
0.845733 0.845733 0.845733
0.897664 0.897664 0.897664
0.821496 0.821496 0.821496
0.873022 0.873022 0.873022
0.947327 0.947327 0.947327
1.000000 1.000000 1.000000
1.000000 1.000000 1.000000
0.000000 0.000000 0.000000
0.046722 0.046722 0.046722
0.121027 0.121027 0.121027
0.194133 0.194133 0.194133
0.246064 0.246064 0.246064
0.168534 0.168534 0.168534
0.220060 0.220060 0.220060
0.294365 0.294365 0.294365
0.367471 0.367471 0.367471
0.419402 0.419402 0.419402
0.418501 0.418501 0.418501
0.470027 0.470027 0.470027
0.544332 0.544332 0.544332
0.617437 0.617437 0.617437
0.669369 0.669369 0.669369
0.664432 0.664432 0.664432
0.715959 0.715959 0.715959
0.790264 0.790264 0.790264
0.863369 0.863369 0.863369
0.915300 0.915300 0.915300
0.839132 0.839132 0.839132
0.890658 0.890658 0.890658
0.964963 0.964963 0.964963
1.000000 1.000000 1.000000
1.000000 1.000000 1.000000
