assets/ricoh/Ricoh_GR2_PS_Filter/LUT/GR2_Negative_Film.cube
TITLE "Ricoh GR2 Negative Film"
LUT_3D_SIZE 5
DOMAIN_MIN 0.000000 0.000000 0.000000
DOMAIN_MAX 1.000000 1.000000 1.000000
0.086041 0.098359 0.100578
0.273319 0.103154 0.105373
0.492981 0.108778 0.110998
0.700577 0.114094 0.116313
0.859290 0.118157 0.120376
0.101593 0.289846 0.116130
0.288870 0.294641 0.120925
0.508532 0.300265 0.126549
0.716129 0.305580 0.131865
0.874841 0.309644 0.135928
0.120029 0.516844 0.134566
0.307306 0.521639 0.139361
0.526969 0.527264 0.144985
0.734565 0.532579 0.150301
0.893277 0.536642 0.154364
0.137652 0.733834 0.152189
0.324930 0.738629 0.156984
0.544592 0.744253 0.162608
0.752188 0.749569 0.167924
0.910901 0.753632 0.171987
0.151261 0.901393 0.165798
0.338538 0.906188 0.170593
0.558200 0.911812 0.176217
0.765796 0.917127 0.181532
0.924509 0.921191 0.185596
0.087569 0.099887 0.273300
0.274846 0.104682 0.278095
0.494508 0.110306 0.283719
0.702104 0.115621 0.289035
0.860817 0.119685 0.293098
0.103121 0.291373 0.288852
0.290398 0.296168 0.293647
0.510060 0.301792 0.299271
0.717656 0.307108 0.304586
0.876369 0.311171 0.308650
0.121557 0.518372 0.307288
0.308834 0.523167 0.312083
0.528496 0.528791 0.317707
0.736092 0.534106 0.323022
0.894805 0.538170 0.327086
0.139180 0.735362 0.324911
0.326457 0.740157 0.329706
0.546119 0.745781 0.335330
0.753715 0.751096 0.340645
0.912428 0.755160 0.344709
0.152788 0.902921 0.338520
0.340066 0.907716 0.343315
0.559728 0.913340 0.348939
0.767324 0.918655 0.354254
0.926037 0.922719 0.358318
0.089392 0.101709 0.479373
0.276669 0.106504 0.484168
0.496331 0.112129 0.489792
0.703927 0.117444 0.495107
0.862640 0.121507 0.499171
0.104943 0.293196 0.494925
0.292221 0.297991 0.499720
0.511883 0.303615 0.505344
0.719479 0.308930 0.510659
0.878192 0.312994 0.514723
0.123379 0.520195 0.513361
0.310657 0.524990 0.518156
0.530319 0.530614 0.523780
0.737915 0.535929 0.529095
0.896628 0.539993 0.533159
0.141003 0.737185 0.530984
0.328280 0.741980 0.535779
0.547942 0.747604 0.541403
0.755538 0.752919 0.546718
0.914251 0.756983 0.550782
0.154611 0.904743 0.544592
0.341888 0.909538 0.549387
0.561550 0.915162 0.555012
0.769147 0.920478 0.560327
0.927859 0.924541 0.564390
0.091146 0.103464 0.677697
0.278423 0.108259 0.682492
0.498085 0.113883 0.688116
0.705681 0.119198 0.693431
0.864394 0.123262 0.697495
0.106698 0.294950 0.693248
0.293975 0.299745 0.698043
0.513637 0.305369 0.703668
0.721233 0.310684 0.708983
0.879946 0.314748 0.713046
0.125134 0.521949 0.711684
0.312411 0.526744 0.716479
0.532073 0.532368 0.722104
0.739669 0.537683 0.727419
0.898382 0.541747 0.731482
0.142757 0.738939 0.729308
0.330034 0.743734 0.734103
0.549696 0.749358 0.739727
0.757292 0.754673 0.745042
0.916005 0.758737 0.749106
0.156365 0.906497 0.742916
0.343643 0.911292 0.747711
0.563305 0.916916 0.753335
0.770901 0.922232 0.758650
0.929614 0.926295 0.762714
0.092508 0.104826 0.831736
0.279785 0.109621 0.836531
0.499448 0.115245 0.842155
0.707044 0.120560 0.847470
0.865756 0.124624 0.851534
0.108060 0.296312 0.847287
0.295337 0.301107 0.852082
0.514999 0.306732 0.857707
0.722595 0.312047 0.863022
0.881308 0.316110 0.867085
0.126496 0.523311 0.865723
0.313773 0.528106 0.870518
0.533435 0.533730 0.876143
0.741031 0.539046 0.881458
0.899744 0.543109 0.885521
0.144119 0.740301 0.883347
0.331396 0.745096 0.888142
0.551058 0.750720 0.893766
0.758655 0.756035 0.899081
0.917367 0.760099 0.903145
0.157728 0.907860 0.896955
0.345005 0.912655 0.901750
0.564667 0.918279 0.907374
0.772263 0.923594 0.912689
0.930976 0.927658 0.916753
