assets/ricoh/Ricoh_GR2_PS_Filter/LUT/GR2_Street_Positive.cube
TITLE "Ricoh GR2 Street Positive"
LUT_3D_SIZE 5
DOMAIN_MIN 0.000000 0.000000 0.000000
DOMAIN_MAX 1.000000 1.000000 1.000000
0.000000 0.000000 0.000000
0.142543 0.000000 0.000000
0.492085 0.000000 0.000000
0.811191 0.000000 0.000000
1.000000 0.000000 0.000000
0.000000 0.152411 0.000000
0.147900 0.154071 0.000000
0.497443 0.156355 0.000000
0.816549 0.158439 0.000000
1.000000 0.159791 0.000000
0.000000 0.496495 0.000000
0.155347 0.498155 0.000000
0.504889 0.500439 0.000000
0.823995 0.502523 0.000000
1.000000 0.503875 0.000000
0.000000 0.814387 0.000000
0.162226 0.816048 0.000000
0.511768 0.818331 0.000000
0.830875 0.820416 0.000000
1.000000 0.821768 0.000000
0.000000 1.000000 0.000000
0.166731 1.000000 0.000000
0.516274 1.000000 0.000000
0.835380 1.000000 0.000000
1.000000 1.000000 0.000000
0.000000 0.000000 0.151915
0.143074 0.000000 0.153576
0.492616 0.000000 0.155859
0.811722 0.000000 0.157943
1.000000 0.000000 0.159296
0.000000 0.152942 0.157273
0.148431 0.154602 0.158933
0.497974 0.156886 0.161217
0.817080 0.158970 0.163301
1.000000 0.160322 0.164653
0.000000 0.497026 0.164719
0.155878 0.498687 0.166380
0.505420 0.500970 0.168663
0.824526 0.503054 0.170747
1.000000 0.504407 0.172100
0.000000 0.814918 0.171599
0.162757 0.816579 0.173259
0.512300 0.818862 0.175542
0.831406 0.820947 0.177627
1.000000 0.822299 0.178979
0.000000 1.000000 0.176104
0.167262 1.000000 0.177764
0.516805 1.000000 0.180048
0.835911 1.000000 0.182132
1.000000 1.000000 0.183484
0.000000 0.000000 0.483597
0.143813 0.000000 0.485257
0.493355 0.000000 0.487540
0.812461 0.000000 0.489625
1.000000 0.000000 0.490977
0.000000 0.153681 0.488954
0.149170 0.155341 0.490615
0.498713 0.157625 0.492898
0.817819 0.159709 0.494983
1.000000 0.161061 0.496335
0.000000 0.497765 0.496401
0.156617 0.499426 0.498061
0.506159 0.501709 0.500344
0.825265 0.503793 0.502429
1.000000 0.505146 0.503781
0.000000 0.815657 0.503280
0.163496 0.817318 0.504941
0.513039 0.819601 0.507224
0.832145 0.821686 0.509308
1.000000 0.823038 0.510661
0.000000 1.000000 0.507785
0.168001 1.000000 0.509446
0.517544 1.000000 0.511729
0.836650 1.000000 0.513814
1.000000 1.000000 0.515166
0.000000 0.000000 0.790432
0.144496 0.000000 0.792093
0.494039 0.000000 0.794376
0.813145 0.000000 0.796461
1.000000 0.000000 0.797813
0.000000 0.154364 0.795790
0.149854 0.156025 0.797451
0.499396 0.158308 0.799734
0.818502 0.160393 0.801818
1.000000 0.161745 0.803171
0.000000 0.498449 0.803236
0.157300 0.500109 0.804897
0.506843 0.502392 0.807180
0.825949 0.504477 0.809265
1.000000 0.505829 0.810617
0.000000 0.816341 0.810116
0.164180 0.818002 0.811776
0.513722 0.820285 0.814060
0.832828 0.822369 0.816144
1.000000 0.823722 0.817496
0.000000 1.000000 0.814621
0.168685 1.000000 0.816282
0.518227 1.000000 0.818565
0.837333 1.000000 0.820649
1.000000 1.000000 0.822002
0.000000 0.000000 0.991581
0.144944 0.000000 0.993241
0.494487 0.000000 0.995525
0.813593 0.000000 0.997609
1.000000 0.000000 0.998962
0.000000 0.154813 0.996939
0.150302 0.156473 0.998599
0.499845 0.158756 1.000000
0.818951 0.160841 1.000000
1.000000 0.162193 1.000000
0.000000 0.498897 1.000000
0.157748 0.500557 1.000000
0.507291 0.502841 1.000000
0.826397 0.504925 1.000000
1.000000 0.506277 1.000000
0.000000 0.816789 1.000000
0.164628 0.818450 1.000000
0.514170 0.820733 1.000000
0.833276 0.822818 1.000000
1.000000 0.824170 1.000000
0.000000 1.000000 1.000000
0.169133 1.000000 1.000000
0.518676 1.000000 1.000000
0.837782 1.000000 1.000000
1.000000 1.000000 1.000000
