assets/ricoh/Ricoh_GR2_PS_Filter/LUT/GR2_Positive_Film.cube
TITLE "Ricoh GR2 Positive Film"
LUT_3D_SIZE 33
DOMAIN_MIN 0.000000 0.000000 0.000000
DOMAIN_MAX 1.000000 1.000000 1.000000
0.000000 0.000000 0.000000
0.000000 0.000000 0.000000
0.000000 0.000000 0.000000
0.020742 0.000000 0.000000
0.045190 0.000000 0.000000
0.076081 0.000000 0.000000
0.109303 0.000000 0.000000
0.142508 0.000000 0.000000
0.175698 0.000000 0.000000
0.208872 0.000000 0.000000
0.243434 0.000000 0.000000
0.283202 0.000000 0.000000
0.322947 0.000000 0.000000
0.362668 0.000000 0.000000
0.402367 0.000000 0.000000
0.442043 0.000000 0.000000
0.481697 0.000000 0.000000
0.519006 0.000000 0.000000
0.556140 0.000000 0.000000
0.593253 0.000000 0.000000
0.630347 0.000000 0.000000
0.667420 0.000000 0.000000
0.704473 0.000000 0.000000
0.741506 0.000000 0.000000
0.766971 0.000000 0.000000
0.791282 0.000000 0.000000
0.815584 0.000000 0.000000
0.839877 0.000000 0.000000
0.864162 0.000000 0.000000
0.888532 0.000000 0.000000
0.913485 0.000000 0.000000
0.938428 0.000000 0.000000
0.963362 0.000000 0.000000
0.000000 0.000000 0.000000
0.000000 0.000000 0.000000
0.000000 0.000000 0.000000
0.021812 0.000000 0.000000
0.046261 0.000000 0.000000
0.077152 0.000000 0.000000
0.110374 0.000000 0.000000
0.143579 0.000000 0.000000
0.176769 0.000000 0.000000
0.209943 0.000000 0.000000
0.244505 0.000000 0.000000
0.284273 0.000000 0.000000
0.324017 0.000000 0.000000
0.363739 0.000000 0.000000
0.403438 0.000000 0.000000
0.443114 0.000000 0.000000
0.482767 0.000000 0.000000
0.520077 0.000000 0.000000
0.557211 0.000000 0.000000
0.594324 0.000000 0.000000
0.631418 0.000000 0.000000
0.668491 0.000000 0.000000
0.705544 0.000000 0.000000
0.742577 0.000000 0.000000
0.768042 0.000000 0.000000
0.792353 0.000000 0.000000
0.816655 0.000000 0.000000
0.840948 0.000000 0.000000
0.865233 0.000000 0.000000
0.889603 0.000000 0.000000
0.914555 0.000000 0.000000
0.939498 0.000000 0.000000
0.964432 0.000000 0.000000
0.000000 0.006041 0.000000
0.000000 0.006369 0.000000
0.000000 0.006696 0.000000
0.022883 0.007024 0.000000
0.047332 0.007351 0.000000
0.078223 0.007765 0.000000
0.111444 0.008210 0.000000
0.144650 0.008654 0.000000
0.177840 0.009099 0.000000
0.211014 0.009543 0.000000
0.245576 0.010005 0.000000
0.285343 0.010538 0.000000
0.325088 0.011070 0.000000
0.364810 0.011602 0.000000
0.404509 0.012133 0.000000
0.444185 0.012664 0.000000
0.483838 0.013195 0.000000
0.521148 0.013695 0.000000
0.558281 0.014192 0.000000
0.595395 0.014689 0.000000
0.632488 0.015186 0.000000
0.669562 0.015682 0.000000
0.706615 0.016178 0.000000
0.743648 0.016674 0.000000
0.769113 0.017015 0.000000
0.793424 0.017340 0.000000
0.817726 0.017666 0.000000
0.842019 0.017991 0.000000
0.866304 0.018316 0.000000
0.890674 0.018642 0.000000
0.915626 0.018976 0.000000
0.940569 0.019310 0.000000
0.965503 0.019644 0.000000
0.000000 0.030572 0.000000
0.000000 0.030900 0.000000
0.000000 0.031227 0.000000
0.023954 0.031555 0.000000
0.048403 0.031882 0.000000
0.079294 0.032296 0.000000
0.112515 0.032741 0.000000
0.145721 0.033185 0.000000
0.178911 0.033630 0.000000
0.212085 0.034074 0.000000
0.246647 0.034536 0.000000
0.286414 0.035069 0.000000
0.326159 0.035601 0.000000
0.365881 0.036133 0.000000
0.405580 0.036664 0.000000
0.445256 0.037196 0.000000
0.484909 0.037726 0.000000
0.522219 0.038226 0.000000
0.559352 0.038723 0.000000
0.596466 0.039220 0.000000
0.633559 0.039717 0.000000
0.670633 0.040213 0.000000
0.707686 0.040709 0.000000
0.744719 0.041205 0.000000
0.770184 0.041546 0.000000
0.794495 0.041871 0.000000
0.818797 0.042197 0.000000
0.843090 0.042522 0.000000
0.867375 0.042847 0.000000
0.891745 0.043173 0.000000
0.916697 0.043507 0.000000
0.941640 0.043841 0.000000
0.966574 0.044175 0.000000
0.000000 0.055106 0.000000
0.000000 0.055433 0.000000
0.000568 0.055761 0.000000
0.025025 0.056088 0.000000
0.049474 0.056416 0.000000
0.080365 0.056829 0.000000
0.113586 0.057274 0.000000
0.146792 0.057719 0.000000
0.179982 0.058163 0.000000
0.213156 0.058607 0.000000
0.247718 0.059070 0.000000
0.287486 0.059602 0.000000
0.327230 0.060134 0.000000
0.366952 0.060666 0.000000
0.406651 0.061198 0.000000
0.446327 0.061729 0.000000
0.485980 0.062260 0.000000
0.523290 0.062759 0.000000
0.560423 0.063256 0.000000
0.597537 0.063753 0.000000
0.634630 0.064250 0.000000
0.671704 0.064746 0.000000
0.708757 0.065242 0.000000
0.745790 0.065738 0.000000
0.771255 0.066079 0.000000
0.795566 0.066405 0.000000
0.819868 0.066730 0.000000
0.844161 0.067055 0.000000
0.868446 0.067380 0.000000
0.892816 0.067707 0.000000
0.917768 0.068041 0.000000
0.942711 0.068375 0.000000
0.967645 0.068709 0.000000
0.000000 0.086119 0.000000
0.000000 0.086446 0.000000
0.001922 0.086774 0.000000
0.026379 0.087102 0.000000
0.050828 0.087429 0.000000
0.081719 0.087842 0.000000
0.114940 0.088287 0.000000
0.148146 0.088732 0.000000
0.181336 0.089176 0.000000
0.214510 0.089620 0.000000
0.249072 0.090083 0.000000
0.288840 0.090615 0.000000
0.328584 0.091148 0.000000
0.368306 0.091679 0.000000
0.408005 0.092211 0.000000
0.447681 0.092742 0.000000
0.487334 0.093273 0.000000
0.524644 0.093773 0.000000
0.561777 0.094270 0.000000
0.598891 0.094767 0.000000
0.635984 0.095263 0.000000
0.673058 0.095760 0.000000
0.710111 0.096256 0.000000
0.747144 0.096751 0.000000
0.772609 0.097092 0.000000
0.796920 0.097418 0.000000
0.821222 0.097743 0.000000
0.845515 0.098069 0.000000
0.869800 0.098394 0.000000
0.894170 0.098720 0.000000
0.919122 0.099054 0.000000
0.944065 0.099388 0.000000
0.968999 0.099722 0.000000
0.000000 0.119491 0.000000
0.000000 0.119819 0.000000
0.003379 0.120147 0.000000
0.027836 0.120474 0.000000
0.052285 0.120801 0.000000
0.083176 0.121215 0.000000
0.116397 0.121660 0.000000
0.149603 0.122104 0.000000
0.182793 0.122549 0.000000
0.215967 0.122993 0.000000
0.250529 0.123456 0.000000
0.290296 0.123988 0.000000
0.330041 0.124520 0.000000
0.369763 0.125052 0.000000
0.409462 0.125584 0.000000
0.449138 0.126115 0.000000
0.488791 0.126646 0.000000
0.526101 0.127145 0.000000
0.563234 0.127642 0.000000
0.600348 0.128139 0.000000
0.637441 0.128636 0.000000
0.674515 0.129132 0.000000
0.711568 0.129628 0.000000
0.748601 0.130124 0.000000
0.774066 0.130465 0.000000
0.798377 0.130791 0.000000
0.822679 0.131116 0.000000
0.846972 0.131441 0.000000
0.871257 0.131766 0.000000
0.895627 0.132093 0.000000
0.920579 0.132427 0.000000
0.945522 0.132761 0.000000
0.970456 0.133094 0.000000
0.000000 0.152868 0.000000
0.000000 0.153196 0.000000
0.004836 0.153523 0.000000
0.029293 0.153851 0.000000
0.053742 0.154178 0.000000
0.084633 0.154592 0.000000
0.117855 0.155037 0.000000
0.151060 0.155481 0.000000
0.184250 0.155926 0.000000
0.217424 0.156370 0.000000
0.251986 0.156832 0.000000
0.291754 0.157365 0.000000
0.331498 0.157897 0.000000
0.371220 0.158429 0.000000
0.410919 0.158960 0.000000
0.450595 0.159492 0.000000
0.490248 0.160022 0.000000
0.527558 0.160522 0.000000
0.564692 0.161019 0.000000
0.601805 0.161516 0.000000
0.638899 0.162013 0.000000
0.675972 0.162509 0.000000
0.713025 0.163005 0.000000
0.750058 0.163501 0.000000
0.775523 0.163842 0.000000
0.799834 0.164167 0.000000
0.824136 0.164493 0.000000
0.848429 0.164818 0.000000
0.872714 0.165143 0.000000
0.897084 0.165469 0.000000
0.922036 0.165803 0.000000
0.946980 0.166137 0.000000
0.971914 0.166471 0.000000
0.000000 0.186249 0.000000
0.000000 0.186577 0.000000
0.006293 0.186904 0.000000
0.030751 0.187232 0.000000
0.055199 0.187559 0.000000
0.086090 0.187973 0.000000
0.119312 0.188418 0.000000
0.152518 0.188862 0.000000
0.185707 0.189306 0.000000
0.218881 0.189751 0.000000
0.253443 0.190213 0.000000
0.293211 0.190746 0.000000
0.332956 0.191278 0.000000
0.372678 0.191810 0.000000
0.412377 0.192341 0.000000
0.452053 0.192872 0.000000
0.491706 0.193403 0.000000
0.529015 0.193903 0.000000
0.566149 0.194400 0.000000
0.603263 0.194897 0.000000
0.640356 0.195394 0.000000
0.677429 0.195890 0.000000
0.714482 0.196386 0.000000
0.751515 0.196882 0.000000
0.776980 0.197223 0.000000
0.801291 0.197548 0.000000
0.825593 0.197874 0.000000
0.849887 0.198199 0.000000
0.874171 0.198524 0.000000
0.898541 0.198850 0.000000
0.923494 0.199184 0.000000
0.948437 0.199518 0.000000
0.973371 0.199852 0.000000
0.000000 0.219634 0.000000
0.000000 0.219962 0.000000
0.007751 0.220289 0.000000
0.032208 0.220617 0.000000
0.056657 0.220944 0.000000
0.087548 0.221358 0.000000
0.120769 0.221802 0.000000
0.153975 0.222247 0.000000
0.187165 0.222691 0.000000
0.220339 0.223136 0.000000
0.254901 0.223598 0.000000
0.294669 0.224131 0.000000
0.334413 0.224663 0.000000
0.374135 0.225195 0.000000
0.413834 0.225726 0.000000
0.453510 0.226257 0.000000
0.493163 0.226788 0.000000
0.530473 0.227288 0.000000
0.567606 0.227785 0.000000
0.604720 0.228282 0.000000
0.641813 0.228779 0.000000
0.678887 0.229275 0.000000
0.715940 0.229771 0.000000
0.752973 0.230267 0.000000
0.778438 0.230608 0.000000
0.802749 0.230933 0.000000
0.827051 0.231259 0.000000
0.851344 0.231584 0.000000
0.875629 0.231909 0.000000
0.899999 0.232235 0.000000
0.924951 0.232569 0.000000
0.949894 0.232903 0.000000
0.974828 0.233237 0.000000
0.000000 0.254437 0.000000
0.000000 0.254765 0.000000
0.009270 0.255093 0.000000
0.033728 0.255420 0.000000
0.058176 0.255747 0.000000
0.089067 0.256161 0.000000
0.122289 0.256606 0.000000
0.155495 0.257050 0.000000
0.188684 0.257495 0.000000
0.221858 0.257939 0.000000
0.256420 0.258402 0.000000
0.296188 0.258934 0.000000
0.335933 0.259466 0.000000
0.375655 0.259998 0.000000
0.415354 0.260529 0.000000
0.455030 0.261061 0.000000
0.494683 0.261592 0.000000
0.531992 0.262091 0.000000
0.569126 0.262588 0.000000
0.606239 0.263085 0.000000
0.643333 0.263582 0.000000
0.680406 0.264078 0.000000
0.717459 0.264574 0.000000
0.754492 0.265070 0.000000
0.779957 0.265411 0.000000
0.804268 0.265736 0.000000
0.828570 0.266062 0.000000
0.852864 0.266387 0.000000
0.877148 0.266712 0.000000
0.901518 0.267039 0.000000
0.926471 0.267373 0.000000
0.951414 0.267707 0.000000
0.976348 0.268040 0.000000
0.000000 0.294510 0.000000
0.000000 0.294838 0.000000
0.011020 0.295165 0.000000
0.035477 0.295493 0.000000
0.059926 0.295820 0.000000
0.090817 0.296234 0.000000
0.124038 0.296678 0.000000
0.157244 0.297123 0.000000
0.190434 0.297567 0.000000
0.223608 0.298011 0.000000
0.258170 0.298474 0.000000
0.297937 0.299007 0.000000
0.337682 0.299539 0.000000
0.377404 0.300071 0.000000
0.417103 0.300602 0.000000
0.456779 0.301133 0.000000
0.496432 0.301664 0.000000
0.533742 0.302164 0.000000
0.570875 0.302661 0.000000
0.607989 0.303158 0.000000
0.645082 0.303654 0.000000
0.682156 0.304151 0.000000
0.719209 0.304647 0.000000
0.756242 0.305143 0.000000
0.781707 0.305484 0.000000
0.806018 0.305809 0.000000
0.830320 0.306134 0.000000
0.854613 0.306460 0.000000
0.878898 0.306785 0.000000
0.903268 0.307111 0.000000
0.928220 0.307445 0.000000
0.953163 0.307779 0.000000
0.978097 0.308113 0.000000
0.000000 0.334588 0.000000
0.000000 0.334916 0.000000
0.012770 0.335244 0.000000
0.037227 0.335571 0.000000
0.061676 0.335898 0.000000
0.092567 0.336312 0.000000
0.125788 0.336757 0.000000
0.158994 0.337201 0.000000
0.192184 0.337646 0.000000
0.225358 0.338090 0.000000
0.259919 0.338553 0.000000
0.299687 0.339085 0.000000
0.339432 0.339617 0.000000
0.379154 0.340149 0.000000
0.418853 0.340680 0.000000
0.458529 0.341212 0.000000
0.498182 0.341743 0.000000
0.535491 0.342242 0.000000
0.572625 0.342739 0.000000
0.609739 0.343236 0.000000
0.646832 0.343733 0.000000
0.683905 0.344229 0.000000
0.720959 0.344725 0.000000
0.757992 0.345221 0.000000
0.783457 0.345562 0.000000
0.807767 0.345887 0.000000
0.832069 0.346213 0.000000
0.856363 0.346538 0.000000
0.880648 0.346863 0.000000
0.905018 0.347189 0.000000
0.929970 0.347524 0.000000
0.954913 0.347858 0.000000
0.979847 0.348191 0.000000
0.000000 0.374673 0.000000
0.000000 0.375000 0.000000
0.014520 0.375328 0.000000
0.038977 0.375655 0.000000
0.063426 0.375983 0.000000
0.094317 0.376396 0.000000
0.127538 0.376841 0.000000
0.160744 0.377286 0.000000
0.193934 0.377730 0.000000
0.227108 0.378174 0.000000
0.261669 0.378637 0.000000
0.301437 0.379169 0.000000
0.341182 0.379701 0.000000
0.380904 0.380233 0.000000
0.420603 0.380765 0.000000
0.460279 0.381296 0.000000
0.499932 0.381827 0.000000
0.537241 0.382326 0.000000
0.574375 0.382824 0.000000
0.611489 0.383320 0.000000
0.648582 0.383817 0.000000
0.685655 0.384313 0.000000
0.722709 0.384810 0.000000
0.759742 0.385305 0.000000
0.785207 0.385646 0.000000
0.809517 0.385972 0.000000
0.833819 0.386297 0.000000
0.858113 0.386622 0.000000
0.882398 0.386948 0.000000
0.906768 0.387274 0.000000
0.931720 0.387608 0.000000
0.956663 0.387942 0.000000
0.981597 0.388276 0.000000
0.000000 0.414763 0.000000
0.000000 0.415091 0.000000
0.016270 0.415418 0.000000
0.040727 0.415746 0.000000
0.065176 0.416073 0.000000
0.096067 0.416487 0.000000
0.129288 0.416931 0.000000
0.162494 0.417376 0.000000
0.195684 0.417820 0.000000
0.228858 0.418264 0.000000
0.263420 0.418727 0.000000
0.303187 0.419260 0.000000
0.342932 0.419792 0.000000
0.382654 0.420324 0.000000
0.422353 0.420855 0.000000
0.462029 0.421386 0.000000
0.501682 0.421917 0.000000
0.538992 0.422417 0.000000
0.576125 0.422914 0.000000
0.613239 0.423411 0.000000
0.650332 0.423907 0.000000
0.687406 0.424404 0.000000
0.724459 0.424900 0.000000
0.761492 0.425396 0.000000
0.786957 0.425737 0.000000
0.811268 0.426062 0.000000
0.835570 0.426387 0.000000
0.859863 0.426713 0.000000
0.884148 0.427038 0.000000
0.908518 0.427364 0.000000
0.933470 0.427698 0.000000
0.958413 0.428032 0.000000
0.983347 0.428366 0.000000
0.000000 0.454859 0.000000
0.000000 0.455187 0.000000
0.018020 0.455514 0.000000
0.042478 0.455842 0.000000
0.066926 0.456169 0.000000
0.097817 0.456583 0.000000
0.131039 0.457028 0.000000
0.164245 0.457472 0.000000
0.197434 0.457916 0.000000
0.230608 0.458361 0.000000
0.265170 0.458823 0.000000
0.304938 0.459356 0.000000
0.344683 0.459888 0.000000
0.384405 0.460420 0.000000
0.424104 0.460951 0.000000
0.463780 0.461482 0.000000
0.503433 0.462013 0.000000
0.540742 0.462513 0.000000
0.577876 0.463010 0.000000
0.614989 0.463507 0.000000
0.652083 0.464004 0.000000
0.689156 0.464500 0.000000
0.726209 0.464996 0.000000
0.763242 0.465492 0.000000
0.788707 0.465833 0.000000
0.813018 0.466158 0.000000
0.837320 0.466484 0.000000
0.861614 0.466809 0.000000
0.885898 0.467134 0.000000
0.910268 0.467460 0.000000
0.935221 0.467794 0.000000
0.960164 0.468128 0.000000
0.985098 0.468462 0.000000
0.000000 0.494961 0.000000
0.000000 0.495289 0.000000
0.019771 0.495616 0.000000
0.044229 0.495944 0.000000
0.068677 0.496271 0.000000
0.099568 0.496685 0.000000
0.132790 0.497130 0.000000
0.165995 0.497574 0.000000
0.199185 0.498019 0.000000
0.232359 0.498463 0.000000
0.266921 0.498925 0.000000
0.306689 0.499458 0.000000
0.346434 0.499990 0.000000
0.386155 0.500522 0.000000
0.425854 0.501053 0.000000
0.465530 0.501585 0.000000
0.505184 0.502115 0.000000
0.542493 0.502615 0.000000
0.579627 0.503112 0.000000
0.616740 0.503609 0.000000
0.653834 0.504106 0.000000
0.690907 0.504602 0.000000
0.727960 0.505098 0.000000
0.764993 0.505594 0.000000
0.790458 0.505935 0.000000
0.814769 0.506260 0.000000
0.839071 0.506586 0.000000
0.863364 0.506911 0.000000
0.887649 0.507236 0.000251
0.912019 0.507562 0.000577
0.936972 0.507896 0.000911
0.961915 0.508230 0.001245
0.986849 0.508564 0.001579
0.000000 0.532720 0.000000
0.000000 0.533047 0.000000
0.021420 0.533375 0.000000
0.045877 0.533702 0.000000
0.070326 0.534030 0.000000
0.101217 0.534443 0.000000
0.134438 0.534888 0.000000
0.167644 0.535333 0.000000
0.200834 0.535777 0.000000
0.234008 0.536221 0.000000
0.268569 0.536684 0.000000
0.308337 0.537216 0.000000
0.348082 0.537748 0.000000
0.387804 0.538280 0.000000
0.427503 0.538812 0.000000
0.467179 0.539343 0.000000
0.506832 0.539874 0.000000
0.544141 0.540373 0.000000
0.581275 0.540871 0.000000
0.618389 0.541367 0.000000
0.655482 0.541864 0.000000
0.692555 0.542360 0.000000
0.729609 0.542856 0.000000
0.766642 0.543352 0.000257
0.792107 0.543693 0.000598
0.816417 0.544019 0.000923
0.840719 0.544344 0.001249
0.865013 0.544669 0.001574
0.889298 0.544994 0.001899
0.913668 0.545321 0.002225
0.938620 0.545655 0.002559
0.963563 0.545989 0.002893
0.988497 0.546323 0.003227
0.000000 0.570326 0.000000
0.000000 0.570654 0.000000
0.023061 0.570981 0.000000
0.047519 0.571309 0.000000
0.071967 0.571636 0.000000
0.102858 0.572050 0.000000
0.136080 0.572494 0.000000
0.169286 0.572939 0.000000
0.202475 0.573383 0.000000
0.235649 0.573827 0.000000
0.270211 0.574290 0.000000
0.309979 0.574823 0.000000
0.349724 0.575355 0.000000
0.389446 0.575887 0.000000
0.429145 0.576418 0.000000
0.468821 0.576949 0.000000
0.508474 0.577480 0.000000
0.545783 0.577980 0.000000
0.582917 0.578477 0.000000
0.620031 0.578974 0.000000
0.657124 0.579470 0.000410
0.694197 0.579967 0.000907
0.731250 0.580463 0.001403
0.768283 0.580959 0.001899
0.793748 0.581300 0.002240
0.818059 0.581625 0.002565
0.842361 0.581950 0.002890
0.866655 0.582276 0.003216
0.890939 0.582601 0.003541
0.915309 0.582927 0.003867
0.940262 0.583261 0.004201
0.965205 0.583595 0.004535
0.990139 0.583929 0.004869
0.000000 0.607937 0.000000
0.000238 0.608265 0.000000
0.024704 0.608593 0.000000
0.049161 0.608920 0.000000
0.073610 0.609247 0.000000
0.104500 0.609661 0.000000
0.137722 0.610106 0.000000
0.170928 0.610550 0.000000
0.204118 0.610995 0.000000
0.237291 0.611439 0.000000
0.271853 0.611902 0.000000
0.311621 0.612434 0.000000
0.351366 0.612966 0.000000
0.391088 0.613498 0.000000
0.430787 0.614030 0.000000
0.470463 0.614561 0.000000
0.510116 0.615092 0.000062
0.547425 0.615591 0.000562
0.584559 0.616088 0.001059
0.621673 0.616585 0.001556
0.658766 0.617082 0.002052
0.695839 0.617578 0.002549
0.732893 0.618074 0.003045
0.769926 0.618570 0.003541
0.795390 0.618911 0.003882
0.819701 0.619237 0.004207
0.844003 0.619562 0.004533
0.868297 0.619887 0.004858
0.892581 0.620212 0.005183
0.916951 0.620539 0.005509
0.941904 0.620873 0.005843
0.966847 0.621207 0.006177
0.991781 0.621540 0.006511
0.000000 0.645554 0.000000
0.001880 0.645882 0.000000
0.026346 0.646209 0.000000
0.050803 0.646537 0.000000
0.075252 0.646864 0.000000
0.106143 0.647278 0.000000
0.139364 0.647722 0.000000
0.172570 0.648167 0.000000
0.205760 0.648611 0.000000
0.238934 0.649056 0.000000
0.273496 0.649518 0.000000
0.313263 0.650051 0.000000
0.353008 0.650583 0.000000
0.392730 0.651115 0.000111
0.432429 0.651646 0.000642
0.472105 0.652177 0.001174
0.511758 0.652708 0.001705
0.549068 0.653208 0.002204
0.586201 0.653705 0.002701
0.623315 0.654202 0.003198
0.660408 0.654699 0.003695
0.697482 0.655195 0.004191
0.734535 0.655691 0.004687
0.771568 0.656187 0.005183
0.797033 0.656528 0.005524
0.821343 0.656853 0.005849
0.845646 0.657179 0.006175
0.869939 0.657504 0.006500
0.894224 0.657829 0.006825
0.918594 0.658155 0.007151
0.943546 0.658489 0.007486
0.968489 0.658823 0.007820
0.993423 0.659157 0.008153
0.000000 0.683176 0.000000
0.003522 0.683504 0.000000
0.027988 0.683831 0.000000
0.052446 0.684159 0.000000
0.076894 0.684486 0.000000
0.107785 0.684900 0.000000
0.141007 0.685344 0.000000
0.174213 0.685789 0.000000
0.207402 0.686233 0.000000
0.240576 0.686677 0.000000
0.275138 0.687140 0.000157
0.314906 0.687673 0.000689
0.354651 0.688205 0.001222
0.394373 0.688737 0.001753
0.434071 0.689268 0.002285
0.473748 0.689799 0.002816
0.513401 0.690330 0.003347
0.550710 0.690830 0.003847
0.587844 0.691327 0.004344
0.624957 0.691824 0.004841
0.662051 0.692320 0.005337
0.699124 0.692817 0.005834
0.736177 0.693313 0.006330
0.773210 0.693809 0.006826
0.798675 0.694150 0.007166
0.822986 0.694475 0.007492
0.847288 0.694800 0.007817
0.871581 0.695126 0.008143
0.895866 0.695451 0.008468
0.920236 0.695777 0.008794
0.945189 0.696111 0.009128
0.970132 0.696445 0.009462
0.995066 0.696779 0.009796
0.000000 0.720803 0.000000
0.005165 0.721131 0.000000
0.029631 0.721458 0.000000
0.054088 0.721786 0.000000
0.078537 0.722113 0.000000
0.109428 0.722527 0.000000
0.142650 0.722971 0.000004
0.175855 0.723416 0.000449
0.209045 0.723860 0.000893
0.242219 0.724305 0.001337
0.276781 0.724767 0.001800
0.316549 0.725300 0.002332
0.356293 0.725832 0.002864
0.396015 0.726364 0.003396
0.435714 0.726895 0.003928
0.475390 0.727426 0.004459
0.515043 0.727957 0.004990
0.552353 0.728457 0.005489
0.589486 0.728954 0.005986
0.626600 0.729451 0.006483
0.663694 0.729947 0.006980
0.700767 0.730444 0.007476
0.737820 0.730940 0.007972
0.774853 0.731436 0.008468
0.800318 0.731777 0.008809
0.824629 0.732102 0.009135
0.848931 0.732428 0.009460
0.873224 0.732753 0.009785
0.897509 0.733078 0.010110
0.921879 0.733404 0.010437
0.946831 0.733738 0.010771
0.971774 0.734072 0.011105
0.996708 0.734406 0.011439
0.000000 0.758435 0.000000
0.006808 0.758763 0.000000
0.031274 0.759091 0.000134
0.055731 0.759418 0.000461
0.080180 0.759745 0.000789
0.111071 0.760159 0.001202
0.144292 0.760604 0.001647
0.177498 0.761048 0.002091
0.210688 0.761493 0.002536
0.243862 0.761937 0.002980
0.278424 0.762400 0.003443
0.318192 0.762932 0.003975
0.357936 0.763464 0.004507
0.397658 0.763996 0.005039
0.437357 0.764527 0.005571
0.477033 0.765059 0.006102
0.516686 0.765590 0.006633
0.553996 0.766089 0.007132
0.591129 0.766586 0.007629
0.628243 0.767083 0.008126
0.665336 0.767580 0.008623
0.702410 0.768076 0.009119
0.739463 0.768572 0.009615
0.776496 0.769068 0.010111
0.801961 0.769409 0.010452
0.826272 0.769734 0.010778
0.850574 0.770060 0.011103
0.874867 0.770385 0.011428
0.899152 0.770710 0.011753
0.923522 0.771036 0.012080
0.948474 0.771371 0.012414
0.973417 0.771704 0.012748
0.998351 0.772038 0.013082
0.000000 0.784327 0.000609
0.007938 0.784655 0.000937
0.032404 0.784982 0.001264
0.056862 0.785310 0.001592
0.081310 0.785637 0.001919
0.112201 0.786051 0.002333
0.145423 0.786496 0.002777
0.178629 0.786940 0.003222
0.211818 0.787384 0.003666
0.244992 0.787829 0.004110
0.279554 0.788291 0.004573
0.319322 0.788824 0.005106
0.359067 0.789356 0.005638
0.398789 0.789888 0.006169
0.438488 0.790419 0.006701
0.478164 0.790950 0.007232
0.517817 0.791481 0.007763
0.555126 0.791981 0.008263
0.592260 0.792478 0.008760
0.629373 0.792975 0.009257
0.666467 0.793472 0.009753
0.703540 0.793968 0.010250
0.740593 0.794464 0.010746
0.777626 0.794960 0.011242
0.803091 0.795301 0.011583
0.827402 0.795626 0.011908
0.851704 0.795952 0.012233
0.875998 0.796277 0.012559
0.900282 0.796602 0.012884
0.924652 0.796928 0.013210
0.949605 0.797262 0.013544
0.974548 0.797596 0.013878
0.999482 0.797930 0.014212
0.000000 0.809057 0.001689
0.009018 0.809385 0.002016
0.033484 0.809712 0.002344
0.057941 0.810040 0.002671
0.082390 0.810367 0.002999
0.113281 0.810781 0.003412
0.146503 0.811225 0.003857
0.179708 0.811670 0.004302
0.212898 0.812114 0.004746
0.246072 0.812558 0.005190
0.280634 0.813021 0.005653
0.320402 0.813554 0.006185
0.360146 0.814086 0.006717
0.399868 0.814618 0.007249
0.439567 0.815149 0.007781
0.479243 0.815680 0.008312
0.518896 0.816211 0.008843
0.556206 0.816711 0.009342
0.593339 0.817208 0.009839
0.630453 0.817705 0.010336
0.667547 0.818201 0.010833
0.704620 0.818698 0.011329
0.741673 0.819194 0.011825
0.778706 0.819690 0.012321
0.804171 0.820031 0.012662
0.828482 0.820356 0.012988
0.852784 0.820681 0.013313
0.877077 0.821007 0.013638
0.901362 0.821332 0.013963
0.925732 0.821658 0.014290
0.950684 0.821992 0.014624
0.975627 0.822326 0.014958
1.000000 0.822660 0.015292
0.000000 0.833789 0.002768
0.010098 0.834117 0.003096
0.034564 0.834444 0.003424
0.059021 0.834772 0.003751
0.083470 0.835099 0.004078
0.114361 0.835513 0.004492
0.147582 0.835957 0.004937
0.180788 0.836402 0.005381
0.213978 0.836846 0.005826
0.247152 0.837290 0.006270
0.281714 0.837753 0.006733
0.321481 0.838286 0.007265
0.361226 0.838818 0.007797
0.400948 0.839350 0.008329
0.440647 0.839881 0.008860
0.480323 0.840412 0.009392
0.519976 0.840943 0.009923
0.557285 0.841443 0.010422
0.594419 0.841940 0.010919
0.631533 0.842437 0.011416
0.668626 0.842933 0.011913
0.705700 0.843430 0.012409
0.742753 0.843926 0.012905
0.779786 0.844422 0.013401
0.805251 0.844763 0.013742
0.829561 0.845088 0.014067
