assets/ricoh/Ricoh_GR2_PS_Filter/LUT/GR2_Street_Positive.cube
TITLE "Ricoh GR2 Street Positive"
LUT_3D_SIZE 33
DOMAIN_MIN 0.000000 0.000000 0.000000
DOMAIN_MAX 1.000000 1.000000 1.000000
0.000000 0.000000 0.000000
0.000000 0.000000 0.000000
0.000000 0.000000 0.000000
0.000000 0.000000 0.000000
0.000000 0.000000 0.000000
0.027013 0.000000 0.000000
0.065554 0.000000 0.000000
0.104064 0.000000 0.000000
0.142543 0.000000 0.000000
0.180991 0.000000 0.000000
0.222490 0.000000 0.000000
0.267529 0.000000 0.000000
0.312525 0.000000 0.000000
0.357479 0.000000 0.000000
0.402390 0.000000 0.000000
0.447259 0.000000 0.000000
0.492085 0.000000 0.000000
0.534580 0.000000 0.000000
0.576884 0.000000 0.000000
0.619149 0.000000 0.000000
0.661377 0.000000 0.000000
0.703567 0.000000 0.000000
0.745718 0.000000 0.000000
0.787193 0.000000 0.000000
0.811191 0.000000 0.000000
0.835177 0.000000 0.000000
0.859150 0.000000 0.000000
0.883110 0.000000 0.000000
0.907059 0.000000 0.000000
0.932243 0.000000 0.000000
0.960913 0.000000 0.000000
0.989566 0.000000 0.000000
1.000000 0.000000 0.000000
0.000000 0.000000 0.000000
0.000000 0.000000 0.000000
0.000000 0.000000 0.000000
0.000000 0.000000 0.000000
0.000000 0.000000 0.000000
0.027521 0.000000 0.000000
0.066062 0.000000 0.000000
0.104572 0.000000 0.000000
0.143050 0.000000 0.000000
0.181498 0.000000 0.000000
0.222998 0.000000 0.000000
0.268037 0.000000 0.000000
0.313033 0.000000 0.000000
0.357987 0.000000 0.000000
0.402898 0.000000 0.000000
0.447767 0.000000 0.000000
0.492593 0.000000 0.000000
0.535088 0.000000 0.000000
0.577392 0.000000 0.000000
0.619657 0.000000 0.000000
0.661885 0.000000 0.000000
0.704075 0.000000 0.000000
0.746226 0.000000 0.000000
0.787701 0.000000 0.000000
0.811699 0.000000 0.000000
0.835684 0.000000 0.000000
0.859658 0.000000 0.000000
0.883618 0.000000 0.000000
0.907567 0.000000 0.000000
0.932751 0.000000 0.000000
0.961421 0.000000 0.000000
0.990074 0.000000 0.000000
1.000000 0.000000 0.000000
0.000000 0.000000 0.000000
0.000000 0.000000 0.000000
0.000000 0.000000 0.000000
0.000000 0.000000 0.000000
0.000000 0.000000 0.000000
0.028029 0.000000 0.000000
0.066570 0.000000 0.000000
0.105080 0.000000 0.000000
0.143559 0.000000 0.000000
0.182006 0.000000 0.000000
0.223506 0.000000 0.000000
0.268545 0.000000 0.000000
0.313541 0.000000 0.000000
0.358495 0.000000 0.000000
0.403406 0.000000 0.000000
0.448275 0.000000 0.000000
0.493101 0.000000 0.000000
0.535596 0.000000 0.000000
0.577900 0.000000 0.000000
0.620165 0.000000 0.000000
0.662393 0.000000 0.000000
0.704583 0.000000 0.000000
0.746734 0.000000 0.000000
0.788209 0.000000 0.000000
0.812207 0.000000 0.000000
0.836192 0.000000 0.000000
0.860166 0.000000 0.000000
0.884126 0.000000 0.000000
0.908075 0.000000 0.000000
0.933259 0.000000 0.000000
0.961929 0.000000 0.000000
0.990582 0.000000 0.000000
1.000000 0.000000 0.000000
0.000000 0.000000 0.000000
0.000000 0.000000 0.000000
0.000000 0.000000 0.000000
0.000000 0.000000 0.000000
0.000000 0.000000 0.000000
0.028538 0.000000 0.000000
0.067078 0.000000 0.000000
0.105588 0.000000 0.000000
0.144067 0.000000 0.000000
0.182515 0.000000 0.000000
0.224014 0.000000 0.000000
0.269053 0.000000 0.000000
0.314049 0.000000 0.000000
0.359003 0.000000 0.000000
0.403914 0.000000 0.000000
0.448783 0.000000 0.000000
0.493609 0.000000 0.000000
0.536104 0.000000 0.000000
0.578408 0.000000 0.000000
0.620674 0.000000 0.000000
0.662901 0.000000 0.000000
0.705091 0.000000 0.000000
0.747242 0.000000 0.000000
0.788717 0.000000 0.000000
0.812715 0.000000 0.000000
0.836701 0.000000 0.000000
0.860674 0.000000 0.000000
0.884635 0.000000 0.000000
0.908583 0.000000 0.000000
0.933767 0.000000 0.000000
0.962437 0.000000 0.000000
0.991090 0.000000 0.000000
1.000000 0.000000 0.000000
0.000000 0.002064 0.000000
0.000000 0.002222 0.000000
0.000000 0.002380 0.000000
0.000000 0.002537 0.000000
0.000000 0.002717 0.000000
0.029117 0.002969 0.000000
0.067658 0.003221 0.000000
0.106168 0.003473 0.000000
0.144647 0.003724 0.000000
0.183095 0.003975 0.000000
0.224594 0.004246 0.000000
0.269633 0.004541 0.000000
0.314629 0.004834 0.000000
0.359583 0.005128 0.000000
0.404494 0.005422 0.000000
0.449363 0.005715 0.000000
0.494189 0.006007 0.000000
0.536684 0.006285 0.000000
0.578988 0.006561 0.000000
0.621254 0.006837 0.000000
0.663481 0.007113 0.000000
0.705671 0.007389 0.000000
0.747822 0.007664 0.000000
0.789297 0.007935 0.000000
0.813295 0.008092 0.000000
0.837281 0.008249 0.000000
0.861254 0.008405 0.000000
0.885214 0.008562 0.000000
0.909163 0.008718 0.000000
0.934347 0.008883 0.000000
0.963017 0.009070 0.000000
0.991670 0.009257 0.000000
1.000000 0.009444 0.000000
0.000000 0.039619 0.000000
0.000000 0.039777 0.000000
0.000000 0.039935 0.000000
0.000000 0.040093 0.000000
0.000000 0.040273 0.000000
0.029930 0.040525 0.000000
0.068471 0.040777 0.000000
0.106981 0.041028 0.000000
0.145459 0.041279 0.000000
0.183907 0.041531 0.000000
0.225407 0.041802 0.000000
0.270446 0.042096 0.000000
0.315442 0.042390 0.000000
0.360396 0.042684 0.000000
0.405307 0.042977 0.000000
0.450176 0.043270 0.000000
0.495002 0.043563 0.000000
0.537497 0.043840 0.000000
0.579801 0.044117 0.000000
0.622066 0.044393 0.000000
0.664294 0.044669 0.000000
0.706483 0.044944 0.000000
0.748635 0.045220 0.000000
0.790110 0.045491 0.000000
0.814108 0.045647 0.000000
0.838093 0.045804 0.000000
0.862066 0.045961 0.000000
0.886027 0.046117 0.000000
0.909976 0.046274 0.000000
0.935160 0.046438 0.000000
0.963830 0.046625 0.000000
0.992483 0.046813 0.000000
1.000000 0.047000 0.000000
0.000000 0.077195 0.000000
0.000000 0.077353 0.000000
0.000000 0.077511 0.000000
0.000000 0.077669 0.000000
0.000000 0.077849 0.000000
0.030743 0.078101 0.000000
0.069284 0.078353 0.000000
0.107794 0.078604 0.000000
0.146273 0.078856 0.000000
0.184721 0.079107 0.000000
0.226220 0.079378 0.000000
0.271259 0.079672 0.000000
0.316255 0.079966 0.000000
0.361209 0.080260 0.000000
0.406120 0.080553 0.000000
0.450989 0.080846 0.000000
0.495815 0.081139 0.000000
0.538310 0.081417 0.000000
0.580614 0.081693 0.000000
0.622879 0.081969 0.000000
0.665107 0.082245 0.000000
0.707297 0.082521 0.000000
0.749448 0.082796 0.000000
0.790923 0.083067 0.000000
0.814921 0.083224 0.000000
0.838906 0.083380 0.000000
0.862880 0.083537 0.000000
0.886840 0.083693 0.000000
0.910789 0.083850 0.000000
0.935973 0.084014 0.000000
0.964643 0.084202 0.000000
0.993296 0.084389 0.000000
1.000000 0.084576 0.000000
0.000000 0.114793 0.000000
0.000000 0.114951 0.000000
0.000000 0.115109 0.000000
0.000000 0.115266 0.000000
0.000000 0.115446 0.000000
0.031557 0.115698 0.000000
0.070098 0.115950 0.000000
0.108607 0.116202 0.000000
0.147086 0.116453 0.000000
0.185534 0.116704 0.000000
0.227034 0.116975 0.000000
0.272073 0.117269 0.000000
0.317069 0.117563 0.000000
0.362023 0.117857 0.000000
0.406934 0.118150 0.000000
0.451802 0.118444 0.000000
0.496629 0.118736 0.000000
0.539124 0.119014 0.000000
0.581427 0.119290 0.000000
0.623693 0.119566 0.000000
0.665921 0.119842 0.000000
0.708110 0.120118 0.000000
0.750262 0.120393 0.000000
0.791737 0.120664 0.000000
0.815735 0.120821 0.000000
0.839720 0.120978 0.000000
0.863693 0.121134 0.000000
0.887654 0.121291 0.000000
0.911602 0.121447 0.000000
0.936786 0.121612 0.000000
0.965457 0.121799 0.000000
0.994110 0.121986 0.000000
1.000000 0.122173 0.000000
0.000000 0.152411 0.000000
0.000000 0.152569 0.000000
0.000000 0.152727 0.000000
0.000000 0.152885 0.000000
0.000000 0.153065 0.000000
0.032371 0.153317 0.000000
0.070912 0.153568 0.000000
0.109421 0.153820 0.000000
0.147900 0.154071 0.000000
0.186348 0.154322 0.000000
0.227848 0.154593 0.000000
0.272887 0.154888 0.000000
0.317883 0.155182 0.000000
0.362837 0.155475 0.000000
0.407748 0.155769 0.000000
0.452617 0.156062 0.000000
0.497443 0.156355 0.000000
0.539938 0.156632 0.000000
0.582241 0.156908 0.000000
0.624507 0.157185 0.000000
0.666735 0.157460 0.000000
0.708924 0.157736 0.000000
0.751076 0.158011 0.000000
0.792551 0.158282 0.000000
0.816549 0.158439 0.000000
0.840534 0.158596 0.000000
0.864507 0.158752 0.000000
0.888468 0.158909 0.000000
0.912416 0.159065 0.000000
0.937601 0.159230 0.000000
0.966271 0.159417 0.000000
0.994924 0.159604 0.000000
1.000000 0.159791 0.000000
0.000000 0.190050 0.000000
0.000000 0.190208 0.000000
0.000000 0.190366 0.000000
0.000000 0.190524 0.000000
0.000000 0.190704 0.000000
0.033186 0.190956 0.000000
0.071726 0.191207 0.000000
0.110236 0.191459 0.000000
0.148715 0.191710 0.000000
0.187163 0.191961 0.000000
0.228662 0.192233 0.000000
0.273701 0.192527 0.000000
0.318698 0.192821 0.000000
0.363651 0.193114 0.000000
0.408562 0.193408 0.000000
0.453431 0.193701 0.000000
0.498257 0.193994 0.000000
0.540752 0.194271 0.000000
0.583056 0.194548 0.000000
0.625322 0.194824 0.000000
0.667549 0.195099 0.000000
0.709739 0.195375 0.000000
0.751890 0.195650 0.000000
0.793365 0.195921 0.000000
0.817363 0.196078 0.000000
0.841349 0.196235 0.000000
0.865322 0.196391 0.000000
0.889283 0.196548 0.000000
0.913231 0.196704 0.000000
0.938415 0.196869 0.000000
0.967086 0.197056 0.000000
0.995738 0.197243 0.000000
1.000000 0.197430 0.000000
0.000000 0.230734 0.000000
0.000000 0.230892 0.000000
0.000000 0.231050 0.000000
0.000000 0.231208 0.000000
0.000000 0.231388 0.000000
0.034066 0.231640 0.000000
0.072607 0.231891 0.000000
0.111116 0.232143 0.000000
0.149595 0.232394 0.000000
0.188043 0.232645 0.000000
0.229543 0.232916 0.000000
0.274582 0.233211 0.000000
0.319578 0.233505 0.000000
0.364532 0.233798 0.000000
0.409443 0.234092 0.000000
0.454312 0.234385 0.000000
0.499138 0.234678 0.000000
0.541633 0.234955 0.000000
0.583936 0.235231 0.000000
0.626202 0.235508 0.000000
0.668430 0.235783 0.000000
0.710619 0.236059 0.000000
0.752771 0.236334 0.000000
0.794246 0.236605 0.000000
0.818244 0.236762 0.000000
0.842229 0.236919 0.000000
0.866202 0.237075 0.000000
0.890163 0.237232 0.000000
0.914111 0.237388 0.000000
0.939296 0.237553 0.000000
0.967966 0.237740 0.000000
0.996619 0.237927 0.000000
1.000000 0.238114 0.000000
0.000000 0.274955 0.000000
0.000000 0.275113 0.000000
0.000000 0.275271 0.000000
0.000000 0.275429 0.000000
0.000000 0.275609 0.000000
0.035023 0.275861 0.000000
0.073564 0.276113 0.000000
0.112073 0.276364 0.000000
0.150552 0.276616 0.000000
0.189000 0.276867 0.000000
0.230500 0.277138 0.000000
0.275539 0.277432 0.000000
0.320535 0.277726 0.000000
0.365489 0.278020 0.000000
0.410400 0.278313 0.000000
0.455269 0.278606 0.000000
0.500095 0.278899 0.000000
0.542590 0.279177 0.000000
0.584893 0.279453 0.000000
0.627159 0.279729 0.000000
0.669387 0.280005 0.000000
0.711576 0.280281 0.000000
0.753728 0.280556 0.000000
0.795203 0.280827 0.000000
0.819201 0.280984 0.000000
0.843186 0.281140 0.000000
0.867159 0.281297 0.000000
0.891120 0.281453 0.000000
0.915068 0.281610 0.000000
0.940253 0.281774 0.000000
0.968923 0.281962 0.000000
0.997576 0.282149 0.000000
1.000000 0.282336 0.000000
0.000000 0.319206 0.000000
0.000000 0.319364 0.000000
0.000000 0.319522 0.000000
0.000000 0.319679 0.000000
0.000000 0.319859 0.000000
0.035981 0.320111 0.000000
0.074521 0.320363 0.000000
0.113031 0.320615 0.000000
0.151510 0.320866 0.000000
0.189958 0.321117 0.000000
0.231457 0.321388 0.000000
0.276496 0.321682 0.000000
0.321493 0.321976 0.000000
0.366446 0.322270 0.000000
0.411358 0.322563 0.000000
0.456226 0.322857 0.000000
0.501052 0.323149 0.000000
0.543547 0.323427 0.000000
0.585851 0.323703 0.000000
0.628117 0.323979 0.000000
0.670344 0.324255 0.000000
0.712534 0.324531 0.000000
0.754685 0.324806 0.000000
0.796160 0.325077 0.000000
0.820158 0.325234 0.000000
0.844144 0.325391 0.000000
0.868117 0.325547 0.000000
0.892078 0.325704 0.000000
0.916026 0.325860 0.000000
0.941210 0.326025 0.000000
0.969881 0.326212 0.000000
0.998533 0.326399 0.000000
1.000000 0.326586 0.000000
0.000000 0.363485 0.000000
0.000000 0.363643 0.000000
0.000000 0.363801 0.000000
0.000000 0.363959 0.000000
0.000000 0.364139 0.000000
0.036939 0.364391 0.000000
0.075480 0.364642 0.000000
0.113989 0.364894 0.000000
0.152468 0.365145 0.000000
0.190916 0.365396 0.000000
0.232416 0.365667 0.000000
0.277454 0.365962 0.000000
0.322451 0.366256 0.000000
0.367405 0.366549 0.000000
0.412316 0.366843 0.000000
0.457184 0.367136 0.000000
0.502011 0.367428 0.000000
0.544506 0.367706 0.000000
0.586809 0.367982 0.000000
0.629075 0.368259 0.000000
0.671303 0.368534 0.000000
0.713492 0.368810 0.000000
0.755644 0.369085 0.000000
0.797119 0.369356 0.000000
0.821117 0.369513 0.000000
0.845102 0.369670 0.000000
0.869075 0.369826 0.000000
0.893036 0.369983 0.000000
0.916984 0.370139 0.000000
0.942168 0.370304 0.000000
0.970839 0.370491 0.000000
0.999492 0.370678 0.000000
1.000000 0.370865 0.000000
0.000000 0.407793 0.000000
0.000000 0.407951 0.000000
0.000000 0.408109 0.000000
0.000000 0.408266 0.000000
0.000000 0.408446 0.000000
0.037898 0.408698 0.000000
0.076438 0.408950 0.000000
0.114948 0.409202 0.000000
0.153427 0.409453 0.000000
0.191875 0.409704 0.000000
0.233374 0.409975 0.000000
0.278413 0.410270 0.000000
0.323410 0.410563 0.000000
0.368363 0.410857 0.000000
0.413275 0.411151 0.000000
0.458143 0.411444 0.000000
0.502969 0.411736 0.000000
0.545464 0.412014 0.000000
0.587768 0.412290 0.000000
0.630034 0.412566 0.000000
0.672261 0.412842 0.000000
0.714451 0.413118 0.000000
0.756603 0.413393 0.000000
0.798078 0.413664 0.000000
0.822075 0.413821 0.000000
0.846061 0.413978 0.000000
0.870034 0.414134 0.000000
0.893995 0.414291 0.000000
0.917943 0.414447 0.000000
0.943127 0.414612 0.000000
0.971798 0.414799 0.000000
1.000000 0.414986 0.000000
1.000000 0.415173 0.000000
0.000000 0.452129 0.000000
0.000000 0.452287 0.000000
0.000000 0.452445 0.000000
0.000000 0.452603 0.000000
0.000286 0.452783 0.000000
0.038857 0.453035 0.000000
0.077398 0.453287 0.000000
0.115908 0.453539 0.000000
0.154386 0.453790 0.000000
0.192834 0.454041 0.000000
0.234334 0.454312 0.000000
0.279373 0.454606 0.000000
0.324369 0.454900 0.000000
0.369323 0.455194 0.000000
0.414234 0.455487 0.000000
0.459103 0.455780 0.000000
0.503929 0.456073 0.000000
0.546424 0.456351 0.000000
0.588728 0.456627 0.000000
0.630993 0.456903 0.000000
0.673221 0.457179 0.000000
0.715411 0.457455 0.000000
0.757562 0.457730 0.000000
0.799037 0.458001 0.000000
0.823035 0.458158 0.000000
0.847020 0.458314 0.000000
0.870994 0.458471 0.000000
0.894954 0.458627 0.000000
0.918903 0.458784 0.000000
0.944087 0.458948 0.000000
0.972757 0.459136 0.000000
1.000000 0.459323 0.000000
1.000000 0.459510 0.000000
0.000000 0.496495 0.000000
0.000000 0.496653 0.000000
0.000000 0.496811 0.000000
0.000000 0.496969 0.000000
0.001246 0.497149 0.000000
0.039817 0.497401 0.000000
0.078358 0.497653 0.000000
0.116868 0.497904 0.000000
0.155347 0.498155 0.000000
0.193795 0.498407 0.000000
0.235294 0.498678 0.000000
0.280333 0.498972 0.000000
0.325329 0.499266 0.000000
0.370283 0.499559 0.000000
0.415194 0.499853 0.000000
0.460063 0.500146 0.000000
0.504889 0.500439 0.000000
0.547384 0.500716 0.000000
0.589688 0.500993 0.000000
0.631953 0.501269 0.000000
0.674181 0.501545 0.000000
0.716371 0.501820 0.000000
0.758522 0.502096 0.000000
0.799997 0.502366 0.000000
0.823995 0.502523 0.000000
0.847981 0.502680 0.000000
0.871954 0.502837 0.000000
0.895914 0.502993 0.000000
0.919863 0.503149 0.000000
0.945047 0.503314 0.000000
0.973717 0.503501 0.000000
1.000000 0.503688 0.000000
1.000000 0.503875 0.000000
0.000000 0.538619 0.000000
0.000000 0.538777 0.000000
0.000000 0.538935 0.000000
0.000000 0.539093 0.000000
0.002157 0.539273 0.000000
0.040729 0.539525 0.000000
0.079270 0.539777 0.000000
0.117779 0.540028 0.000000
0.156258 0.540280 0.000000
0.194706 0.540531 0.000000
0.236206 0.540802 0.000000
0.281245 0.541096 0.000000
0.326241 0.541390 0.000000
0.371195 0.541684 0.000000
0.416106 0.541977 0.000000
0.460974 0.542270 0.000000
0.505801 0.542563 0.000000
0.548296 0.542840 0.000000
0.590599 0.543117 0.000000
0.632865 0.543393 0.000000
0.675093 0.543669 0.000000
0.717282 0.543944 0.000000
0.759434 0.544220 0.000000
0.800909 0.544491 0.000000
0.824907 0.544647 0.000000
0.848892 0.544804 0.000000
0.872865 0.544961 0.000000
0.896826 0.545117 0.000000
0.920774 0.545274 0.000000
0.945958 0.545438 0.000000
0.974629 0.545625 0.000000
1.000000 0.545813 0.000000
1.000000 0.546000 0.000000
0.000000 0.580617 0.000000
0.000000 0.580775 0.000000
0.000000 0.580933 0.000000
0.000000 0.581091 0.000000
0.003066 0.581271 0.000000
0.041638 0.581523 0.000000
0.080178 0.581775 0.000000
0.118688 0.582026 0.000000
0.157167 0.582277 0.000000
0.195615 0.582529 0.000000
0.237115 0.582800 0.000000
0.282153 0.583094 0.000000
0.327150 0.583388 0.000000
0.372103 0.583682 0.000000
0.417015 0.583975 0.000000
0.461883 0.584268 0.000000
0.506709 0.584561 0.000000
0.549205 0.584838 0.000000
0.591508 0.585115 0.000000
0.633774 0.585391 0.000000
0.676002 0.585667 0.000000
0.718191 0.585942 0.000000
0.760343 0.586218 0.000000
0.801818 0.586489 0.000000
0.825816 0.586645 0.000000
0.849801 0.586802 0.000000
0.873774 0.586959 0.000000
0.897735 0.587115 0.000000
0.921683 0.587272 0.000000
0.946867 0.587436 0.000000
0.975538 0.587623 0.000000
1.000000 0.587811 0.000000
1.000000 0.587998 0.000000
0.000000 0.622641 0.000000
0.000000 0.622799 0.000000
0.000000 0.622957 0.000000
0.000000 0.623115 0.000000
0.003976 0.623295 0.000000
0.042547 0.623547 0.000000
0.081088 0.623798 0.000000
0.119598 0.624050 0.000000
0.158077 0.624301 0.000000
0.196524 0.624552 0.000000
0.238024 0.624823 0.000000
0.283063 0.625118 0.000000
0.328059 0.625412 0.000000
0.373013 0.625705 0.000000
0.417924 0.625999 0.000000
0.462793 0.626292 0.000000
0.507619 0.626585 0.000000
0.550114 0.626862 0.000000
0.592418 0.627138 0.000000
0.634683 0.627415 0.000000
0.676911 0.627690 0.000000
0.719101 0.627966 0.000000
0.761252 0.628241 0.000000
0.802727 0.628512 0.000000
0.826725 0.628669 0.000000
0.850710 0.628826 0.000000
0.874684 0.628982 0.000000
0.898644 0.629139 0.000000
0.922593 0.629295 0.000000
0.947777 0.629460 0.000000
0.976447 0.629647 0.000000
1.000000 0.629834 0.000000
1.000000 0.630021 0.000000
0.000000 0.664690 0.000000
0.000000 0.664848 0.000000
0.000000 0.665006 0.000000
0.000000 0.665164 0.000000
0.004886 0.665344 0.000000
0.043457 0.665596 0.000000
0.081998 0.665848 0.000000
0.120508 0.666099 0.000000
0.158987 0.666351 0.000000
0.197434 0.666602 0.000000
0.238934 0.666873 0.000000
0.283973 0.667167 0.000000
0.328969 0.667461 0.000000
0.373923 0.667755 0.000000
0.418834 0.668048 0.000000
0.463703 0.668341 0.000000
0.508529 0.668634 0.000000
0.551024 0.668912 0.000000
0.593328 0.669188 0.000000
0.635593 0.669464 0.000000
0.677821 0.669740 0.000000
0.720011 0.670015 0.000000
0.762162 0.670291 0.000000
0.803637 0.670562 0.000000
0.827635 0.670719 0.000000
0.851620 0.670875 0.000000
0.875594 0.671032 0.000000
0.899554 0.671188 0.000000
0.923503 0.671345 0.000000
0.948687 0.671509 0.000000
0.977357 0.671697 0.000000
1.000000 0.671884 0.000000
1.000000 0.672071 0.000000
0.000000 0.706765 0.000000
0.000000 0.706923 0.000000
0.000000 0.707081 0.000000
0.000000 0.707239 0.000000
0.005796 0.707419 0.000000
0.044368 0.707671 0.000000
0.082908 0.707923 0.000000
0.121418 0.708175 0.000000
0.159897 0.708426 0.000000
0.198345 0.708677 0.000000
0.239844 0.708948 0.000000
0.284883 0.709242 0.000000
0.329880 0.709536 0.000000
0.374833 0.709830 0.000000
0.419745 0.710123 0.000000
0.464613 0.710416 0.000000
0.509439 0.710709 0.000000
0.551935 0.710987 0.000000
0.594238 0.711263 0.000000
0.636504 0.711539 0.000000
0.678732 0.711815 0.000000
0.720921 0.712091 0.000000
0.763073 0.712366 0.000000
0.804548 0.712637 0.000000
0.828545 0.712794 0.000000
0.852531 0.712950 0.000000
0.876504 0.713107 0.000000
0.900465 0.713264 0.000000
0.924413 0.713420 0.000000
0.949597 0.713584 0.000000
0.978268 0.713772 0.000000
1.000000 0.713959 0.000000
1.000000 0.714146 0.000000
0.000000 0.748866 0.000000
0.000000 0.749024 0.000000
0.000000 0.749182 0.000000
0.000000 0.749340 0.000000
0.006707 0.749520 0.000000
0.045279 0.749772 0.000000
0.083820 0.750024 0.000000
0.122329 0.750276 0.000000
0.160808 0.750527 0.000000
0.199256 0.750778 0.000000
0.240756 0.751049 0.000000
0.285794 0.751343 0.000000
0.330791 0.751637 0.000000
0.375745 0.751931 0.000000
0.420656 0.752224 0.000000
0.465524 0.752517 0.000000
0.510351 0.752810 0.000000
0.552846 0.753088 0.000000
0.595149 0.753364 0.000000
0.637415 0.753640 0.000000
0.679643 0.753916 0.000000
0.721832 0.754192 0.000000
0.763984 0.754467 0.000000
0.805459 0.754738 0.000000
0.829457 0.754895 0.000000
0.853442 0.755051 0.000000
0.877415 0.755208 0.000000
0.901376 0.755365 0.000000
0.925324 0.755521 0.000000
0.950508 0.755685 0.000000
0.979179 0.755873 0.000000
1.000000 0.756060 0.000000
1.000000 0.756247 0.000000
0.000000 0.790354 0.000000
0.000000 0.790512 0.000000
0.000000 0.790670 0.000000
0.000000 0.790828 0.000000
0.007605 0.791008 0.000000
0.046177 0.791260 0.000000
0.084717 0.791512 0.000000
0.123227 0.791763 0.000000
0.161706 0.792014 0.000000
0.200154 0.792266 0.000000
0.241653 0.792537 0.000000
0.286692 0.792831 0.000000
0.331689 0.793125 0.000000
0.376642 0.793418 0.000000
0.421554 0.793712 0.000000
0.466422 0.794005 0.000000
0.511248 0.794298 0.000000
0.553743 0.794575 0.000000
0.596047 0.794852 0.000000
0.638313 0.795128 0.000000
0.680540 0.795404 0.000000
0.722730 0.795679 0.000000
0.764882 0.795955 0.000000
0.806357 0.796225 0.000000
0.830354 0.796382 0.000000
0.854340 0.796539 0.000000
0.878313 0.796696 0.000000
0.902274 0.796852 0.000000
0.926222 0.797008 0.000000
0.951406 0.797173 0.000000
0.980077 0.797360 0.000000
1.000000 0.797547 0.000000
1.000000 0.797735 0.000000
0.000000 0.814387 0.000000
0.000000 0.814545 0.000000
0.000000 0.814703 0.000000
0.000000 0.814861 0.000000
0.008125 0.815041 0.000000
0.046697 0.815293 0.000000
0.085237 0.815545 0.000000
0.123747 0.815796 0.000000
0.162226 0.816048 0.000000
0.200674 0.816299 0.000000
0.242174 0.816570 0.000000
0.287212 0.816864 0.000000
0.332209 0.817158 0.000000
0.377162 0.817452 0.000000
0.422074 0.817745 0.000000
0.466942 0.818038 0.000000
0.511768 0.818331 0.000000
0.554264 0.818609 0.000000
0.596567 0.818885 0.000000
0.638833 0.819161 0.000000
0.681061 0.819437 0.000000
0.723250 0.819713 0.000000
0.765402 0.819988 0.000000
0.806877 0.820259 0.000000
0.830875 0.820416 0.000000
0.854860 0.820572 0.000000
0.878833 0.820729 0.000000
0.902794 0.820885 0.000000
0.926742 0.821042 0.000000
0.951926 0.821206 0.000000
0.980597 0.821394 0.000000
1.000000 0.821581 0.000000
1.000000 0.821768 0.000000
0.000000 0.838429 0.000000
0.000000 0.838587 0.000000
0.000000 0.838745 0.000000
0.000000 0.838903 0.000000
0.008646 0.839083 0.000000
0.047217 0.839335 0.000000
0.085758 0.839587 0.000000
0.124268 0.839838 0.000000
0.162746 0.840090 0.000000
0.201194 0.840341 0.000000
0.242694 0.840612 0.000000
0.287733 0.840906 0.000000
0.332729 0.841200 0.000000
0.377683 0.841494 0.000000
0.422594 0.841787 0.000000
0.467463 0.842080 0.000000
0.512289 0.842373 0.000000
0.554784 0.842651 0.000000
0.597088 0.842927 0.000000
0.639353 0.843203 0.000000
0.681581 0.843479 0.000000
0.723770 0.843754 0.000000
0.765922 0.844030 0.000000
0.807397 0.844301 0.000000
0.831395 0.844457 0.000000
0.855380 0.844614 0.000000
0.879353 0.844771 0.000000
0.903314 0.844927 0.000000
0.927263 0.845084 0.000000
0.952447 0.845248 0.000000
0.981117 0.845435 0.000000
1.000000 0.845623 0.000000
1.000000 0.845810 0.000000
0.000000 0.862479 0.000000
0.000000 0.862637 0.000000
0.000000 0.862795 0.000000
0.000000 0.862953 0.000000
0.009166 0.863133 0.000000
0.047738 0.863385 0.000000
0.086278 0.863637 0.000000
0.124788 0.863888 0.000000
0.163267 0.864140 0.000000
0.201715 0.864391 0.000000
0.243214 0.864662 0.000000
0.288253 0.864956 0.000000
0.333249 0.865250 0.000000
0.378203 0.865544 0.000000
0.423114 0.865837 0.000000
0.467983 0.866130 0.000000
0.512809 0.866423 0.000000
0.555304 0.866701 0.000000
0.597608 0.866977 0.000000
0.639874 0.867253 0.000000
0.682101 0.867529 0.000000
0.724291 0.867805 0.000000
0.766442 0.868080 0.000000
0.807917 0.868351 0.000000
0.831915 0.868508 0.000000
0.855901 0.868664 0.000000
