assets/ricoh/Ricoh_GR2_PS_Filter/LUT/GR2_Negative_Film.cube
TITLE "Ricoh GR2 Negative Film"
LUT_3D_SIZE 9
DOMAIN_MIN 0.000000 0.000000 0.000000
DOMAIN_MAX 1.000000 1.000000 1.000000
0.086041 0.098359 0.100578
0.169556 0.100497 0.102717
0.273319 0.103154 0.105373
0.379105 0.105863 0.108082
0.492981 0.108778 0.110998
0.600513 0.111532 0.113751
0.700577 0.114094 0.116313
0.784894 0.116252 0.118472
0.859290 0.118157 0.120376
0.092958 0.183523 0.107495
0.176473 0.185661 0.109633
0.280235 0.188318 0.112290
0.386022 0.191026 0.114999
0.499897 0.193942 0.117914
0.607429 0.196695 0.120667
0.707493 0.199257 0.123229
0.791810 0.201416 0.125388
0.866206 0.203321 0.127293
0.101593 0.289846 0.116130
0.185108 0.291984 0.118269
0.288870 0.294641 0.120925
0.394657 0.297349 0.123634
0.508532 0.300265 0.126549
0.616065 0.303018 0.129303
0.716129 0.305580 0.131865
0.800446 0.307739 0.134023
0.874841 0.309644 0.135928
0.110445 0.398837 0.124982
0.193960 0.400975 0.127120
0.297722 0.403632 0.129777
0.403509 0.406340 0.132486
0.517384 0.409256 0.135401
0.624916 0.412009 0.138154
0.724981 0.414571 0.140716
0.809297 0.416730 0.142875
0.883693 0.418635 0.144780
0.120029 0.516844 0.134566
0.203544 0.518983 0.136705
0.307306 0.521639 0.139361
0.413093 0.524348 0.142070
0.526969 0.527264 0.144985
0.634501 0.530017 0.147739
0.734565 0.532579 0.150301
0.818882 0.534738 0.152459
0.893277 0.536642 0.154364
0.129133 0.628939 0.143670
0.212648 0.631077 0.145808
0.316410 0.633734 0.148465
0.422197 0.636442 0.151174
0.536072 0.639358 0.154089
0.643605 0.642111 0.156842
0.743669 0.644673 0.159404
0.827986 0.646832 0.161563
0.902381 0.648737 0.163468
0.137652 0.733834 0.152189
0.221167 0.735973 0.154328
0.324930 0.738629 0.156984
0.430716 0.741338 0.159693
0.544592 0.744253 0.162608
0.652124 0.747007 0.165362
0.752188 0.749569 0.167924
0.836505 0.751727 0.170083
0.910901 0.753632 0.171987
0.144867 0.822668 0.159404
0.228382 0.824806 0.161542
0.332144 0.827463 0.164199
0.437931 0.830172 0.166908
0.551806 0.833087 0.169823
0.659339 0.835841 0.172576
0.759403 0.838403 0.175138
0.843720 0.840561 0.177297
0.918115 0.842466 0.179202
0.151261 0.901393 0.165798
0.234776 0.903531 0.167936
0.338538 0.906188 0.170593
0.444325 0.908896 0.173301
0.558200 0.911812 0.176217
0.665732 0.914565 0.178970
0.765796 0.917127 0.181532
0.850113 0.919286 0.183691
0.924509 0.921191 0.185596
0.086720 0.099037 0.177271
0.170235 0.101176 0.179409
0.273997 0.103832 0.182066
0.379783 0.106541 0.184774
0.493659 0.109457 0.187690
0.601191 0.112210 0.190443
0.701255 0.114772 0.193005
0.785572 0.116931 0.195164
0.859968 0.118835 0.197069
0.093636 0.184201 0.184187
0.177151 0.186339 0.186325
0.280914 0.188996 0.188982
0.386700 0.191704 0.191691
0.500576 0.194620 0.194606
0.608108 0.197373 0.197360
0.708172 0.199935 0.199922
0.792489 0.202094 0.202080
0.866885 0.203999 0.203985
0.102271 0.290524 0.192822
0.185787 0.292662 0.194961
0.289549 0.295319 0.197617
0.395335 0.298027 0.200326
0.509211 0.300943 0.203241
0.616743 0.303696 0.205995
0.716807 0.306258 0.208557
0.801124 0.308417 0.210716
0.875520 0.310322 0.212620
0.111123 0.399515 0.201674
0.194638 0.401654 0.203813
0.298401 0.404310 0.206469
0.404187 0.407019 0.209178
0.518063 0.409934 0.212093
0.625595 0.412688 0.214847
0.725659 0.415250 0.217409
0.809976 0.417408 0.219567
0.884372 0.419313 0.221472
0.120707 0.517523 0.211258
0.204223 0.519661 0.213397
0.307985 0.522318 0.216053
0.413771 0.525026 0.218762
0.527647 0.527942 0.221678
0.635179 0.530695 0.224431
0.735243 0.533257 0.226993
0.819560 0.535416 0.229152
0.893956 0.537321 0.231056
0.129811 0.629617 0.220362
0.213326 0.631755 0.222501
0.317089 0.634412 0.225157
0.422875 0.637121 0.227866
0.536751 0.640036 0.230781
0.644283 0.642789 0.233535
0.744347 0.645351 0.236097
0.828664 0.647510 0.238255
0.903060 0.649415 0.240160
0.138331 0.734513 0.228882
0.221846 0.736651 0.231020
0.325608 0.739308 0.233676
0.431394 0.742016 0.236385
0.545270 0.744932 0.239301
0.652802 0.747685 0.242054
0.752866 0.750247 0.244616
0.837183 0.752406 0.246775
0.911579 0.754311 0.248679
0.145545 0.823347 0.236096
0.229060 0.825485 0.238235
0.332823 0.828142 0.240891
0.438609 0.830850 0.243600
0.552485 0.833766 0.246515
0.660017 0.836519 0.249269
0.760081 0.839081 0.251831
0.844398 0.841240 0.253989
0.918794 0.843144 0.255894
0.151939 0.902071 0.242490
0.235454 0.904210 0.244628
0.339216 0.906866 0.247285
0.445003 0.909575 0.249994
0.558878 0.912490 0.252909
0.666411 0.915244 0.255662
0.766475 0.917806 0.258224
0.850792 0.919964 0.260383
0.925187 0.921869 0.262288
0.087569 0.099887 0.273300
0.171084 0.102025 0.275438
0.274846 0.104682 0.278095
0.380633 0.107390 0.280804
0.494508 0.110306 0.283719
0.602040 0.113059 0.286473
0.702104 0.115621 0.289035
0.786421 0.117780 0.291193
0.860817 0.119685 0.293098
0.094486 0.185050 0.280217
0.178001 0.187188 0.282355
0.281763 0.189845 0.285012
0.387549 0.192554 0.287720
0.501425 0.195469 0.290636
0.608957 0.198223 0.293389
0.709021 0.200785 0.295951
0.793338 0.202943 0.298110
0.867734 0.204848 0.300015
0.103121 0.291373 0.288852
0.186636 0.293512 0.290990
0.290398 0.296168 0.293647
0.396185 0.298877 0.296356
0.510060 0.301792 0.299271
0.617592 0.304546 0.302024
0.717656 0.307108 0.304586
0.801973 0.309266 0.306745
0.876369 0.311171 0.308650
0.111973 0.400365 0.297704
0.195488 0.402503 0.299842
0.299250 0.405160 0.302499
0.405036 0.407868 0.305207
0.518912 0.410784 0.308123
0.626444 0.413537 0.310876
0.726508 0.416099 0.313438
0.810825 0.418258 0.315597
0.885221 0.420163 0.317502
0.121557 0.518372 0.307288
0.205072 0.520510 0.309426
0.308834 0.523167 0.312083
0.414621 0.525876 0.314792
0.528496 0.528791 0.317707
0.636028 0.531544 0.320460
0.736092 0.534106 0.323022
0.820409 0.536265 0.325181
0.894805 0.538170 0.327086
0.130661 0.630466 0.316392
0.214176 0.632605 0.318530
0.317938 0.635261 0.321187
0.423724 0.637970 0.323895
0.537600 0.640886 0.326811
0.645132 0.643639 0.329564
0.745196 0.646201 0.332126
0.829513 0.648360 0.334285
0.903909 0.650264 0.336190
0.139180 0.735362 0.324911
0.222695 0.737500 0.327049
0.326457 0.740157 0.329706
0.432244 0.742865 0.332415
0.546119 0.745781 0.335330
0.653651 0.748534 0.338083
0.753715 0.751096 0.340645
0.838032 0.753255 0.342804
0.912428 0.755160 0.344709
0.146395 0.824196 0.332126
0.229910 0.826334 0.334264
0.333672 0.828991 0.336921
0.439458 0.831699 0.339629
0.553334 0.834615 0.342545
0.660866 0.837368 0.345298
0.760930 0.839930 0.347860
0.845247 0.842089 0.350019
0.919643 0.843994 0.351924
0.152788 0.902921 0.338520
0.236304 0.905059 0.340658
0.340066 0.907716 0.343315
0.445852 0.910424 0.346023
0.559728 0.913340 0.348939
0.667260 0.916093 0.351692
0.767324 0.918655 0.354254
0.851641 0.920814 0.356413
0.926037 0.922719 0.358318
0.088443 0.100760 0.372066
0.171958 0.102899 0.374204
0.275720 0.105555 0.376861
0.381506 0.108264 0.379569
0.495382 0.111180 0.382485
0.602914 0.113933 0.385238
0.702978 0.116495 0.387800
0.787295 0.118654 0.389959
0.861691 0.120558 0.391864
0.095359 0.185924 0.378982
0.178874 0.188062 0.381121
0.282636 0.190719 0.383777
0.388423 0.193427 0.386486
0.502299 0.196343 0.389401
0.609831 0.199096 0.392155
0.709895 0.201658 0.394717
0.794212 0.203817 0.396875
0.868608 0.205722 0.398780
0.103994 0.292247 0.387617
0.187509 0.294385 0.389756
0.291272 0.297042 0.392412
0.397058 0.299750 0.395121
0.510934 0.302666 0.398037
0.618466 0.305419 0.400790
0.718530 0.307981 0.403352
0.802847 0.310140 0.405511
0.877243 0.312045 0.407415
0.112846 0.401238 0.396469
0.196361 0.403376 0.398608
0.300124 0.406033 0.401264
0.405910 0.408742 0.403973
0.519786 0.411657 0.406888
0.627318 0.414410 0.409642
0.727382 0.416972 0.412204
0.811699 0.419131 0.414362
0.886095 0.421036 0.416267
0.122430 0.519246 0.406053
0.205945 0.521384 0.408192
0.309708 0.524041 0.410848
0.415494 0.526749 0.413557
0.529370 0.529665 0.416473
0.636902 0.532418 0.419226
0.736966 0.534980 0.421788
0.821283 0.537139 0.423947
0.895679 0.539044 0.425851
0.131534 0.631340 0.415157
0.215049 0.633478 0.417296
0.318812 0.636135 0.419952
0.424598 0.638843 0.422661
0.538474 0.641759 0.425576
0.646006 0.644512 0.428330
0.746070 0.647074 0.430892
0.830387 0.649233 0.433050
0.904783 0.651138 0.434955
0.140053 0.736235 0.423677
0.223569 0.738374 0.425815
0.327331 0.741030 0.428472
0.433117 0.743739 0.431180
0.546993 0.746655 0.434096
0.654525 0.749408 0.436849
0.754589 0.751970 0.439411
0.838906 0.754129 0.441570
0.913302 0.756033 0.443474
0.147268 0.825069 0.430891
0.230783 0.827208 0.433030
0.334546 0.829864 0.435686
0.440332 0.832573 0.438395
0.554208 0.835489 0.441310
0.661740 0.838242 0.444064
0.761804 0.840804 0.446626
0.846121 0.842963 0.448784
0.920517 0.844867 0.450689
0.153662 0.903794 0.437285
0.237177 0.905932 0.439423
0.340939 0.908589 0.442080
0.446726 0.911298 0.444789
0.560601 0.914213 0.447704
0.668133 0.916966 0.450457
0.768197 0.919528 0.453019
0.852514 0.921687 0.455178
0.926910 0.923592 0.457083
0.089392 0.101709 0.479373
0.172907 0.103848 0.481511
0.276669 0.106504 0.484168
0.382455 0.109213 0.486876
0.496331 0.112129 0.489792
0.603863 0.114882 0.492545
0.703927 0.117444 0.495107
0.788244 0.119603 0.497266
0.862640 0.121507 0.499171
0.096308 0.186873 0.486290
0.179823 0.189011 0.488428
0.283586 0.191668 0.491085
0.389372 0.194376 0.493793
0.503248 0.197292 0.496709
0.610780 0.200045 0.499462
0.710844 0.202607 0.502024
0.795161 0.204766 0.504183
0.869557 0.206671 0.506088
0.104943 0.293196 0.494925
0.188459 0.295334 0.497063
0.292221 0.297991 0.499720
0.398007 0.300699 0.502428
0.511883 0.303615 0.505344
0.619415 0.306368 0.508097
0.719479 0.308930 0.510659
0.803796 0.311089 0.512818
0.878192 0.312994 0.514723
0.113795 0.402187 0.503777
0.197310 0.404326 0.505915
0.301073 0.406982 0.508572
0.406859 0.409691 0.511280
0.520735 0.412606 0.514196
0.628267 0.415360 0.516949
0.728331 0.417922 0.519511
0.812648 0.420080 0.521670
0.887044 0.421985 0.523575
0.123379 0.520195 0.513361
0.206895 0.522333 0.515499
0.310657 0.524990 0.518156
0.416443 0.527698 0.520864
0.530319 0.530614 0.523780
0.637851 0.533367 0.526533
0.737915 0.535929 0.529095
0.822232 0.538088 0.531254
0.896628 0.539993 0.533159
0.132483 0.632289 0.522465
0.215998 0.634427 0.524603
0.319761 0.637084 0.527260
0.425547 0.639793 0.529968
0.539423 0.642708 0.532884
0.646955 0.645461 0.535637
0.747019 0.648023 0.538199
0.831336 0.650182 0.540358
0.905732 0.652087 0.542263
0.141003 0.737185 0.530984
0.224518 0.739323 0.533122
0.328280 0.741980 0.535779
0.434066 0.744688 0.538487
0.547942 0.747604 0.541403
0.655474 0.750357 0.544156
0.755538 0.752919 0.546718
0.839855 0.755078 0.548877
0.914251 0.756983 0.550782
0.148217 0.826019 0.538199
0.231732 0.828157 0.540337
0.335495 0.830813 0.542994
0.441281 0.833522 0.545702
0.555157 0.836438 0.548618
0.662689 0.839191 0.551371
0.762753 0.841753 0.553933
0.847070 0.843912 0.556092
0.921466 0.845816 0.557997
0.154611 0.904743 0.544592
0.238126 0.906882 0.546731
0.341888 0.909538 0.549387
0.447675 0.912247 0.552096
0.561550 0.915162 0.555012
0.669083 0.917916 0.557765
0.769147 0.920478 0.560327
0.853464 0.922636 0.562486
0.927859 0.924541 0.564390
0.090296 0.102614 0.581661
0.173811 0.104752 0.583800
0.277574 0.107409 0.586456
0.383360 0.110118 0.589165
0.497236 0.113033 0.592080
0.604768 0.115787 0.594834
0.704832 0.118349 0.597396
0.789149 0.120507 0.599554
0.863545 0.122412 0.601459
0.097213 0.187778 0.588578
0.180728 0.189916 0.590716
0.284490 0.192573 0.593373
0.390277 0.195281 0.596081
0.504152 0.198197 0.598997
0.611684 0.200950 0.601750
0.711748 0.203512 0.604312
0.796065 0.205671 0.606471
0.870461 0.207576 0.608376
0.105848 0.294101 0.597213
0.189363 0.296239 0.599351
0.293125 0.298896 0.602008
0.398912 0.301604 0.604717
0.512788 0.304520 0.607632
0.620320 0.307273 0.610385
0.720384 0.309835 0.612947
0.804701 0.311994 0.615106
0.879096 0.313899 0.617011
0.114700 0.403092 0.606065
0.198215 0.405230 0.608203
0.301977 0.407887 0.610860
0.407764 0.410595 0.613568
0.521639 0.413511 0.616484
0.629172 0.416264 0.619237
0.729236 0.418826 0.621799
0.813553 0.420985 0.623958
0.887948 0.422890 0.625863
0.124284 0.521099 0.615649
0.207799 0.523238 0.617787
0.311561 0.525894 0.620444
0.417348 0.528603 0.623153
0.531224 0.531519 0.626068
0.638756 0.534272 0.628821
0.738820 0.536834 0.631383
0.823137 0.538993 0.633542
0.897533 0.540897 0.635447
0.133388 0.633194 0.624753
0.216903 0.635332 0.626891
0.320665 0.637989 0.629548
0.426452 0.640697 0.632257
0.540327 0.643613 0.635172
0.647860 0.646366 0.637925
0.747924 0.648928 0.640487
0.832241 0.651087 0.642646
0.906636 0.652992 0.644551
0.141907 0.738089 0.633272
0.225422 0.740228 0.635411
0.329185 0.742884 0.638067
0.434971 0.745593 0.640776
0.548847 0.748508 0.643691
0.656379 0.751262 0.646445
0.756443 0.753824 0.649007
0.840760 0.755982 0.651165
0.915156 0.757887 0.653070
0.149122 0.826923 0.640487
0.232637 0.829062 0.642625
0.336399 0.831718 0.645282
0.442186 0.834427 0.647991
0.556061 0.837342 0.650906
0.663594 0.840096 0.653659
0.763658 0.842658 0.656221
0.847975 0.844816 0.658380
0.922370 0.846721 0.660285
0.155516 0.905648 0.646881
0.239031 0.907786 0.649019
0.342793 0.910443 0.651676
0.448580 0.913151 0.654384
0.562455 0.916067 0.657300
0.669987 0.918820 0.660053
0.770051 0.921382 0.662615
0.854368 0.923541 0.664774
0.928764 0.925446 0.666679
0.091146 0.103464 0.677697
0.174661 0.105602 0.679835
0.278423 0.108259 0.682492
0.384209 0.110967 0.685200
0.498085 0.113883 0.688116
0.605617 0.116636 0.690869
0.705681 0.119198 0.693431
0.789998 0.121357 0.695590
0.864394 0.123262 0.697495
0.098062 0.188627 0.684613
0.181577 0.190765 0.686752
0.285340 0.193422 0.689408
0.391126 0.196130 0.692117
0.505002 0.199046 0.695032
0.612534 0.201799 0.697786
0.712598 0.204361 0.700348
0.796915 0.206520 0.702506
0.871311 0.208425 0.704411
0.106698 0.294950 0.693248
0.190213 0.297088 0.695387
0.293975 0.299745 0.698043
0.399761 0.302453 0.700752
0.513637 0.305369 0.703668
0.621169 0.308122 0.706421
0.721233 0.310684 0.708983
0.805550 0.312843 0.711142
0.879946 0.314748 0.713046
0.115549 0.403941 0.702100
0.199065 0.406080 0.704239
0.302827 0.408736 0.706895
0.408613 0.411445 0.709604
0.522489 0.414360 0.712519
0.630021 0.417114 0.715273
0.730085 0.419676 0.717835
0.814402 0.421835 0.719993
0.888798 0.423739 0.721898
0.125134 0.521949 0.711684
0.208649 0.524087 0.713823
0.312411 0.526744 0.716479
0.418197 0.529452 0.719188
0.532073 0.532368 0.722104
0.639605 0.535121 0.724857
0.739669 0.537683 0.727419
0.823986 0.539842 0.729578
0.898382 0.541747 0.731482
0.134237 0.634043 0.720788
0.217753 0.636181 0.722927
0.321515 0.638838 0.725583
0.427301 0.641547 0.728292
0.541177 0.644462 0.731207
0.648709 0.647215 0.733961
0.748773 0.649777 0.736523
0.833090 0.651936 0.738681
0.907486 0.653841 0.740586
0.142757 0.738939 0.729308
0.226272 0.741077 0.731446
0.330034 0.743734 0.734103
0.435820 0.746442 0.736811
0.549696 0.749358 0.739727
0.657228 0.752111 0.742480
0.757292 0.754673 0.745042
0.841609 0.756832 0.747201
0.916005 0.758737 0.749106
0.149971 0.827773 0.736522
0.233487 0.829911 0.738661
0.337249 0.832568 0.741317
0.443035 0.835276 0.744026
0.556911 0.838192 0.746941
0.664443 0.840945 0.749695
0.764507 0.843507 0.752257
0.848824 0.845666 0.754415
0.923220 0.847571 0.756320
0.156365 0.906497 0.742916
0.239880 0.908636 0.745054
0.343643 0.911292 0.747711
0.449429 0.914001 0.750420
0.563305 0.916916 0.753335
0.670837 0.919670 0.756088
0.770901 0.922232 0.758650
0.855218 0.924390 0.760809
0.929614 0.926295 0.762714
0.091867 0.104185 0.759266
0.175382 0.106323 0.761404
0.279144 0.108980 0.764061
0.384931 0.111689 0.766769
0.498807 0.114604 0.769685
0.606339 0.117357 0.772438
0.706403 0.119919 0.775000
0.790720 0.122078 0.777159
0.865116 0.123983 0.779064
0.098784 0.189348 0.766182
0.182299 0.191487 0.768321
0.286061 0.194143 0.770977
0.391848 0.196852 0.773686
0.505723 0.199768 0.776602
0.613255 0.202521 0.779355
0.713319 0.205083 0.781917
0.797636 0.207242 0.784076
0.872032 0.209146 0.785980
0.107419 0.295671 0.774818
0.190934 0.297810 0.776956
0.294696 0.300466 0.779613
0.400483 0.303175 0.782321
0.514358 0.306091 0.785237
0.621890 0.308844 0.787990
0.721954 0.311406 0.790552
0.806271 0.313565 0.792711
0.880667 0.315469 0.794616
0.116271 0.404663 0.783670
0.199786 0.406801 0.785808
0.303548 0.409458 0.788464
0.409335 0.412166 0.791173
0.523210 0.415082 0.794089
0.630742 0.417835 0.796842
0.730806 0.420397 0.799404
0.815123 0.422556 0.801563
0.889519 0.424461 0.803467
0.125855 0.522670 0.793254
0.209370 0.524809 0.795392
0.313132 0.527465 0.798049
0.418919 0.530174 0.800757
0.532794 0.533089 0.803673
0.640327 0.535843 0.806426
0.740391 0.538405 0.808988
0.824708 0.540563 0.811147
0.899103 0.542468 0.813052
0.134959 0.634765 0.802358
0.218474 0.636903 0.804496
0.322236 0.639560 0.807153
0.428023 0.642268 0.809861
0.541898 0.645184 0.812777
0.649430 0.647937 0.815530
0.749494 0.650499 0.818092
0.833811 0.652658 0.820251
0.908207 0.654563 0.822156
0.143478 0.739660 0.810877
0.226993 0.741798 0.813015
0.330755 0.744455 0.815672
0.436542 0.747164 0.818380
0.550418 0.750079 0.821296
0.657950 0.752832 0.824049
0.758014 0.755394 0.826611
0.842331 0.757553 0.828770
0.916726 0.759458 0.830675
0.150693 0.828494 0.818092
0.234208 0.830632 0.820230
0.337970 0.833289 0.822887
0.443757 0.835998 0.825595
0.557632 0.838913 0.828511
0.665164 0.841666 0.831264
0.765228 0.844228 0.833826
0.849545 0.846387 0.835985
0.923941 0.848292 0.837890
0.157087 0.907219 0.824485
0.240602 0.909357 0.826624
0.344364 0.912014 0.829280
0.450150 0.914722 0.831989
0.564026 0.917638 0.834904
0.671558 0.920391 0.837658
0.771622 0.922953 0.840220
0.855939 0.925112 0.842378
0.930335 0.927017 0.844283
0.092508 0.104826 0.831736
0.176023 0.106964 0.833874
0.279785 0.109621 0.836531
0.385572 0.112330 0.839239
0.499448 0.115245 0.842155
0.606980 0.117998 0.844908
0.707044 0.120560 0.847470
0.791361 0.122719 0.849629
0.865756 0.124624 0.851534
0.099425 0.189989 0.838652
0.182940 0.192128 0.840791
0.286702 0.194784 0.843447
0.392489 0.197493 0.846156
0.506364 0.200409 0.849071
0.613896 0.203162 0.851825
0.713960 0.205724 0.854387
0.798277 0.207883 0.856545
0.872673 0.209787 0.858450
0.108060 0.296312 0.847287
0.191575 0.298451 0.849426
0.295337 0.301107 0.852082
0.401124 0.303816 0.854791
0.514999 0.306732 0.857707
0.622531 0.309485 0.860460
0.722595 0.312047 0.863022
0.806912 0.314206 0.865181
0.881308 0.316110 0.867085
0.116912 0.405304 0.856139
0.200427 0.407442 0.858278
0.304189 0.410099 0.860934
0.409976 0.412807 0.863643
0.523851 0.415723 0.866558
0.631383 0.418476 0.869312
0.731447 0.421038 0.871874
0.815764 0.423197 0.874032
0.890160 0.425102 0.875937
0.126496 0.523311 0.865723
0.210011 0.525450 0.867862
0.313773 0.528106 0.870518
0.419560 0.530815 0.873227
0.533435 0.533730 0.876143
0.640967 0.536484 0.878896
0.741031 0.539046 0.881458
0.825348 0.541204 0.883617
0.899744 0.543109 0.885521
0.135600 0.635406 0.874827
0.219115 0.637544 0.876966
0.322877 0.640201 0.879622
0.428664 0.642909 0.882331
0.542539 0.645825 0.885246
0.650071 0.648578 0.888000
0.750135 0.651140 0.890562
0.834452 0.653299 0.892721
0.908848 0.655204 0.894625
0.144119 0.740301 0.883347
0.227634 0.742439 0.885485
0.331396 0.745096 0.888142
0.437183 0.747805 0.890850
0.551058 0.750720 0.893766
0.658591 0.753473 0.896519
0.758655 0.756035 0.899081
0.842972 0.758194 0.901240
0.917367 0.760099 0.903145
0.151334 0.829135 0.890561
0.234849 0.831273 0.892700
0.338611 0.833930 0.895356
0.444398 0.836639 0.898065
0.558273 0.839554 0.900980
0.665805 0.842307 0.903734
0.765869 0.844869 0.906296
0.850186 0.847028 0.908455
0.924582 0.848933 0.910359
0.157728 0.907860 0.896955
0.241243 0.909998 0.899093
0.345005 0.912655 0.901750
0.450791 0.915363 0.904459
0.564667 0.918279 0.907374
0.672199 0.921032 0.910127
0.772263 0.923594 0.912689
0.856580 0.925753 0.914848
0.930976 0.927658 0.916753
