assets/ricoh/Ricoh_GR2_PS_Filter/LUT/GR2_Hi_BW.cube
TITLE "Ricoh GR2 High Contrast BW"
LUT_3D_SIZE 33
DOMAIN_MIN 0.000000 0.000000 0.000000
DOMAIN_MAX 1.000000 1.000000 1.000000
0.000000 0.000000 0.000000
0.000000 0.000000 0.000000
0.000000 0.000000 0.000000
0.000000 0.000000 0.000000
0.000000 0.000000 0.000000
0.000000 0.000000 0.000000
0.000000 0.000000 0.000000
0.000000 0.000000 0.000000
0.000000 0.000000 0.000000
0.000000 0.000000 0.000000
0.000000 0.000000 0.000000
0.000000 0.000000 0.000000
0.000000 0.000000 0.000000
0.007425 0.007425 0.007425
0.016861 0.016861 0.016861
0.026298 0.026298 0.026298
0.035831 0.035831 0.035831
0.045782 0.045782 0.045782
0.055732 0.055732 0.055732
0.065682 0.065682 0.065682
0.075632 0.075632 0.075632
0.085583 0.085583 0.085583
0.095533 0.095533 0.095533
0.102894 0.102894 0.102894
0.108937 0.108937 0.108937
0.114980 0.114980 0.114980
0.121023 0.121023 0.121023
0.127066 0.127066 0.127066
0.133109 0.133109 0.133109
0.139782 0.139782 0.139782
0.146811 0.146811 0.146811
0.153839 0.153839 0.153839
0.160868 0.160868 0.160868
0.000000 0.000000 0.000000
0.000000 0.000000 0.000000
0.000000 0.000000 0.000000
0.000000 0.000000 0.000000
0.000000 0.000000 0.000000
0.000000 0.000000 0.000000
0.000000 0.000000 0.000000
0.000000 0.000000 0.000000
0.000000 0.000000 0.000000
0.000000 0.000000 0.000000
0.000000 0.000000 0.000000
0.002680 0.002680 0.002680
0.012117 0.012117 0.012117
0.021553 0.021553 0.021553
0.030990 0.030990 0.030990
0.040426 0.040426 0.040426
0.049960 0.049960 0.049960
0.059910 0.059910 0.059910
0.069860 0.069860 0.069860
0.079811 0.079811 0.079811
0.089761 0.089761 0.089761
0.099711 0.099711 0.099711
0.109661 0.109661 0.109661
0.117022 0.117022 0.117022
0.123065 0.123065 0.123065
0.129108 0.129108 0.129108
0.135151 0.135151 0.135151
0.141194 0.141194 0.141194
0.147237 0.147237 0.147237
0.153911 0.153911 0.153911
0.160939 0.160939 0.160939
0.167968 0.167968 0.167968
0.174996 0.174996 0.174996
0.000000 0.000000 0.000000
0.000000 0.000000 0.000000
0.000000 0.000000 0.000000
0.000000 0.000000 0.000000
0.000000 0.000000 0.000000
0.000000 0.000000 0.000000
0.000000 0.000000 0.000000
0.000000 0.000000 0.000000
0.000000 0.000000 0.000000
0.000000 0.000000 0.000000
0.007372 0.007372 0.007372
0.016808 0.016808 0.016808
0.026245 0.026245 0.026245
0.035682 0.035682 0.035682
0.045118 0.045118 0.045118
0.054555 0.054555 0.054555
0.064088 0.064088 0.064088
0.074038 0.074038 0.074038
0.083989 0.083989 0.083989
0.093939 0.093939 0.093939
0.103889 0.103889 0.103889
0.113840 0.113840 0.113840
0.123790 0.123790 0.123790
0.131151 0.131151 0.131151
0.137194 0.137194 0.137194
0.143237 0.143237 0.143237
0.149280 0.149280 0.149280
0.155323 0.155323 0.155323
0.161366 0.161366 0.161366
0.168039 0.168039 0.168039
0.175068 0.175068 0.175068
0.182096 0.182096 0.182096
0.189125 0.189125 0.189125
0.000000 0.000000 0.000000
0.000000 0.000000 0.000000
0.000000 0.000000 0.000000
0.000000 0.000000 0.000000
0.000000 0.000000 0.000000
0.000000 0.000000 0.000000
0.000000 0.000000 0.000000
0.000000 0.000000 0.000000
0.003911 0.003911 0.003911
0.012107 0.012107 0.012107
0.021500 0.021500 0.021500
0.030937 0.030937 0.030937
0.040373 0.040373 0.040373
0.049810 0.049810 0.049810
0.059247 0.059247 0.059247
0.068683 0.068683 0.068683
0.078216 0.078216 0.078216
0.088167 0.088167 0.088167
0.098117 0.098117 0.098117
0.108067 0.108067 0.108067
0.118018 0.118018 0.118018
0.127968 0.127968 0.127968
0.137918 0.137918 0.137918
0.145279 0.145279 0.145279
0.151322 0.151322 0.151322
0.157365 0.157365 0.157365
0.163408 0.163408 0.163408
0.169451 0.169451 0.169451
0.175494 0.175494 0.175494
0.182167 0.182167 0.182167
0.189196 0.189196 0.189196
0.196225 0.196225 0.196225
0.203253 0.203253 0.203253
0.000000 0.000000 0.000000
0.000000 0.000000 0.000000
0.000000 0.000000 0.000000
0.000000 0.000000 0.000000
0.000000 0.000000 0.000000
0.000000 0.000000 0.000000
0.008185 0.008185 0.008185
0.016381 0.016381 0.016381
0.024577 0.024577 0.024577
0.032773 0.032773 0.032773
0.042166 0.042166 0.042166
0.051602 0.051602 0.051602
0.061039 0.061039 0.061039
0.070476 0.070476 0.070476
0.079912 0.079912 0.079912
0.089349 0.089349 0.089349
0.098882 0.098882 0.098882
0.108832 0.108832 0.108832
0.118783 0.118783 0.118783
0.128733 0.128733 0.128733
0.138683 0.138683 0.138683
0.148634 0.148634 0.148634
0.158584 0.158584 0.158584
0.165945 0.165945 0.165945
0.171988 0.171988 0.171988
0.178031 0.178031 0.178031
0.184074 0.184074 0.184074
0.190117 0.190117 0.190117
0.196160 0.196160 0.196160
0.202833 0.202833 0.202833
0.209861 0.209861 0.209861
0.216890 0.216890 0.216890
0.223919 0.223919 0.223919
0.000623 0.000623 0.000623
0.004822 0.004822 0.004822
0.009022 0.009022 0.009022
0.013222 0.013222 0.013222
0.019365 0.019365 0.019365
0.027561 0.027561 0.027561
0.035757 0.035757 0.035757
0.043953 0.043953 0.043953
0.052149 0.052149 0.052149
0.060345 0.060345 0.060345
0.069738 0.069738 0.069738
0.079174 0.079174 0.079174
0.088611 0.088611 0.088611
0.098047 0.098047 0.098047
0.107484 0.107484 0.107484
0.116921 0.116921 0.116921
0.126454 0.126454 0.126454
0.136404 0.136404 0.136404
0.146354 0.146354 0.146354
0.156305 0.156305 0.156305
0.166255 0.166255 0.166255
0.176205 0.176205 0.176205
0.186156 0.186156 0.186156
0.193516 0.193516 0.193516
0.199559 0.199559 0.199559
0.205602 0.205602 0.205602
0.211645 0.211645 0.211645
0.217689 0.217689 0.217689
0.223732 0.223732 0.223732
0.230405 0.230405 0.230405
0.237433 0.237433 0.237433
0.244462 0.244462 0.244462
0.251491 0.251491 0.251491
0.028194 0.028194 0.028194
0.032394 0.032394 0.032394
0.036594 0.036594 0.036594
0.040794 0.040794 0.040794
0.046937 0.046937 0.046937
0.055133 0.055133 0.055133
0.063329 0.063329 0.063329
0.071525 0.071525 0.071525
0.079721 0.079721 0.079721
0.087917 0.087917 0.087917
0.097309 0.097309 0.097309
0.106746 0.106746 0.106746
0.116183 0.116183 0.116183
0.125619 0.125619 0.125619
0.135056 0.135056 0.135056
0.144492 0.144492 0.144492
0.154026 0.154026 0.154026
0.163976 0.163976 0.163976
0.173926 0.173926 0.173926
0.183876 0.183876 0.183876
0.193827 0.193827 0.193827
0.203777 0.203777 0.203777
0.213727 0.213727 0.213727
0.221088 0.221088 0.221088
0.227131 0.227131 0.227131
0.233174 0.233174 0.233174
0.239217 0.239217 0.239217
0.245260 0.245260 0.245260
0.251303 0.251303 0.251303
0.257976 0.257976 0.257976
0.265005 0.265005 0.265005
0.272034 0.272034 0.272034
0.279062 0.279062 0.279062
0.055766 0.055766 0.055766
0.059966 0.059966 0.059966
0.064166 0.064166 0.064166
0.068365 0.068365 0.068365
0.074508 0.074508 0.074508
0.082704 0.082704 0.082704
0.090900 0.090900 0.090900
0.099096 0.099096 0.099096
0.107292 0.107292 0.107292
0.115488 0.115488 0.115488
0.124881 0.124881 0.124881
0.134318 0.134318 0.134318
0.143754 0.143754 0.143754
0.153191 0.153191 0.153191
0.162627 0.162627 0.162627
0.172064 0.172064 0.172064
0.181597 0.181597 0.181597
0.191548 0.191548 0.191548
0.201498 0.201498 0.201498
0.211448 0.211448 0.211448
0.221399 0.221399 0.221399
0.231349 0.231349 0.231349
0.241299 0.241299 0.241299
0.248660 0.248660 0.248660
0.254703 0.254703 0.254703
0.260746 0.260746 0.260746
0.266789 0.266789 0.266789
0.272832 0.272832 0.272832
0.278875 0.278875 0.278875
0.285548 0.285548 0.285548
0.292577 0.292577 0.292577
0.299605 0.299605 0.299605
0.306634 0.306634 0.306634
0.083338 0.083338 0.083338
0.087538 0.087538 0.087538
0.091737 0.091737 0.091737
0.095937 0.095937 0.095937
0.102080 0.102080 0.102080
0.110276 0.110276 0.110276
0.118472 0.118472 0.118472
0.126668 0.126668 0.126668
0.134864 0.134864 0.134864
0.143060 0.143060 0.143060
0.152453 0.152453 0.152453
0.161890 0.161890 0.161890
0.171326 0.171326 0.171326
0.180763 0.180763 0.180763
0.190199 0.190199 0.190199
0.199636 0.199636 0.199636
0.209169 0.209169 0.209169
0.219119 0.219119 0.219119
0.229070 0.229070 0.229070
0.239020 0.239020 0.239020
0.248970 0.248970 0.248970
0.258921 0.258921 0.258921
0.268871 0.268871 0.268871
0.276232 0.276232 0.276232
0.282275 0.282275 0.282275
0.288318 0.288318 0.288318
0.294361 0.294361 0.294361
0.300404 0.300404 0.300404
0.306447 0.306447 0.306447
0.313120 0.313120 0.313120
0.320149 0.320149 0.320149
0.327177 0.327177 0.327177
0.334206 0.334206 0.334206
0.110910 0.110910 0.110910
0.115109 0.115109 0.115109
0.119309 0.119309 0.119309
0.123509 0.123509 0.123509
0.129652 0.129652 0.129652
0.137848 0.137848 0.137848
0.146044 0.146044 0.146044
0.154240 0.154240 0.154240
0.162436 0.162436 0.162436
0.170632 0.170632 0.170632
0.180025 0.180025 0.180025
0.189461 0.189461 0.189461
0.198898 0.198898 0.198898
0.208334 0.208334 0.208334
0.217771 0.217771 0.217771
0.227208 0.227208 0.227208
0.236741 0.236741 0.236741
0.246691 0.246691 0.246691
0.256641 0.256641 0.256641
0.266592 0.266592 0.266592
0.276542 0.276542 0.276542
0.286492 0.286492 0.286492
0.296443 0.296443 0.296443
0.303803 0.303803 0.303803
0.309846 0.309846 0.309846
0.315890 0.315890 0.315890
0.321933 0.321933 0.321933
0.327976 0.327976 0.327976
0.334019 0.334019 0.334019
0.340692 0.340692 0.340692
0.347720 0.347720 0.347720
0.354749 0.354749 0.354749
0.361778 0.361778 0.361778
0.142508 0.142508 0.142508
0.146707 0.146707 0.146707
0.150907 0.150907 0.150907
0.155107 0.155107 0.155107
0.161250 0.161250 0.161250
0.169446 0.169446 0.169446
0.177642 0.177642 0.177642
0.185838 0.185838 0.185838
0.194034 0.194034 0.194034
0.202230 0.202230 0.202230
0.211623 0.211623 0.211623
0.221059 0.221059 0.221059
0.230496 0.230496 0.230496
0.239932 0.239932 0.239932
0.249369 0.249369 0.249369
0.258806 0.258806 0.258806
0.268339 0.268339 0.268339
0.278289 0.278289 0.278289
0.288239 0.288239 0.288239
0.298190 0.298190 0.298190
0.308140 0.308140 0.308140
0.318090 0.318090 0.318090
0.328041 0.328041 0.328041
0.335401 0.335401 0.335401
0.341444 0.341444 0.341444
0.347488 0.347488 0.347488
0.353531 0.353531 0.353531
0.359574 0.359574 0.359574
0.365617 0.365617 0.365617
0.372290 0.372290 0.372290
0.379318 0.379318 0.379318
0.386347 0.386347 0.386347
0.393376 0.393376 0.393376
0.174253 0.174253 0.174253
0.178453 0.178453 0.178453
0.182652 0.182652 0.182652
0.186852 0.186852 0.186852
0.192995 0.192995 0.192995
0.201191 0.201191 0.201191
0.209387 0.209387 0.209387
0.217583 0.217583 0.217583
0.225779 0.225779 0.225779
0.233975 0.233975 0.233975
0.243368 0.243368 0.243368
0.252805 0.252805 0.252805
0.262241 0.262241 0.262241
0.271678 0.271678 0.271678
0.281114 0.281114 0.281114
0.290551 0.290551 0.290551
0.300084 0.300084 0.300084
0.310034 0.310034 0.310034
0.319985 0.319985 0.319985
0.329935 0.329935 0.329935
0.339885 0.339885 0.339885
0.349836 0.349836 0.349836
0.359786 0.359786 0.359786
0.367147 0.367147 0.367147
0.373190 0.373190 0.373190
0.379233 0.379233 0.379233
0.385276 0.385276 0.385276
0.391319 0.391319 0.391319
0.397362 0.397362 0.397362
0.404035 0.404035 0.404035
0.411064 0.411064 0.411064
0.418092 0.418092 0.418092
0.425121 0.425121 0.425121
0.205998 0.205998 0.205998
0.210198 0.210198 0.210198
0.214398 0.214398 0.214398
0.218598 0.218598 0.218598
0.224741 0.224741 0.224741
0.232937 0.232937 0.232937
0.241133 0.241133 0.241133
0.249328 0.249328 0.249328
0.257524 0.257524 0.257524
0.265720 0.265720 0.265720
0.275113 0.275113 0.275113
0.284550 0.284550 0.284550
0.293986 0.293986 0.293986
0.303423 0.303423 0.303423
0.312860 0.312860 0.312860
0.322296 0.322296 0.322296
0.331829 0.331829 0.331829
0.341780 0.341780 0.341780
0.351730 0.351730 0.351730
0.361680 0.361680 0.361680
0.371631 0.371631 0.371631
0.381581 0.381581 0.381581
0.391531 0.391531 0.391531
0.398892 0.398892 0.398892
0.404935 0.404935 0.404935
0.410978 0.410978 0.410978
0.417021 0.417021 0.417021
0.423064 0.423064 0.423064
0.429107 0.429107 0.429107
0.435780 0.435780 0.435780
0.442809 0.442809 0.442809
0.449838 0.449838 0.449838
0.456866 0.456866 0.456866
0.237743 0.237743 0.237743
0.241943 0.241943 0.241943
0.246143 0.246143 0.246143
0.250343 0.250343 0.250343
0.256486 0.256486 0.256486
0.264682 0.264682 0.264682
0.272878 0.272878 0.272878
0.281074 0.281074 0.281074
0.289270 0.289270 0.289270
0.297466 0.297466 0.297466
0.306859 0.306859 0.306859
0.316295 0.316295 0.316295
0.325732 0.325732 0.325732
0.335168 0.335168 0.335168
0.344605 0.344605 0.344605
0.354041 0.354041 0.354041
0.363575 0.363575 0.363575
0.373525 0.373525 0.373525
0.383475 0.383475 0.383475
0.393426 0.393426 0.393426
0.403376 0.403376 0.403376
0.413326 0.413326 0.413326
0.423276 0.423276 0.423276
0.430637 0.430637 0.430637
0.436680 0.436680 0.436680
0.442723 0.442723 0.442723
0.448766 0.448766 0.448766
0.454809 0.454809 0.454809
0.460852 0.460852 0.460852
0.467526 0.467526 0.467526
0.474554 0.474554 0.474554
0.481583 0.481583 0.481583
0.488611 0.488611 0.488611
0.269489 0.269489 0.269489
0.273688 0.273688 0.273688
0.277888 0.277888 0.277888
0.282088 0.282088 0.282088
0.288231 0.288231 0.288231
0.296427 0.296427 0.296427
0.304623 0.304623 0.304623
0.312819 0.312819 0.312819
0.321015 0.321015 0.321015
0.329211 0.329211 0.329211
0.338604 0.338604 0.338604
0.348040 0.348040 0.348040
0.357477 0.357477 0.357477
0.366914 0.366914 0.366914
0.376350 0.376350 0.376350
0.385787 0.385787 0.385787
0.395320 0.395320 0.395320
0.405270 0.405270 0.405270
0.415221 0.415221 0.415221
0.425171 0.425171 0.425171
0.435121 0.435121 0.435121
0.445071 0.445071 0.445071
0.455022 0.455022 0.455022
0.462383 0.462383 0.462383
0.468426 0.468426 0.468426
0.474469 0.474469 0.474469
0.480512 0.480512 0.480512
0.486555 0.486555 0.486555
0.492598 0.492598 0.492598
0.499271 0.499271 0.499271
0.506299 0.506299 0.506299
0.513328 0.513328 0.513328
0.520357 0.520357 0.520357
0.301234 0.301234 0.301234
0.305434 0.305434 0.305434
0.309634 0.309634 0.309634
0.313833 0.313833 0.313833
0.319976 0.319976 0.319976
0.328172 0.328172 0.328172
0.336368 0.336368 0.336368
0.344564 0.344564 0.344564
0.352760 0.352760 0.352760
0.360956 0.360956 0.360956
0.370349 0.370349 0.370349
0.379786 0.379786 0.379786
0.389222 0.389222 0.389222
0.398659 0.398659 0.398659
0.408095 0.408095 0.408095
0.417532 0.417532 0.417532
0.427065 0.427065 0.427065
0.437016 0.437016 0.437016
0.446966 0.446966 0.446966
0.456916 0.456916 0.456916
0.466866 0.466866 0.466866
0.476817 0.476817 0.476817
0.486767 0.486767 0.486767
0.494128 0.494128 0.494128
0.500171 0.500171 0.500171
0.506214 0.506214 0.506214
0.512257 0.512257 0.512257
0.518300 0.518300 0.518300
0.524343 0.524343 0.524343
0.531016 0.531016 0.531016
0.538045 0.538045 0.538045
0.545073 0.545073 0.545073
0.552102 0.552102 0.552102
0.333305 0.333305 0.333305
0.337504 0.337504 0.337504
0.341704 0.341704 0.341704
0.345904 0.345904 0.345904
0.352047 0.352047 0.352047
0.360243 0.360243 0.360243
0.368439 0.368439 0.368439
0.376635 0.376635 0.376635
0.384831 0.384831 0.384831
0.393027 0.393027 0.393027
0.402420 0.402420 0.402420
0.411856 0.411856 0.411856
0.421293 0.421293 0.421293
0.430729 0.430729 0.430729
0.440166 0.440166 0.440166
0.449603 0.449603 0.449603
0.459136 0.459136 0.459136
0.469086 0.469086 0.469086
0.479036 0.479036 0.479036
0.488987 0.488987 0.488987
0.498937 0.498937 0.498937
0.508887 0.508887 0.508887
0.518838 0.518838 0.518838
0.526198 0.526198 0.526198
0.532241 0.532241 0.532241
0.538284 0.538284 0.538284
0.544328 0.544328 0.544328
0.550371 0.550371 0.550371
0.556414 0.556414 0.556414
0.563087 0.563087 0.563087
0.570115 0.570115 0.570115
0.577144 0.577144 0.577144
0.584173 0.584173 0.584173
0.366778 0.366778 0.366778
0.370978 0.370978 0.370978
0.375178 0.375178 0.375178
0.379377 0.379377 0.379377
0.385520 0.385520 0.385520
0.393716 0.393716 0.393716
0.401912 0.401912 0.401912
0.410108 0.410108 0.410108
0.418304 0.418304 0.418304
0.426500 0.426500 0.426500
0.435893 0.435893 0.435893
0.445330 0.445330 0.445330
0.454766 0.454766 0.454766
0.464203 0.464203 0.464203
0.473639 0.473639 0.473639
0.483076 0.483076 0.483076
0.492609 0.492609 0.492609
0.502560 0.502560 0.502560
0.512510 0.512510 0.512510
0.522460 0.522460 0.522460
0.532410 0.532410 0.532410
0.542361 0.542361 0.542361
0.552311 0.552311 0.552311
0.559672 0.559672 0.559672
0.565715 0.565715 0.565715
0.571758 0.571758 0.571758
0.577801 0.577801 0.577801
0.583844 0.583844 0.583844
0.589887 0.589887 0.589887
0.596560 0.596560 0.596560
0.603589 0.603589 0.603589
0.610617 0.610617 0.610617
0.617646 0.617646 0.617646
0.400251 0.400251 0.400251
0.404451 0.404451 0.404451
0.408651 0.408651 0.408651
0.412851 0.412851 0.412851
0.418994 0.418994 0.418994
0.427190 0.427190 0.427190
0.435386 0.435386 0.435386
0.443582 0.443582 0.443582
0.451778 0.451778 0.451778
0.459974 0.459974 0.459974
0.469366 0.469366 0.469366
0.478803 0.478803 0.478803
0.488240 0.488240 0.488240
0.497676 0.497676 0.497676
0.507113 0.507113 0.507113
0.516549 0.516549 0.516549
0.526083 0.526083 0.526083
0.536033 0.536033 0.536033
0.545983 0.545983 0.545983
0.555934 0.555934 0.555934
0.565884 0.565884 0.565884
0.575834 0.575834 0.575834
0.585784 0.585784 0.585784
0.593145 0.593145 0.593145
0.599188 0.599188 0.599188
0.605231 0.605231 0.605231
0.611274 0.611274 0.611274
0.617317 0.617317 0.617317
0.623360 0.623360 0.623360
0.630034 0.630034 0.630034
0.637062 0.637062 0.637062
0.644091 0.644091 0.644091
0.651119 0.651119 0.651119
0.433725 0.433725 0.433725
0.437925 0.437925 0.437925
0.442124 0.442124 0.442124
0.446324 0.446324 0.446324
0.452467 0.452467 0.452467
0.460663 0.460663 0.460663
0.468859 0.468859 0.468859
0.477055 0.477055 0.477055
0.485251 0.485251 0.485251
0.493447 0.493447 0.493447
0.502840 0.502840 0.502840
0.512276 0.512276 0.512276
0.521713 0.521713 0.521713
0.531150 0.531150 0.531150
0.540586 0.540586 0.540586
0.550023 0.550023 0.550023
0.559556 0.559556 0.559556
0.569506 0.569506 0.569506
0.579457 0.579457 0.579457
0.589407 0.589407 0.589407
0.599357 0.599357 0.599357
0.609308 0.609308 0.609308
0.619258 0.619258 0.619258
0.626619 0.626619 0.626619
0.632662 0.632662 0.632662
0.638705 0.638705 0.638705
0.644748 0.644748 0.644748
0.650791 0.650791 0.650791
0.656834 0.656834 0.656834
0.663507 0.663507 0.663507
0.670536 0.670536 0.670536
0.677564 0.677564 0.677564
0.684593 0.684593 0.684593
0.467198 0.467198 0.467198
0.471398 0.471398 0.471398
0.475598 0.475598 0.475598
0.479798 0.479798 0.479798
0.485941 0.485941 0.485941
0.494137 0.494137 0.494137
0.502333 0.502333 0.502333
0.510529 0.510529 0.510529
0.518725 0.518725 0.518725
0.526921 0.526921 0.526921
0.536313 0.536313 0.536313
0.545750 0.545750 0.545750
0.555187 0.555187 0.555187
0.564623 0.564623 0.564623
0.574060 0.574060 0.574060
0.583496 0.583496 0.583496
0.593030 0.593030 0.593030
0.602980 0.602980 0.602980
0.612930 0.612930 0.612930
0.622880 0.622880 0.622880
0.632831 0.632831 0.632831
0.642781 0.642781 0.642781
0.652731 0.652731 0.652731
0.660092 0.660092 0.660092
0.666135 0.666135 0.666135
0.672178 0.672178 0.672178
0.678221 0.678221 0.678221
0.684264 0.684264 0.684264
0.690307 0.690307 0.690307
0.696980 0.696980 0.696980
0.704009 0.704009 0.704009
0.711038 0.711038 0.711038
0.718066 0.718066 0.718066
0.500672 0.500672 0.500672
0.504871 0.504871 0.504871
0.509071 0.509071 0.509071
0.513271 0.513271 0.513271
0.519414 0.519414 0.519414
0.527610 0.527610 0.527610
0.535806 0.535806 0.535806
0.544002 0.544002 0.544002
0.552198 0.552198 0.552198
0.560394 0.560394 0.560394
0.569787 0.569787 0.569787
0.579223 0.579223 0.579223
0.588660 0.588660 0.588660
0.598097 0.598097 0.598097
0.607533 0.607533 0.607533
0.616970 0.616970 0.616970
0.626503 0.626503 0.626503
0.636453 0.636453 0.636453
0.646404 0.646404 0.646404
0.656354 0.656354 0.656354
0.666304 0.666304 0.666304
0.676254 0.676254 0.676254
0.686205 0.686205 0.686205
0.693566 0.693566 0.693566
0.699609 0.699609 0.699609
0.705652 0.705652 0.705652
0.711695 0.711695 0.711695
0.717738 0.717738 0.717738
0.723781 0.723781 0.723781
0.730454 0.730454 0.730454
0.737482 0.737482 0.737482
0.744511 0.744511 0.744511
0.751540 0.751540 0.751540
0.534145 0.534145 0.534145
0.538345 0.538345 0.538345
0.542545 0.542545 0.542545
0.546744 0.546744 0.546744
0.552888 0.552888 0.552888
0.561083 0.561083 0.561083
0.569279 0.569279 0.569279
0.577475 0.577475 0.577475
0.585671 0.585671 0.585671
0.593867 0.593867 0.593867
0.603260 0.603260 0.603260
0.612697 0.612697 0.612697
0.622133 0.622133 0.622133
0.631570 0.631570 0.631570
0.641007 0.641007 0.641007
0.650443 0.650443 0.650443
0.659976 0.659976 0.659976
0.669927 0.669927 0.669927
0.679877 0.679877 0.679877
0.689827 0.689827 0.689827
0.699778 0.699778 0.699778
0.709728 0.709728 0.709728
0.719678 0.719678 0.719678
0.727039 0.727039 0.727039
0.733082 0.733082 0.733082
0.739125 0.739125 0.739125
0.745168 0.745168 0.745168
0.751211 0.751211 0.751211
0.757254 0.757254 0.757254
0.763927 0.763927 0.763927
0.770956 0.770956 0.770956
0.777984 0.777984 0.777984
0.785013 0.785013 0.785013
0.558907 0.558907 0.558907
0.563107 0.563107 0.563107
0.567307 0.567307 0.567307
0.571507 0.571507 0.571507
0.577650 0.577650 0.577650
0.585846 0.585846 0.585846
0.594042 0.594042 0.594042
0.602238 0.602238 0.602238
0.610434 0.610434 0.610434
0.618630 0.618630 0.618630
0.628022 0.628022 0.628022
0.637459 0.637459 0.637459
0.646895 0.646895 0.646895
0.656332 0.656332 0.656332
0.665769 0.665769 0.665769
0.675205 0.675205 0.675205
0.684739 0.684739 0.684739
0.694689 0.694689 0.694689
0.704639 0.704639 0.704639
0.714589 0.714589 0.714589
0.724540 0.724540 0.724540
0.734490 0.734490 0.734490
0.744440 0.744440 0.744440
0.751801 0.751801 0.751801
0.757844 0.757844 0.757844
0.763887 0.763887 0.763887
0.769930 0.769930 0.769930
0.775973 0.775973 0.775973
0.782016 0.782016 0.782016
0.788689 0.788689 0.788689
0.795718 0.795718 0.795718
0.802747 0.802747 0.802747
0.809775 0.809775 0.809775
0.579236 0.579236 0.579236
0.583436 0.583436 0.583436
0.587636 0.587636 0.587636
0.591836 0.591836 0.591836
0.597979 0.597979 0.597979
0.606175 0.606175 0.606175
0.614371 0.614371 0.614371
0.622567 0.622567 0.622567
0.630763 0.630763 0.630763
0.638959 0.638959 0.638959
0.648352 0.648352 0.648352
0.657788 0.657788 0.657788
0.667225 0.667225 0.667225
0.676661 0.676661 0.676661
0.686098 0.686098 0.686098
0.695534 0.695534 0.695534
0.705068 0.705068 0.705068
0.715018 0.715018 0.715018
0.724968 0.724968 0.724968
0.734919 0.734919 0.734919
0.744869 0.744869 0.744869
0.754819 0.754819 0.754819
0.764769 0.764769 0.764769
0.772130 0.772130 0.772130
0.778173 0.778173 0.778173
0.784216 0.784216 0.784216
0.790259 0.790259 0.790259
0.796302 0.796302 0.796302
0.802345 0.802345 0.802345
0.809019 0.809019 0.809019
0.816047 0.816047 0.816047
0.823076 0.823076 0.823076
0.830104 0.830104 0.830104
0.599566 0.599566 0.599566
0.603765 0.603765 0.603765
0.607965 0.607965 0.607965
0.612165 0.612165 0.612165
0.618308 0.618308 0.618308
0.626504 0.626504 0.626504
0.634700 0.634700 0.634700
0.642896 0.642896 0.642896
0.651092 0.651092 0.651092
0.659288 0.659288 0.659288
0.668681 0.668681 0.668681
0.678117 0.678117 0.678117
0.687554 0.687554 0.687554
0.696990 0.696990 0.696990
0.706427 0.706427 0.706427
0.715864 0.715864 0.715864
0.725397 0.725397 0.725397
0.735347 0.735347 0.735347
0.745297 0.745297 0.745297
0.755248 0.755248 0.755248
0.765198 0.765198 0.765198
0.775148 0.775148 0.775148
0.785099 0.785099 0.785099
0.792459 0.792459 0.792459
0.798502 0.798502 0.798502
0.804546 0.804546 0.804546
0.810589 0.810589 0.810589
0.816632 0.816632 0.816632
0.822675 0.822675 0.822675
0.829348 0.829348 0.829348
0.836376 0.836376 0.836376
0.843405 0.843405 0.843405
0.850434 0.850434 0.850434
0.619895 0.619895 0.619895
0.624095 0.624095 0.624095
0.628294 0.628294 0.628294
0.632494 0.632494 0.632494
0.638637 0.638637 0.638637
0.646833 0.646833 0.646833
0.655029 0.655029 0.655029
0.663225 0.663225 0.663225
0.671421 0.671421 0.671421
0.679617 0.679617 0.679617
0.689010 0.689010 0.689010
0.698446 0.698446 0.698446
0.707883 0.707883 0.707883
0.717320 0.717320 0.717320
0.726756 0.726756 0.726756
0.736193 0.736193 0.736193
0.745726 0.745726 0.745726
0.755676 0.755676 0.755676
0.765627 0.765627 0.765627
0.775577 0.775577 0.775577
0.785527 0.785527 0.785527
0.795478 0.795478 0.795478
0.805428 0.805428 0.805428
0.812789 0.812789 0.812789
0.818832 0.818832 0.818832
0.824875 0.824875 0.824875
