assets/ricoh/Ricoh_GR2_PS_Filter/LUT/GR2_Positive_Film.cube
TITLE "Ricoh GR2 Positive Film"
LUT_3D_SIZE 5
DOMAIN_MIN 0.000000 0.000000 0.000000
DOMAIN_MAX 1.000000 1.000000 1.000000
0.000000 0.000000 0.000000
0.175698 0.000000 0.000000
0.481697 0.000000 0.000000
0.766971 0.000000 0.000000
0.963362 0.000000 0.000000
0.000000 0.186249 0.000000
0.185707 0.189306 0.000000
0.491706 0.193403 0.000000
0.776980 0.197223 0.000000
0.973371 0.199852 0.000000
0.000000 0.494961 0.000000
0.199185 0.498019 0.000000
0.505184 0.502115 0.000000
0.790458 0.505935 0.000000
0.986849 0.508564 0.001579
0.000000 0.784327 0.000609
0.211818 0.787384 0.003666
0.517817 0.791481 0.007763
0.803091 0.795301 0.011583
0.999482 0.797930 0.014212
0.000000 0.984420 0.009345
0.220554 0.987478 0.012402
0.526552 0.991574 0.016499
0.811827 0.995394 0.020318
1.000000 0.998023 0.022948
0.000000 0.000000 0.180893
0.176691 0.000000 0.183950
0.482689 0.000000 0.188047
0.767964 0.000000 0.191867
0.964354 0.000000 0.194496
0.000000 0.187242 0.190902
0.186700 0.190299 0.193960
0.492699 0.194396 0.198057
0.777973 0.198215 0.201876
0.974364 0.200845 0.204505
0.000000 0.495954 0.204380
0.200178 0.499011 0.207437
0.506176 0.503108 0.211534
0.791451 0.506928 0.215354
0.987841 0.509557 0.217983
0.000000 0.785320 0.217013
0.212811 0.788377 0.220071
0.518809 0.792474 0.224167
0.804084 0.796293 0.227987
1.000000 0.798923 0.230616
0.000000 0.985413 0.225749
0.221547 0.988470 0.228806
0.527545 0.992567 0.232903
0.812820 0.996387 0.236722
1.000000 0.999016 0.239352
0.000000 0.000000 0.472882
0.178030 0.000000 0.475940
0.484029 0.000000 0.480037
0.769303 0.000000 0.483856
0.965694 0.000000 0.486485
0.000000 0.188581 0.482892
0.188040 0.191639 0.485949
0.494038 0.195736 0.490046
0.779312 0.199555 0.493865
0.975703 0.202184 0.496495
0.000000 0.497293 0.496369
0.201517 0.500351 0.499427
0.507516 0.504448 0.503524
0.792790 0.508267 0.507343
0.989181 0.510896 0.509972
0.000000 0.786659 0.509003
0.214151 0.789717 0.512060
0.520149 0.793814 0.516157
0.805423 0.797633 0.519976
1.000000 0.800262 0.522606
0.000000 0.986752 0.517738
0.222886 0.989810 0.520796
0.528885 0.993907 0.524892
0.814159 0.997726 0.528712
1.000000 1.000000 0.531341
0.000000 0.000000 0.747189
0.179289 0.000000 0.750247
0.485287 0.000000 0.754343
0.770562 0.000000 0.758163
0.966952 0.000000 0.760792
0.000000 0.189840 0.757198
0.189298 0.192897 0.760256
0.495296 0.196994 0.764353
0.780571 0.200813 0.768172
0.976961 0.203443 0.770801
0.000000 0.498552 0.770676
0.202776 0.501609 0.773733
0.508774 0.505706 0.777830
0.794049 0.509525 0.781650
0.990439 0.512155 0.784279
0.000000 0.787918 0.783309
0.215409 0.790975 0.786367
0.521407 0.795072 0.790464
0.806682 0.798891 0.794283
1.000000 0.801521 0.796912
0.000000 0.988011 0.792045
0.224145 0.991068 0.795102
0.530143 0.995165 0.799199
0.815417 0.998984 0.803019
1.000000 1.000000 0.805648
0.000000 0.000000 0.937216
0.180161 0.000000 0.940274
0.486159 0.000000 0.944371
0.771433 0.000000 0.948190
0.967824 0.000000 0.950819
0.000000 0.190711 0.947225
0.190170 0.193769 0.950283
0.496168 0.197866 0.954380
0.781443 0.201685 0.958199
0.977833 0.204314 0.960828
0.000000 0.499424 0.960703
0.203647 0.502481 0.963761
0.509646 0.506578 0.967857
0.794920 0.510397 0.971677
0.991311 0.513026 0.974306
0.000000 0.788789 0.973336
0.216281 0.791847 0.976394
0.522279 0.795944 0.980491
0.807553 0.799763 0.984310
1.000000 0.802392 0.986939
0.000000 0.988882 0.982072
0.225016 0.991940 0.985129
0.531015 0.996037 0.989226
0.816289 0.999856 0.993046
1.000000 1.000000 0.995675
