assets/ricoh/Ricoh_GR2_PS_Filter/LUT/GR2_Street_Positive.cube
TITLE "Ricoh GR2 Street Positive"
LUT_3D_SIZE 9
DOMAIN_MIN 0.000000 0.000000 0.000000
DOMAIN_MAX 1.000000 1.000000 1.000000
0.000000 0.000000 0.000000
0.000000 0.000000 0.000000
0.142543 0.000000 0.000000
0.312525 0.000000 0.000000
0.492085 0.000000 0.000000
0.661377 0.000000 0.000000
0.811191 0.000000 0.000000
0.907059 0.000000 0.000000
1.000000 0.000000 0.000000
0.000000 0.002064 0.000000
0.000000 0.002717 0.000000
0.144647 0.003724 0.000000
0.314629 0.004834 0.000000
0.494189 0.006007 0.000000
0.663481 0.007113 0.000000
0.813295 0.008092 0.000000
0.909163 0.008718 0.000000
1.000000 0.009444 0.000000
0.000000 0.152411 0.000000
0.000000 0.153065 0.000000
0.147900 0.154071 0.000000
0.317883 0.155182 0.000000
0.497443 0.156355 0.000000
0.666735 0.157460 0.000000
0.816549 0.158439 0.000000
0.912416 0.159065 0.000000
1.000000 0.159791 0.000000
0.000000 0.319206 0.000000
0.000000 0.319859 0.000000
0.151510 0.320866 0.000000
0.321493 0.321976 0.000000
0.501052 0.323149 0.000000
0.670344 0.324255 0.000000
0.820158 0.325234 0.000000
0.916026 0.325860 0.000000
1.000000 0.326586 0.000000
0.000000 0.496495 0.000000
0.001246 0.497149 0.000000
0.155347 0.498155 0.000000
0.325329 0.499266 0.000000
0.504889 0.500439 0.000000
0.674181 0.501545 0.000000
0.823995 0.502523 0.000000
0.919863 0.503149 0.000000
1.000000 0.503875 0.000000
0.000000 0.664690 0.000000
0.004886 0.665344 0.000000
0.158987 0.666351 0.000000
0.328969 0.667461 0.000000
0.508529 0.668634 0.000000
0.677821 0.669740 0.000000
0.827635 0.670719 0.000000
0.923503 0.671345 0.000000
1.000000 0.672071 0.000000
0.000000 0.814387 0.000000
0.008125 0.815041 0.000000
0.162226 0.816048 0.000000
0.332209 0.817158 0.000000
0.511768 0.818331 0.000000
0.681061 0.819437 0.000000
0.830875 0.820416 0.000000
0.926742 0.821042 0.000000
1.000000 0.821768 0.000000
0.000000 0.910605 0.000000
0.010208 0.911259 0.000000
0.164308 0.912265 0.000000
0.334291 0.913376 0.000000
0.513851 0.914549 0.000000
0.683143 0.915654 0.000000
0.832957 0.916633 0.000000
0.928824 0.917259 0.000000
1.000000 0.917985 0.000000
0.000000 1.000000 0.000000
0.012631 1.000000 0.000000
0.166731 1.000000 0.000000
0.336714 1.000000 0.000000
0.516274 1.000000 0.000000
0.685566 1.000000 0.000000
0.835380 1.000000 0.000000
0.931247 1.000000 0.000000
1.000000 1.000000 0.000000
0.000000 0.000000 0.007131
0.000000 0.000000 0.007785
0.142751 0.000000 0.008792
0.312734 0.000000 0.009902
0.492293 0.000000 0.011075
0.661586 0.000000 0.012181
0.811400 0.000000 0.013159
0.907267 0.000000 0.013786
1.000000 0.000000 0.014512
0.000000 0.002272 0.009235
0.000000 0.002926 0.009889
0.144855 0.003933 0.010896
0.314838 0.005043 0.012006
0.494398 0.006216 0.013179
0.663690 0.007322 0.014285
0.813504 0.008300 0.015263
0.909371 0.008927 0.015890
1.000000 0.009653 0.016616
0.000000 0.152619 0.012489
0.000000 0.153273 0.013143
0.148109 0.154280 0.014149
0.318091 0.155390 0.015260
0.497651 0.156563 0.016433
0.666943 0.157669 0.017538
0.816757 0.158647 0.018517
0.912625 0.159274 0.019143
1.000000 0.160000 0.019869
0.000000 0.319414 0.016098
0.000000 0.320068 0.016752
0.151718 0.321075 0.017759
0.321701 0.322185 0.018869
0.501261 0.323358 0.020042
0.670553 0.324464 0.021148
0.820367 0.325442 0.022127
0.916235 0.326069 0.022753
1.000000 0.326795 0.023479
0.000000 0.496703 0.019935
0.001454 0.497357 0.020589
0.155555 0.498364 0.021596
0.325538 0.499474 0.022706
0.505097 0.500647 0.023879
0.674390 0.501753 0.024985
0.824204 0.502732 0.025963
0.920071 0.503358 0.026590
1.000000 0.504084 0.027316
0.000000 0.664899 0.023575
0.005094 0.665553 0.024229
0.159195 0.666559 0.025235
0.329178 0.667670 0.026346
0.508737 0.668843 0.027519
0.678029 0.669948 0.028625
0.827843 0.670927 0.029603
0.923711 0.671553 0.030229
1.000000 0.672279 0.030955
0.000000 0.814596 0.026814
0.008334 0.815250 0.027468
0.162435 0.816256 0.028475
0.332417 0.817367 0.029585
0.511977 0.818540 0.030758
0.681269 0.819646 0.031864
0.831083 0.820624 0.032843
0.926951 0.821250 0.033469
1.000000 0.821976 0.034195
0.000000 0.910813 0.028897
0.010416 0.911467 0.029551
0.164517 0.912474 0.030557
0.334499 0.913584 0.031668
0.514059 0.914757 0.032841
0.683351 0.915863 0.033946
0.833165 0.916842 0.034925
0.929033 0.917468 0.035551
1.000000 0.918194 0.036277
0.000000 1.000000 0.031320
0.012839 1.000000 0.031974
0.166940 1.000000 0.032980
0.336922 1.000000 0.034091
0.516482 1.000000 0.035264
0.685774 1.000000 0.036369
0.835588 1.000000 0.037348
0.931456 1.000000 0.037974
1.000000 1.000000 0.038700
0.000000 0.000000 0.151915
0.000000 0.000000 0.152569
0.143074 0.000000 0.153576
0.313056 0.000000 0.154686
0.492616 0.000000 0.155859
0.661908 0.000000 0.156965
0.811722 0.000000 0.157943
0.907590 0.000000 0.158570
1.000000 0.000000 0.159296
0.000000 0.002595 0.154019
0.000000 0.003249 0.154673
0.145178 0.004255 0.155680
0.315160 0.005366 0.156790
0.494720 0.006538 0.157963
0.664012 0.007644 0.159069
0.813826 0.008623 0.160047
0.909694 0.009249 0.160674
1.000000 0.009975 0.161400
0.000000 0.152942 0.157273
0.000000 0.153596 0.157927
0.148431 0.154602 0.158933
0.318414 0.155713 0.160044
0.497974 0.156886 0.161217
0.667266 0.157991 0.162322
0.817080 0.158970 0.163301
0.912948 0.159596 0.163927
1.000000 0.160322 0.164653
0.000000 0.319737 0.160882
0.000000 0.320390 0.161536
0.152041 0.321397 0.162543
0.322024 0.322508 0.163653
0.501583 0.323680 0.164826
0.670875 0.324786 0.165932
0.820689 0.325765 0.166911
0.916557 0.326391 0.167537
1.000000 0.327117 0.168263
0.000000 0.497026 0.164719
0.001777 0.497680 0.165373
0.155878 0.498687 0.166380
0.325860 0.499797 0.167490
0.505420 0.500970 0.168663
0.674712 0.502076 0.169769
0.824526 0.503054 0.170747
0.920394 0.503681 0.171374
1.000000 0.504407 0.172100
0.000000 0.665221 0.168359
0.005417 0.665875 0.169013
0.159518 0.666882 0.170019
0.329500 0.667992 0.171130
0.509060 0.669165 0.172303
0.678352 0.670271 0.173409
0.828166 0.671250 0.174387
0.924034 0.671876 0.175014
1.000000 0.672602 0.175740
0.000000 0.814918 0.171599
0.008656 0.815572 0.172252
0.162757 0.816579 0.173259
0.332740 0.817689 0.174369
0.512300 0.818862 0.175542
0.681592 0.819968 0.176648
0.831406 0.820947 0.177627
0.927273 0.821573 0.178253
1.000000 0.822299 0.178979
0.000000 0.911136 0.173681
0.010739 0.911790 0.174335
0.164839 0.912796 0.175341
0.334822 0.913907 0.176452
0.514382 0.915080 0.177625
0.683674 0.916185 0.178730
0.833488 0.917164 0.179709
0.929356 0.917790 0.180335
1.000000 0.918516 0.181061
0.000000 1.000000 0.176104
0.013162 1.000000 0.176758
0.167262 1.000000 0.177764
0.337245 1.000000 0.178875
0.516805 1.000000 0.180048
0.686097 1.000000 0.181153
0.835911 1.000000 0.182132
0.931779 1.000000 0.182758
1.000000 1.000000 0.183484
0.000000 0.000000 0.312641
0.000000 0.000000 0.313295
0.143432 0.000000 0.314301
0.313414 0.000000 0.315412
0.492974 0.000000 0.316585
0.662266 0.000000 0.317691
0.812080 0.000000 0.318669
0.907948 0.000000 0.319295
1.000000 0.000000 0.320021
0.000000 0.002953 0.314745
0.000000 0.003607 0.315399
0.145536 0.004613 0.316405
0.315518 0.005724 0.317516
0.495078 0.006897 0.318689
0.664370 0.008002 0.319795
0.814184 0.008981 0.320773
0.910052 0.009607 0.321399
1.000000 0.010333 0.322125
0.000000 0.153300 0.317999
0.000000 0.153954 0.318652
0.148789 0.154960 0.319659
0.318772 0.156071 0.320769
0.498332 0.157244 0.321942
0.667624 0.158350 0.323048
0.817438 0.159328 0.324027
0.913306 0.159954 0.324653
1.000000 0.160680 0.325379
0.000000 0.320095 0.321608
0.000000 0.320749 0.322262
0.152399 0.321755 0.323269
0.322382 0.322866 0.324379
0.501941 0.324039 0.325552
0.671234 0.325144 0.326658
0.821048 0.326123 0.327636
0.916915 0.326749 0.328263
1.000000 0.327475 0.328989
0.000000 0.497384 0.325445
0.002135 0.498038 0.326099
0.156236 0.499045 0.327105
0.326218 0.500155 0.328216
0.505778 0.501328 0.329389
0.675070 0.502434 0.330495
0.824884 0.503412 0.331473
0.920752 0.504039 0.332099
1.000000 0.504765 0.332825
0.000000 0.665579 0.329085
0.005775 0.666233 0.329739
0.159876 0.667240 0.330745
0.329858 0.668350 0.331856
0.509418 0.669523 0.333029
0.678710 0.670629 0.334134
0.828524 0.671608 0.335113
0.924392 0.672234 0.335739
1.000000 0.672960 0.336465
0.000000 0.815277 0.332324
0.009014 0.815930 0.332978
0.163115 0.816937 0.333985
0.333098 0.818047 0.335095
0.512658 0.819220 0.336268
0.681950 0.820326 0.337374
0.831764 0.821305 0.338353
0.927631 0.821931 0.338979
1.000000 0.822657 0.339705
0.000000 0.911494 0.334407
0.011097 0.912148 0.335060
0.165197 0.913154 0.336067
0.335180 0.914265 0.337177
0.514740 0.915438 0.338350
0.684032 0.916544 0.339456
0.833846 0.917522 0.340435
0.929714 0.918148 0.341061
1.000000 0.918874 0.341787
0.000000 1.000000 0.336830
0.013520 1.000000 0.337483
0.167621 1.000000 0.338490
0.337603 1.000000 0.339600
0.517163 1.000000 0.340773
0.686455 1.000000 0.341879
0.836269 1.000000 0.342858
0.932137 1.000000 0.343484
1.000000 1.000000 0.344210
0.000000 0.000000 0.483597
0.000000 0.000000 0.484250
0.143813 0.000000 0.485257
0.313795 0.000000 0.486368
0.493355 0.000000 0.487540
0.662647 0.000000 0.488646
0.812461 0.000000 0.489625
0.908329 0.000000 0.490251
1.000000 0.000000 0.490977
0.000000 0.003334 0.485701
0.000000 0.003988 0.486355
0.145917 0.004994 0.487361
0.315899 0.006105 0.488472
0.495459 0.007277 0.489644
0.664751 0.008383 0.490750
0.814565 0.009362 0.491729
0.910433 0.009988 0.492355
1.000000 0.010714 0.493081
0.000000 0.153681 0.488954
0.000000 0.154335 0.489608
0.149170 0.155341 0.490615
0.319153 0.156452 0.491725
0.498713 0.157625 0.492898
0.668005 0.158730 0.494004
0.817819 0.159709 0.494983
0.913687 0.160335 0.495609
1.000000 0.161061 0.496335
0.000000 0.320476 0.492564
0.000000 0.321129 0.493218
0.152780 0.322136 0.494224
0.322763 0.323246 0.495335
0.502322 0.324419 0.496508
0.671614 0.325525 0.497614
0.821428 0.326504 0.498592
0.917296 0.327130 0.499218
1.000000 0.327856 0.499944
0.000000 0.497765 0.496401
0.002516 0.498419 0.497054
0.156617 0.499426 0.498061
0.326599 0.500536 0.499171
0.506159 0.501709 0.500344
0.675451 0.502815 0.501450
0.825265 0.503793 0.502429
0.921133 0.504420 0.503055
1.000000 0.505146 0.503781
0.000000 0.665960 0.500040
0.006156 0.666614 0.500694
0.160257 0.667621 0.501701
0.330239 0.668731 0.502811
0.509799 0.669904 0.503984
0.679091 0.671010 0.505090
0.828905 0.671989 0.506069
0.924773 0.672615 0.506695
1.000000 0.673341 0.507421
0.000000 0.815657 0.503280
0.009395 0.816311 0.503934
0.163496 0.817318 0.504941
0.333479 0.818428 0.506051
0.513039 0.819601 0.507224
0.682331 0.820707 0.508330
0.832145 0.821686 0.509308
0.928012 0.822312 0.509935
1.000000 0.823038 0.510661
0.000000 0.911875 0.505362
0.011478 0.912529 0.506016
0.165578 0.913535 0.507023
0.335561 0.914646 0.508133
0.515121 0.915819 0.509306
0.684413 0.916924 0.510412
0.834227 0.917903 0.511391
0.930095 0.918529 0.512017
1.000000 0.919255 0.512743
0.000000 1.000000 0.507785
0.013901 1.000000 0.508439
0.168001 1.000000 0.509446
0.337984 1.000000 0.510556
0.517544 1.000000 0.511729
0.686836 1.000000 0.512835
0.836650 1.000000 0.513814
0.932518 1.000000 0.514440
1.000000 1.000000 0.515166
0.000000 0.000000 0.645894
0.000000 0.000000 0.646548
0.144174 0.000000 0.647555
0.314157 0.000000 0.648665
0.493717 0.000000 0.649838
0.663009 0.000000 0.650944
0.812823 0.000000 0.651922
0.908690 0.000000 0.652549
1.000000 0.000000 0.653275
0.000000 0.003695 0.647998
0.000000 0.004349 0.648652
0.146278 0.005356 0.649659
0.316261 0.006466 0.650769
0.495821 0.007639 0.651942
0.665113 0.008745 0.653048
0.814927 0.009724 0.654026
0.910794 0.010350 0.654653
1.000000 0.011076 0.655379
0.000000 0.154042 0.651252
0.000000 0.154696 0.651906
0.149532 0.155703 0.652912
0.319515 0.156813 0.654023
0.499074 0.157986 0.655196
0.668366 0.159092 0.656302
0.818180 0.160071 0.657280
0.914048 0.160697 0.657906
1.000000 0.161423 0.658632
0.000000 0.320837 0.654861
0.000000 0.321491 0.655515
0.153142 0.322498 0.656522
0.323124 0.323608 0.657632
0.502684 0.324781 0.658805
0.671976 0.325887 0.659911
0.821790 0.326866 0.660890
0.917658 0.327492 0.661516
1.000000 0.328218 0.662242
0.000000 0.498127 0.658698
0.002877 0.498780 0.659352
0.156978 0.499787 0.660359
0.326961 0.500897 0.661469
0.506521 0.502070 0.662642
0.675813 0.503176 0.663748
0.825627 0.504155 0.664726
0.921494 0.504781 0.665353
1.000000 0.505507 0.666079
0.000000 0.666322 0.662338
0.006517 0.666976 0.662992
0.160618 0.667982 0.663999
0.330601 0.669093 0.665109
0.510161 0.670266 0.666282
0.679453 0.671372 0.667388
0.829267 0.672350 0.668366
0.925134 0.672976 0.668993
1.000000 0.673702 0.669719
0.000000 0.816019 0.665578
0.009757 0.816673 0.666231
0.163858 0.817680 0.667238
0.333840 0.818790 0.668348
0.513400 0.819963 0.669521
0.682692 0.821069 0.670627
0.832506 0.822047 0.671606
0.928374 0.822674 0.672232
1.000000 0.823400 0.672958
0.000000 0.912236 0.667660
0.011839 0.912890 0.668314
0.165940 0.913897 0.669320
0.335923 0.915007 0.670431
0.515482 0.916180 0.671604
0.684774 0.917286 0.672710
0.834588 0.918265 0.673688
0.930456 0.918891 0.674314
1.000000 0.919617 0.675040
0.000000 1.000000 0.670083
0.014262 1.000000 0.670737
0.168363 1.000000 0.671743
0.338346 1.000000 0.672854
0.517905 1.000000 0.674027
0.687197 1.000000 0.675133
0.837011 1.000000 0.676111
0.932879 1.000000 0.676737
1.000000 1.000000 0.677463
0.000000 0.000000 0.790432
0.000000 0.000000 0.791086
0.144496 0.000000 0.792093
0.314479 0.000000 0.793203
0.494039 0.000000 0.794376
0.663331 0.000000 0.795482
0.813145 0.000000 0.796461
0.909012 0.000000 0.797087
1.000000 0.000000 0.797813
0.000000 0.004017 0.792536
0.000000 0.004671 0.793190
0.146600 0.005678 0.794197
0.316583 0.006788 0.795307
0.496143 0.007961 0.796480
0.665435 0.009067 0.797586
0.815249 0.010046 0.798565
0.911117 0.010672 0.799191
1.000000 0.011398 0.799917
0.000000 0.154364 0.795790
0.000000 0.155018 0.796444
0.149854 0.156025 0.797451
0.319837 0.157135 0.798561
0.499396 0.158308 0.799734
0.668688 0.159414 0.800840
0.818502 0.160393 0.801818
0.914370 0.161019 0.802445
1.000000 0.161745 0.803171
0.000000 0.321159 0.799400
0.000000 0.321813 0.800054
0.153464 0.322820 0.801060
0.323446 0.323930 0.802171
0.503006 0.325103 0.803343
0.672298 0.326209 0.804449
0.822112 0.327188 0.805428
0.917980 0.327814 0.806054
1.000000 0.328540 0.806780
0.000000 0.498449 0.803236
0.003200 0.499103 0.803890
0.157300 0.500109 0.804897
0.327283 0.501220 0.806007
0.506843 0.502392 0.807180
0.676135 0.503498 0.808286
0.825949 0.504477 0.809265
0.921816 0.505103 0.809891
1.000000 0.505829 0.810617
0.000000 0.666644 0.806876
0.006839 0.667298 0.807530
0.160940 0.668304 0.808537
0.330923 0.669415 0.809647
0.510483 0.670588 0.810820
0.679775 0.671694 0.811926
0.829589 0.672672 0.812905
0.925456 0.673298 0.813531
1.000000 0.674024 0.814257
0.000000 0.816341 0.810116
0.010079 0.816995 0.810770
0.164180 0.818002 0.811776
0.334162 0.819112 0.812887
0.513722 0.820285 0.814060
0.683014 0.821391 0.815166
0.832828 0.822369 0.816144
0.928696 0.822996 0.816770
1.000000 0.823722 0.817496
0.000000 0.912558 0.812198
0.012161 0.913212 0.812852
0.166262 0.914219 0.813859
0.336245 0.915329 0.814969
0.515804 0.916502 0.816142
0.685096 0.917608 0.817248
0.834910 0.918587 0.818226
0.930778 0.919213 0.818853
1.000000 0.919939 0.819579
0.000000 1.000000 0.814621
0.014584 1.000000 0.815275
0.168685 1.000000 0.816282
0.338668 1.000000 0.817392
0.518227 1.000000 0.818565
0.687520 1.000000 0.819671
0.837333 1.000000 0.820649
0.933201 1.000000 0.821276
1.000000 1.000000 0.822002
0.000000 0.000000 0.883378
0.000000 0.000000 0.884032
0.144703 0.000000 0.885039
0.314686 0.000000 0.886149
0.494246 0.000000 0.887322
0.663538 0.000000 0.888428
0.813352 0.000000 0.889407
0.909220 0.000000 0.890033
1.000000 0.000000 0.890759
0.000000 0.004224 0.885483
0.000000 0.004878 0.886136
0.146807 0.005885 0.887143
0.316790 0.006995 0.888253
0.496350 0.008168 0.889426
0.665642 0.009274 0.890532
0.815456 0.010253 0.891511
0.911324 0.010879 0.892137
1.000000 0.011605 0.892863
0.000000 0.154571 0.888736
0.000000 0.155225 0.889390
0.150061 0.156232 0.890397
0.320044 0.157342 0.891507
0.499603 0.158515 0.892680
0.668896 0.159621 0.893786
0.818710 0.160600 0.894764
0.914577 0.161226 0.895391
1.000000 0.161952 0.896117
0.000000 0.321366 0.892346
0.000000 0.322020 0.893000
0.153671 0.323027 0.894006
0.323653 0.324137 0.895117
0.503213 0.325310 0.896290
0.672505 0.326416 0.897395
0.822319 0.327395 0.898374
0.918187 0.328021 0.899000
1.000000 0.328747 0.899726
0.000000 0.498656 0.896182
0.003407 0.499310 0.896836
0.157507 0.500316 0.897843
0.327490 0.501427 0.898953
0.507050 0.502600 0.900126
0.676342 0.503705 0.901232
0.826156 0.504684 0.902211
0.922024 0.505310 0.902837
1.000000 0.506036 0.903563
0.000000 0.666851 0.899822
0.007046 0.667505 0.900476
0.161147 0.668511 0.901483
0.331130 0.669622 0.902593
0.510690 0.670795 0.903766
0.679982 0.671901 0.904872
0.829796 0.672879 0.905851
0.925663 0.673506 0.906477
1.000000 0.674232 0.907203
0.000000 0.816548 0.903062
0.010286 0.817202 0.903716
0.164387 0.818209 0.904722
0.334370 0.819319 0.905833
0.513929 0.820492 0.907006
0.683221 0.821598 0.908112
0.833035 0.822576 0.909090
0.928903 0.823203 0.909717
1.000000 0.823929 0.910443
0.000000 0.912765 0.905144
0.012368 0.913419 0.905798
0.166469 0.914426 0.906805
0.336452 0.915536 0.907915
0.516011 0.916709 0.909088
0.685304 0.917815 0.910194
0.835118 0.918794 0.911172
0.930985 0.919420 0.911799
1.000000 0.920146 0.912525
0.000000 1.000000 0.907567
0.014791 1.000000 0.908221
0.168892 1.000000 0.909228
0.338875 1.000000 0.910338
0.518435 1.000000 0.911511
0.687727 1.000000 0.912617
0.837541 1.000000 0.913596
0.933408 1.000000 0.914222
1.000000 1.000000 0.914948
0.000000 0.000000 0.991581
0.000000 0.000000 0.992235
0.144944 0.000000 0.993241
0.314927 0.000000 0.994352
0.494487 0.000000 0.995525
0.663779 0.000000 0.996631
0.813593 0.000000 0.997609
0.909461 0.000000 0.998236
1.000000 0.000000 0.998962
0.000000 0.004465 0.993685
0.000000 0.005119 0.994339
0.147049 0.006126 0.995345
0.317031 0.007236 0.996456
0.496591 0.008409 0.997629
0.665883 0.009515 0.998735
0.815697 0.010494 0.999713
0.911565 0.011120 1.000000
1.000000 0.011846 1.000000
0.000000 0.154813 0.996939
0.000000 0.155466 0.997593
0.150302 0.156473 0.998599
0.320285 0.157583 0.999710
0.499845 0.158756 1.000000
0.669137 0.159862 1.000000
0.818951 0.160841 1.000000
0.914818 0.161467 1.000000
1.000000 0.162193 1.000000
0.000000 0.321607 1.000000
0.000000 0.322261 1.000000
0.153912 0.323268 1.000000
0.323894 0.324378 1.000000
0.503454 0.325551 1.000000
0.672746 0.326657 1.000000
0.822560 0.327636 1.000000
0.918428 0.328262 1.000000
1.000000 0.328988 1.000000
0.000000 0.498897 1.000000
0.003648 0.499551 1.000000
0.157748 0.500557 1.000000
0.327731 0.501668 1.000000
0.507291 0.502841 1.000000
0.676583 0.503946 1.000000
0.826397 0.504925 1.000000
0.922265 0.505551 1.000000
1.000000 0.506277 1.000000
0.000000 0.667092 1.000000
0.007288 0.667746 1.000000
0.161388 0.668753 1.000000
0.331371 0.669863 1.000000
0.510931 0.671036 1.000000
0.680223 0.672142 1.000000
0.830037 0.673120 1.000000
0.925905 0.673747 1.000000
1.000000 0.674473 1.000000
0.000000 0.816789 1.000000
0.010527 0.817443 1.000000
0.164628 0.818450 1.000000
0.334611 0.819560 1.000000
0.514170 0.820733 1.000000
0.683462 0.821839 1.000000
0.833276 0.822818 1.000000
0.929144 0.823444 1.000000
1.000000 0.824170 1.000000
0.000000 0.913007 1.000000
0.012609 0.913660 1.000000
0.166710 0.914667 1.000000
0.336693 0.915777 1.000000
0.516253 0.916950 1.000000
0.685545 0.918056 1.000000
0.835359 0.919035 1.000000
0.931226 0.919661 1.000000
1.000000 0.920387 1.000000
0.000000 1.000000 1.000000
0.015032 1.000000 1.000000
0.169133 1.000000 1.000000
0.339116 1.000000 1.000000
0.518676 1.000000 1.000000
0.687968 1.000000 1.000000
0.837782 1.000000 1.000000
0.933649 1.000000 1.000000
1.000000 1.000000 1.000000
