assets/ricoh/Ricoh_GR2_PS_Filter/LUT/GR2_Hi_BW.cube
TITLE "Ricoh GR2 High Contrast BW"
LUT_3D_SIZE 9
DOMAIN_MIN 0.000000 0.000000 0.000000
DOMAIN_MAX 1.000000 1.000000 1.000000
0.000000 0.000000 0.000000
0.000000 0.000000 0.000000
0.000000 0.000000 0.000000
0.000000 0.000000 0.000000
0.035831 0.035831 0.035831
0.075632 0.075632 0.075632
0.108937 0.108937 0.108937
0.133109 0.133109 0.133109
0.160868 0.160868 0.160868
0.000000 0.000000 0.000000
0.000000 0.000000 0.000000
0.024577 0.024577 0.024577
0.061039 0.061039 0.061039
0.098882 0.098882 0.098882
0.138683 0.138683 0.138683
0.171988 0.171988 0.171988
0.196160 0.196160 0.196160
0.223919 0.223919 0.223919
0.083338 0.083338 0.083338
0.102080 0.102080 0.102080
0.134864 0.134864 0.134864
0.171326 0.171326 0.171326
0.209169 0.209169 0.209169
0.248970 0.248970 0.248970
0.282275 0.282275 0.282275
0.306447 0.306447 0.306447
0.334206 0.334206 0.334206
0.205998 0.205998 0.205998
0.224741 0.224741 0.224741
0.257524 0.257524 0.257524
0.293986 0.293986 0.293986
0.331829 0.331829 0.331829
0.371631 0.371631 0.371631
0.404935 0.404935 0.404935
0.429107 0.429107 0.429107
0.456866 0.456866 0.456866
0.333305 0.333305 0.333305
0.352047 0.352047 0.352047
0.384831 0.384831 0.384831
0.421293 0.421293 0.421293
0.459136 0.459136 0.459136
0.498937 0.498937 0.498937
0.532241 0.532241 0.532241
0.556414 0.556414 0.556414
0.584173 0.584173 0.584173
0.467198 0.467198 0.467198
0.485941 0.485941 0.485941
0.518725 0.518725 0.518725
0.555187 0.555187 0.555187
0.593030 0.593030 0.593030
0.632831 0.632831 0.632831
0.666135 0.666135 0.666135
0.690307 0.690307 0.690307
0.718066 0.718066 0.718066
0.579236 0.579236 0.579236
0.597979 0.597979 0.597979
0.630763 0.630763 0.630763
0.667225 0.667225 0.667225
0.705068 0.705068 0.705068
0.744869 0.744869 0.744869
0.778173 0.778173 0.778173
0.802345 0.802345 0.802345
0.830104 0.830104 0.830104
0.660553 0.660553 0.660553
0.679296 0.679296 0.679296
0.712079 0.712079 0.712079
0.748541 0.748541 0.748541
0.786384 0.786384 0.786384
0.826186 0.826186 0.826186
0.859490 0.859490 0.859490
0.883662 0.883662 0.883662
0.911421 0.911421 0.911421
0.753936 0.753936 0.753936
0.772678 0.772678 0.772678
0.805462 0.805462 0.805462
0.841924 0.841924 0.841924
0.879767 0.879767 0.879767
0.919568 0.919568 0.919568
0.952873 0.952873 0.952873
0.977045 0.977045 0.977045
1.000000 1.000000 1.000000
0.000000 0.000000 0.000000
0.000000 0.000000 0.000000
0.000000 0.000000 0.000000
0.004353 0.004353 0.004353
0.042196 0.042196 0.042196
0.081997 0.081997 0.081997
0.115302 0.115302 0.115302
0.139474 0.139474 0.139474
0.167233 0.167233 0.167233
0.000000 0.000000 0.000000
0.000000 0.000000 0.000000
0.030942 0.030942 0.030942
0.067404 0.067404 0.067404
0.105247 0.105247 0.105247
0.145048 0.145048 0.145048
0.178353 0.178353 0.178353
0.202525 0.202525 0.202525
0.230284 0.230284 0.230284
0.089703 0.089703 0.089703
0.108445 0.108445 0.108445
0.141229 0.141229 0.141229
0.177691 0.177691 0.177691
0.215534 0.215534 0.215534
0.255335 0.255335 0.255335
0.288640 0.288640 0.288640
0.312812 0.312812 0.312812
0.340571 0.340571 0.340571
0.212363 0.212363 0.212363
0.231106 0.231106 0.231106
0.263889 0.263889 0.263889
0.300351 0.300351 0.300351
0.338194 0.338194 0.338194
0.377996 0.377996 0.377996
0.411300 0.411300 0.411300
0.435472 0.435472 0.435472
0.463231 0.463231 0.463231
0.339670 0.339670 0.339670
0.358412 0.358412 0.358412
0.391196 0.391196 0.391196
0.427658 0.427658 0.427658
0.465501 0.465501 0.465501
0.505302 0.505302 0.505302
0.538606 0.538606 0.538606
0.562779 0.562779 0.562779
0.590538 0.590538 0.590538
0.473563 0.473563 0.473563
0.492306 0.492306 0.492306
0.525090 0.525090 0.525090
0.561552 0.561552 0.561552
0.599395 0.599395 0.599395
0.639196 0.639196 0.639196
0.672500 0.672500 0.672500
0.696672 0.696672 0.696672
0.724431 0.724431 0.724431
0.585601 0.585601 0.585601
0.604344 0.604344 0.604344
0.637128 0.637128 0.637128
0.673590 0.673590 0.673590
0.711433 0.711433 0.711433
0.751234 0.751234 0.751234
0.784538 0.784538 0.784538
0.808711 0.808711 0.808711
0.836469 0.836469 0.836469
0.666918 0.666918 0.666918
0.685661 0.685661 0.685661
0.718445 0.718445 0.718445
0.754906 0.754906 0.754906
0.792749 0.792749 0.792749
0.832551 0.832551 0.832551
0.865855 0.865855 0.865855
0.890027 0.890027 0.890027
0.917786 0.917786 0.917786
0.760301 0.760301 0.760301
0.779043 0.779043 0.779043
0.811827 0.811827 0.811827
0.848289 0.848289 0.848289
0.886132 0.886132 0.886132
0.925933 0.925933 0.925933
0.959238 0.959238 0.959238
0.983410 0.983410 0.983410
1.000000 1.000000 1.000000
0.000000 0.000000 0.000000
0.000000 0.000000 0.000000
0.000000 0.000000 0.000000
0.015487 0.015487 0.015487
0.053330 0.053330 0.053330
0.093131 0.093131 0.093131
0.126435 0.126435 0.126435
0.150608 0.150608 0.150608
0.178367 0.178367 0.178367
0.000000 0.000000 0.000000
0.009292 0.009292 0.009292
0.042076 0.042076 0.042076
0.078538 0.078538 0.078538
0.116381 0.116381 0.116381
0.156182 0.156182 0.156182
0.189486 0.189486 0.189486
0.213658 0.213658 0.213658
0.241417 0.241417 0.241417
0.100836 0.100836 0.100836
0.119579 0.119579 0.119579
0.152363 0.152363 0.152363
0.188825 0.188825 0.188825
0.226668 0.226668 0.226668
0.266469 0.266469 0.266469
0.299773 0.299773 0.299773
0.323945 0.323945 0.323945
0.351704 0.351704 0.351704
0.223497 0.223497 0.223497
0.242239 0.242239 0.242239
0.275023 0.275023 0.275023
0.311485 0.311485 0.311485
0.349328 0.349328 0.349328
0.389129 0.389129 0.389129
0.422434 0.422434 0.422434
0.446606 0.446606 0.446606
0.474365 0.474365 0.474365
0.350803 0.350803 0.350803
0.369546 0.369546 0.369546
0.402329 0.402329 0.402329
0.438791 0.438791 0.438791
0.476634 0.476634 0.476634
0.516436 0.516436 0.516436
0.549740 0.549740 0.549740
0.573912 0.573912 0.573912
0.601671 0.601671 0.601671
0.484697 0.484697 0.484697
0.503439 0.503439 0.503439
0.536223 0.536223 0.536223
0.572685 0.572685 0.572685
0.610528 0.610528 0.610528
0.650329 0.650329 0.650329
0.683634 0.683634 0.683634
0.707806 0.707806 0.707806
0.735565 0.735565 0.735565
0.596735 0.596735 0.596735
0.615477 0.615477 0.615477
0.648261 0.648261 0.648261
0.684723 0.684723 0.684723
0.722566 0.722566 0.722566
0.762367 0.762367 0.762367
0.795672 0.795672 0.795672
0.819844 0.819844 0.819844
0.847603 0.847603 0.847603
0.678052 0.678052 0.678052
0.696794 0.696794 0.696794
0.729578 0.729578 0.729578
0.766040 0.766040 0.766040
0.803883 0.803883 0.803883
0.843684 0.843684 0.843684
0.876989 0.876989 0.876989
0.901161 0.901161 0.901161
0.928920 0.928920 0.928920
0.771435 0.771435 0.771435
0.790177 0.790177 0.790177
0.822961 0.822961 0.822961
0.859423 0.859423 0.859423
0.897266 0.897266 0.897266
0.937067 0.937067 0.937067
0.970371 0.970371 0.970371
0.994544 0.994544 0.994544
1.000000 1.000000 1.000000
0.000000 0.000000 0.000000
0.000000 0.000000 0.000000
0.000000 0.000000 0.000000
0.027870 0.027870 0.027870
0.065713 0.065713 0.065713
0.105514 0.105514 0.105514
0.138818 0.138818 0.138818
0.162990 0.162990 0.162990
0.190749 0.190749 0.190749
0.002932 0.002932 0.002932
0.021674 0.021674 0.021674
0.054458 0.054458 0.054458
0.090920 0.090920 0.090920
0.128763 0.128763 0.128763
0.168564 0.168564 0.168564
0.201869 0.201869 0.201869
0.226041 0.226041 0.226041
0.253800 0.253800 0.253800
0.113219 0.113219 0.113219
0.131962 0.131962 0.131962
0.164745 0.164745 0.164745
0.201207 0.201207 0.201207
0.239050 0.239050 0.239050
0.278852 0.278852 0.278852
0.312156 0.312156 0.312156
0.336328 0.336328 0.336328
0.364087 0.364087 0.364087
0.235879 0.235879 0.235879
0.254622 0.254622 0.254622
0.287406 0.287406 0.287406
0.323868 0.323868 0.323868
0.361711 0.361711 0.361711
0.401512 0.401512 0.401512
0.434816 0.434816 0.434816
0.458988 0.458988 0.458988
0.486747 0.486747 0.486747
0.363186 0.363186 0.363186
0.381928 0.381928 0.381928
0.414712 0.414712 0.414712
0.451174 0.451174 0.451174
0.489017 0.489017 0.489017
0.528818 0.528818 0.528818
0.562123 0.562123 0.562123
0.586295 0.586295 0.586295
0.614054 0.614054 0.614054
0.497079 0.497079 0.497079
0.515822 0.515822 0.515822
0.548606 0.548606 0.548606
0.585068 0.585068 0.585068
0.622911 0.622911 0.622911
0.662712 0.662712 0.662712
0.696016 0.696016 0.696016
0.720189 0.720189 0.720189
0.747947 0.747947 0.747947
0.609118 0.609118 0.609118
0.627860 0.627860 0.627860
0.660644 0.660644 0.660644
0.697106 0.697106 0.697106
0.734949 0.734949 0.734949
0.774750 0.774750 0.774750
0.808055 0.808055 0.808055
0.832227 0.832227 0.832227
0.859986 0.859986 0.859986
0.690434 0.690434 0.690434
0.709177 0.709177 0.709177
0.741961 0.741961 0.741961
0.778423 0.778423 0.778423
0.816266 0.816266 0.816266
0.856067 0.856067 0.856067
0.889371 0.889371 0.889371
0.913543 0.913543 0.913543
0.941302 0.941302 0.941302
0.783817 0.783817 0.783817
0.802560 0.802560 0.802560
0.835344 0.835344 0.835344
0.871806 0.871806 0.871806
0.909649 0.909649 0.909649
0.949450 0.949450 0.949450
0.982754 0.982754 0.982754
1.000000 1.000000 1.000000
1.000000 1.000000 1.000000
0.000000 0.000000 0.000000
0.000000 0.000000 0.000000
0.004259 0.004259 0.004259
0.040721 0.040721 0.040721
0.078564 0.078564 0.078564
0.118365 0.118365 0.118365
0.151670 0.151670 0.151670
0.175842 0.175842 0.175842
0.203601 0.203601 0.203601
0.015784 0.015784 0.015784
0.034526 0.034526 0.034526
0.067310 0.067310 0.067310
0.103772 0.103772 0.103772
0.141615 0.141615 0.141615
0.181416 0.181416 0.181416
0.214721 0.214721 0.214721
0.238893 0.238893 0.238893
0.266652 0.266652 0.266652
0.126071 0.126071 0.126071
0.144813 0.144813 0.144813
0.177597 0.177597 0.177597
0.214059 0.214059 0.214059
0.251902 0.251902 0.251902
0.291703 0.291703 0.291703
0.325008 0.325008 0.325008
0.349180 0.349180 0.349180
0.376939 0.376939 0.376939
0.248731 0.248731 0.248731
0.267474 0.267474 0.267474
0.300257 0.300257 0.300257
0.336719 0.336719 0.336719
0.374562 0.374562 0.374562
0.414364 0.414364 0.414364
0.447668 0.447668 0.447668
0.471840 0.471840 0.471840
0.499599 0.499599 0.499599
0.376037 0.376037 0.376037
0.394780 0.394780 0.394780
0.427564 0.427564 0.427564
0.464026 0.464026 0.464026
0.501869 0.501869 0.501869
0.541670 0.541670 0.541670
0.574974 0.574974 0.574974
0.599147 0.599147 0.599147
0.626905 0.626905 0.626905
0.509931 0.509931 0.509931
0.528674 0.528674 0.528674
0.561457 0.561457 0.561457
0.597919 0.597919 0.597919
0.635762 0.635762 0.635762
0.675564 0.675564 0.675564
0.708868 0.708868 0.708868
0.733040 0.733040 0.733040
0.760799 0.760799 0.760799
0.621969 0.621969 0.621969
0.640712 0.640712 0.640712
0.673496 0.673496 0.673496
0.709958 0.709958 0.709958
0.747801 0.747801 0.747801
0.787602 0.787602 0.787602
0.820906 0.820906 0.820906
0.845078 0.845078 0.845078
0.872837 0.872837 0.872837
0.703286 0.703286 0.703286
0.722029 0.722029 0.722029
0.754812 0.754812 0.754812
0.791274 0.791274 0.791274
0.829117 0.829117 0.829117
0.868919 0.868919 0.868919
0.902223 0.902223 0.902223
0.926395 0.926395 0.926395
0.954154 0.954154 0.954154
0.796669 0.796669 0.796669
0.815411 0.815411 0.815411
0.848195 0.848195 0.848195
0.884657 0.884657 0.884657
0.922500 0.922500 0.922500
0.962301 0.962301 0.962301
0.995606 0.995606 0.995606
1.000000 1.000000 1.000000
1.000000 1.000000 1.000000
0.000000 0.000000 0.000000
0.000000 0.000000 0.000000
0.017776 0.017776 0.017776
0.054238 0.054238 0.054238
0.092081 0.092081 0.092081
0.131882 0.131882 0.131882
0.165186 0.165186 0.165186
0.189359 0.189359 0.189359
0.217118 0.217118 0.217118
0.029300 0.029300 0.029300
0.048043 0.048043 0.048043
0.080827 0.080827 0.080827
0.117289 0.117289 0.117289
0.155132 0.155132 0.155132
0.194933 0.194933 0.194933
0.228237 0.228237 0.228237
0.252409 0.252409 0.252409
0.280168 0.280168 0.280168
0.139587 0.139587 0.139587
0.158330 0.158330 0.158330
0.191114 0.191114 0.191114
0.227576 0.227576 0.227576
0.265419 0.265419 0.265419
0.305220 0.305220 0.305220
0.338524 0.338524 0.338524
0.362697 0.362697 0.362697
0.390455 0.390455 0.390455
0.262248 0.262248 0.262248
0.280990 0.280990 0.280990
0.313774 0.313774 0.313774
0.350236 0.350236 0.350236
0.388079 0.388079 0.388079
0.427880 0.427880 0.427880
0.461185 0.461185 0.461185
0.485357 0.485357 0.485357
0.513116 0.513116 0.513116
0.389554 0.389554 0.389554
0.408297 0.408297 0.408297
0.441080 0.441080 0.441080
0.477542 0.477542 0.477542
0.515385 0.515385 0.515385
0.555187 0.555187 0.555187
0.588491 0.588491 0.588491
0.612663 0.612663 0.612663
0.640422 0.640422 0.640422
0.523448 0.523448 0.523448
0.542190 0.542190 0.542190
0.574974 0.574974 0.574974
0.611436 0.611436 0.611436
0.649279 0.649279 0.649279
0.689080 0.689080 0.689080
0.722385 0.722385 0.722385
0.746557 0.746557 0.746557
0.774316 0.774316 0.774316
0.635486 0.635486 0.635486
0.654228 0.654228 0.654228
0.687012 0.687012 0.687012
0.723474 0.723474 0.723474
0.761317 0.761317 0.761317
0.801118 0.801118 0.801118
0.834423 0.834423 0.834423
0.858595 0.858595 0.858595
0.886354 0.886354 0.886354
0.716803 0.716803 0.716803
0.735545 0.735545 0.735545
0.768329 0.768329 0.768329
0.804791 0.804791 0.804791
0.842634 0.842634 0.842634
0.882435 0.882435 0.882435
0.915740 0.915740 0.915740
0.939912 0.939912 0.939912
0.967671 0.967671 0.967671
0.810186 0.810186 0.810186
0.828928 0.828928 0.828928
0.861712 0.861712 0.861712
0.898174 0.898174 0.898174
0.936017 0.936017 0.936017
0.975818 0.975818 0.975818
1.000000 1.000000 1.000000
1.000000 1.000000 1.000000
1.000000 1.000000 1.000000
0.000000 0.000000 0.000000
0.000000 0.000000 0.000000
0.029086 0.029086 0.029086
0.065548 0.065548 0.065548
0.103391 0.103391 0.103391
0.143192 0.143192 0.143192
0.176497 0.176497 0.176497
0.200669 0.200669 0.200669
0.228428 0.228428 0.228428
0.040611 0.040611 0.040611
0.059353 0.059353 0.059353
0.092137 0.092137 0.092137
0.128599 0.128599 0.128599
0.166442 0.166442 0.166442
0.206243 0.206243 0.206243
0.239548 0.239548 0.239548
0.263720 0.263720 0.263720
0.291479 0.291479 0.291479
0.150898 0.150898 0.150898
0.169640 0.169640 0.169640
0.202424 0.202424 0.202424
0.238886 0.238886 0.238886
0.276729 0.276729 0.276729
0.316530 0.316530 0.316530
0.349835 0.349835 0.349835
0.374007 0.374007 0.374007
0.401766 0.401766 0.401766
0.273558 0.273558 0.273558
0.292301 0.292301 0.292301
0.325084 0.325084 0.325084
0.361546 0.361546 0.361546
0.399389 0.399389 0.399389
0.439191 0.439191 0.439191
0.472495 0.472495 0.472495
0.496667 0.496667 0.496667
0.524426 0.524426 0.524426
0.400864 0.400864 0.400864
0.419607 0.419607 0.419607
0.452391 0.452391 0.452391
0.488853 0.488853 0.488853
0.526696 0.526696 0.526696
0.566497 0.566497 0.566497
0.599801 0.599801 0.599801
0.623974 0.623974 0.623974
0.651732 0.651732 0.651732
0.534758 0.534758 0.534758
0.553501 0.553501 0.553501
0.586285 0.586285 0.586285
0.622746 0.622746 0.622746
0.660589 0.660589 0.660589
0.700391 0.700391 0.700391
0.733695 0.733695 0.733695
0.757867 0.757867 0.757867
0.785626 0.785626 0.785626
0.646796 0.646796 0.646796
0.665539 0.665539 0.665539
0.698323 0.698323 0.698323
0.734785 0.734785 0.734785
0.772628 0.772628 0.772628
0.812429 0.812429 0.812429
0.845733 0.845733 0.845733
0.869905 0.869905 0.869905
0.897664 0.897664 0.897664
0.728113 0.728113 0.728113
0.746856 0.746856 0.746856
0.779639 0.779639 0.779639
0.816101 0.816101 0.816101
0.853944 0.853944 0.853944
0.893746 0.893746 0.893746
0.927050 0.927050 0.927050
0.951222 0.951222 0.951222
0.978981 0.978981 0.978981
0.821496 0.821496 0.821496
0.840238 0.840238 0.840238
0.873022 0.873022 0.873022
0.909484 0.909484 0.909484
0.947327 0.947327 0.947327
0.987128 0.987128 0.987128
1.000000 1.000000 1.000000
1.000000 1.000000 1.000000
1.000000 1.000000 1.000000
0.000000 0.000000 0.000000
0.004511 0.004511 0.004511
0.037295 0.037295 0.037295
0.073757 0.073757 0.073757
0.111600 0.111600 0.111600
0.151401 0.151401 0.151401
0.184706 0.184706 0.184706
0.208878 0.208878 0.208878
0.236637 0.236637 0.236637
0.048820 0.048820 0.048820
0.067562 0.067562 0.067562
0.100346 0.100346 0.100346
0.136808 0.136808 0.136808
0.174651 0.174651 0.174651
0.214452 0.214452 0.214452
0.247757 0.247757 0.247757
0.271929 0.271929 0.271929
0.299688 0.299688 0.299688
0.159107 0.159107 0.159107
0.177849 0.177849 0.177849
0.210633 0.210633 0.210633
0.247095 0.247095 0.247095
0.284938 0.284938 0.284938
0.324739 0.324739 0.324739
0.358044 0.358044 0.358044
0.382216 0.382216 0.382216
0.409975 0.409975 0.409975
0.281767 0.281767 0.281767
0.300510 0.300510 0.300510
0.333293 0.333293 0.333293
0.369755 0.369755 0.369755
0.407598 0.407598 0.407598
0.447400 0.447400 0.447400
0.480704 0.480704 0.480704
0.504876 0.504876 0.504876
0.532635 0.532635 0.532635
0.409073 0.409073 0.409073
0.427816 0.427816 0.427816
0.460600 0.460600 0.460600
0.497062 0.497062 0.497062
0.534905 0.534905 0.534905
0.574706 0.574706 0.574706
0.608010 0.608010 0.608010
0.632183 0.632183 0.632183
0.659941 0.659941 0.659941
0.542967 0.542967 0.542967
0.561710 0.561710 0.561710
0.594493 0.594493 0.594493
0.630955 0.630955 0.630955
0.668798 0.668798 0.668798
0.708600 0.708600 0.708600
0.741904 0.741904 0.741904
0.766076 0.766076 0.766076
0.793835 0.793835 0.793835
0.655005 0.655005 0.655005
0.673748 0.673748 0.673748
0.706532 0.706532 0.706532
0.742994 0.742994 0.742994
0.780837 0.780837 0.780837
0.820638 0.820638 0.820638
0.853942 0.853942 0.853942
0.878114 0.878114 0.878114
0.905873 0.905873 0.905873
0.736322 0.736322 0.736322
0.755065 0.755065 0.755065
0.787848 0.787848 0.787848
0.824310 0.824310 0.824310
0.862153 0.862153 0.862153
0.901955 0.901955 0.901955
0.935259 0.935259 0.935259
0.959431 0.959431 0.959431
0.987190 0.987190 0.987190
0.829705 0.829705 0.829705
0.848447 0.848447 0.848447
0.881231 0.881231 0.881231
0.917693 0.917693 0.917693
0.955536 0.955536 0.955536
0.995337 0.995337 0.995337
1.000000 1.000000 1.000000
1.000000 1.000000 1.000000
1.000000 1.000000 1.000000
0.000000 0.000000 0.000000
0.013938 0.013938 0.013938
0.046722 0.046722 0.046722
0.083184 0.083184 0.083184
0.121027 0.121027 0.121027
0.160828 0.160828 0.160828
0.194133 0.194133 0.194133
0.218305 0.218305 0.218305
0.246064 0.246064 0.246064
0.058247 0.058247 0.058247
0.076989 0.076989 0.076989
0.109773 0.109773 0.109773
0.146235 0.146235 0.146235
0.184078 0.184078 0.184078
0.223879 0.223879 0.223879
0.257184 0.257184 0.257184
0.281356 0.281356 0.281356
0.309115 0.309115 0.309115
0.168534 0.168534 0.168534
0.187276 0.187276 0.187276
0.220060 0.220060 0.220060
0.256522 0.256522 0.256522
0.294365 0.294365 0.294365
0.334166 0.334166 0.334166
0.367471 0.367471 0.367471
0.391643 0.391643 0.391643
0.419402 0.419402 0.419402
0.291194 0.291194 0.291194
0.309937 0.309937 0.309937
0.342720 0.342720 0.342720
0.379182 0.379182 0.379182
0.417025 0.417025 0.417025
0.456827 0.456827 0.456827
0.490131 0.490131 0.490131
0.514303 0.514303 0.514303
0.542062 0.542062 0.542062
0.418501 0.418501 0.418501
0.437243 0.437243 0.437243
0.470027 0.470027 0.470027
0.506489 0.506489 0.506489
0.544332 0.544332 0.544332
0.584133 0.584133 0.584133
0.617437 0.617437 0.617437
0.641610 0.641610 0.641610
0.669369 0.669369 0.669369
0.552394 0.552394 0.552394
0.571137 0.571137 0.571137
0.603921 0.603921 0.603921
0.640383 0.640383 0.640383
0.678226 0.678226 0.678226
0.718027 0.718027 0.718027
0.751331 0.751331 0.751331
0.775503 0.775503 0.775503
0.803262 0.803262 0.803262
0.664432 0.664432 0.664432
0.683175 0.683175 0.683175
0.715959 0.715959 0.715959
0.752421 0.752421 0.752421
0.790264 0.790264 0.790264
0.830065 0.830065 0.830065
0.863369 0.863369 0.863369
0.887541 0.887541 0.887541
0.915300 0.915300 0.915300
0.745749 0.745749 0.745749
0.764492 0.764492 0.764492
0.797275 0.797275 0.797275
0.833737 0.833737 0.833737
0.871580 0.871580 0.871580
0.911382 0.911382 0.911382
0.944686 0.944686 0.944686
0.968858 0.968858 0.968858
0.996617 0.996617 0.996617
0.839132 0.839132 0.839132
0.857874 0.857874 0.857874
0.890658 0.890658 0.890658
0.927120 0.927120 0.927120
0.964963 0.964963 0.964963
1.000000 1.000000 1.000000
1.000000 1.000000 1.000000
1.000000 1.000000 1.000000
1.000000 1.000000 1.000000
