assets/ricoh/Ricoh_GR2_PS_Filter/LUT/GR2_Negative_Film.cube
TITLE "Ricoh GR2 Negative Film"
LUT_3D_SIZE 33
DOMAIN_MIN 0.000000 0.000000 0.000000
DOMAIN_MAX 1.000000 1.000000 1.000000
0.086041 0.098359 0.100578
0.106954 0.098895 0.101114
0.127844 0.099429 0.101649
0.148711 0.099964 0.102183
0.169556 0.100497 0.102717
0.194442 0.101135 0.103354
0.220770 0.101809 0.104028
0.247062 0.102482 0.104701
0.273319 0.103154 0.105373
0.299539 0.103825 0.106045
0.325724 0.104496 0.106715
0.351872 0.105165 0.107385
0.379105 0.105863 0.108082
0.407638 0.106593 0.108812
0.436129 0.107323 0.109542
0.464576 0.108051 0.110270
0.492981 0.108778 0.110998
0.521342 0.109504 0.111724
0.549660 0.110230 0.112449
0.575412 0.110889 0.113108
0.600513 0.111532 0.113751
0.625580 0.112173 0.114393
0.650613 0.112814 0.115033
0.675612 0.113454 0.115674
0.700577 0.114094 0.116313
0.724768 0.114713 0.116932
0.744832 0.115227 0.117446
0.764874 0.115740 0.117959
0.784894 0.116252 0.118472
0.804892 0.116764 0.118984
0.823755 0.117247 0.119467
0.841531 0.117702 0.119922
0.859290 0.118157 0.120376
0.087770 0.119650 0.102308
0.108683 0.120185 0.102843
0.129573 0.120720 0.103378
0.150440 0.121255 0.103912
0.171286 0.121788 0.104446
0.196171 0.122425 0.105083
0.222499 0.123100 0.105757
0.248791 0.123773 0.106430
0.275048 0.124445 0.107103
0.301268 0.125116 0.107774
0.327453 0.125787 0.108444
0.353602 0.126456 0.109114
0.380834 0.127154 0.109811
0.409368 0.127884 0.110542
0.437858 0.128614 0.111271
0.466305 0.129342 0.111999
0.494710 0.130069 0.112727
0.523071 0.130795 0.113453
0.551390 0.131520 0.114178
0.577141 0.132180 0.114837
0.602242 0.132822 0.115480
0.627309 0.133464 0.116122
0.652342 0.134105 0.116763
0.677341 0.134745 0.117403
0.702306 0.135384 0.118042
0.726497 0.136004 0.118661
0.746561 0.136517 0.119175
0.766603 0.137031 0.119688
0.786623 0.137543 0.120201
0.806621 0.138055 0.120713
0.825485 0.138538 0.121196
0.843260 0.138993 0.121651
0.861019 0.139448 0.122106
0.089500 0.140941 0.104037
0.110412 0.141476 0.104572
0.131302 0.142011 0.105107
0.152170 0.142545 0.105641
0.173015 0.143079 0.106175
0.197900 0.143716 0.106812
0.224228 0.144390 0.107486
0.250521 0.145064 0.108159
0.276777 0.145736 0.108832
0.302997 0.146407 0.109503
0.329182 0.147078 0.110173
0.355331 0.147747 0.110843
0.382563 0.148444 0.111540
0.411097 0.149175 0.112271
0.439587 0.149904 0.113000
0.468035 0.150633 0.113729
0.496439 0.151360 0.114456
0.524800 0.152086 0.115182
0.553119 0.152811 0.115907
0.578870 0.153471 0.116566
0.603971 0.154113 0.117209
0.629038 0.154755 0.117851
0.654071 0.155396 0.118492
0.679070 0.156036 0.119132
0.704035 0.156675 0.119771
0.728226 0.157295 0.120390
0.748290 0.157808 0.120904
0.768332 0.158321 0.121417
0.788352 0.158834 0.121930
0.808350 0.159346 0.122442
0.827214 0.159829 0.122925
0.844990 0.160284 0.123380
0.862748 0.160739 0.123835
0.091229 0.162232 0.105766
0.112141 0.162767 0.106301
0.133031 0.163302 0.106836
0.153899 0.163836 0.107370
0.174744 0.164370 0.107904
0.199629 0.165007 0.108541
0.225957 0.165681 0.109215
0.252250 0.166354 0.109889
0.278506 0.167027 0.110561
0.304727 0.167698 0.111232
0.330911 0.168368 0.111903
0.357060 0.169038 0.112572
0.384293 0.169735 0.113269
0.412826 0.170466 0.114000
0.441316 0.171195 0.114729
0.469764 0.171924 0.115458
0.498168 0.172651 0.116185
0.526530 0.173377 0.116911
0.554848 0.174102 0.117636
0.580599 0.174761 0.118296
0.605700 0.175404 0.118938
0.630767 0.176046 0.119580
0.655800 0.176687 0.120221
0.680799 0.177327 0.120861
0.705764 0.177966 0.121500
0.729955 0.178585 0.122120
0.750019 0.179099 0.122633
0.770061 0.179612 0.123146
0.790081 0.180125 0.123659
0.810079 0.180637 0.124171
0.828943 0.181120 0.124654
0.846719 0.181575 0.125109
0.864477 0.182030 0.125564
0.092958 0.183523 0.107495
0.113870 0.184058 0.108030
0.134760 0.184593 0.108565
0.155628 0.185127 0.109100
0.176473 0.185661 0.109633
0.201358 0.186298 0.110271
0.227686 0.186972 0.110945
0.253979 0.187645 0.111618
0.280235 0.188318 0.112290
0.306456 0.188989 0.112961
0.332640 0.189659 0.113632
0.358789 0.190329 0.114301
0.386022 0.191026 0.114999
0.414555 0.191757 0.115729
0.443046 0.192486 0.116459
0.471493 0.193214 0.117187
0.499897 0.193942 0.117914
0.528259 0.194668 0.118640
0.556577 0.195393 0.119365
0.582328 0.196052 0.120025
0.607429 0.196695 0.120667
0.632496 0.197337 0.121309
0.657529 0.197978 0.121950
0.682528 0.198618 0.122590
0.707493 0.199257 0.123229
0.731684 0.199876 0.123849
0.751748 0.200390 0.124362
0.771790 0.200903 0.124876
0.791810 0.201416 0.125388
0.811808 0.201928 0.125900
0.830672 0.202411 0.126383
0.848448 0.202866 0.126838
0.866206 0.203321 0.127293
0.095025 0.208970 0.109562
0.115937 0.209505 0.110097
0.136827 0.210040 0.110632
0.157695 0.210574 0.111166
0.178540 0.211108 0.111700
0.203425 0.211745 0.112337
0.229753 0.212419 0.113011
0.256046 0.213092 0.113685
0.282302 0.213765 0.114357
0.308523 0.214436 0.115028
0.334707 0.215106 0.115699
0.360856 0.215776 0.116368
0.388088 0.216473 0.117065
0.416622 0.217204 0.117796
0.445112 0.217933 0.118525
0.473560 0.218662 0.119254
0.501964 0.219389 0.119981
0.530325 0.220115 0.120707
0.558644 0.220840 0.121432
0.584395 0.221499 0.122091
0.609496 0.222142 0.122734
0.634563 0.222784 0.123376
0.659596 0.223425 0.124017
0.684595 0.224065 0.124657
0.709560 0.224704 0.125296
0.733751 0.225323 0.125916
0.753815 0.225837 0.126429
0.773857 0.226350 0.126942
0.793877 0.226863 0.127455
0.813875 0.227375 0.127967
0.832739 0.227858 0.128450
0.850515 0.228313 0.128905
0.868273 0.228768 0.129360
0.097214 0.235928 0.111751
0.118127 0.236464 0.112287
0.139017 0.236999 0.112822
0.159884 0.237533 0.113356
0.180729 0.238067 0.113890
0.205614 0.238704 0.114527
0.231943 0.239378 0.115201
0.258235 0.240051 0.115874
0.284491 0.240723 0.116546
0.310712 0.241395 0.117218
0.336897 0.242065 0.117888
0.363045 0.242735 0.118558
0.390278 0.243432 0.119255
0.418811 0.244162 0.119985
0.447302 0.244892 0.120715
0.475749 0.245620 0.121443
0.504154 0.246347 0.122170
0.532515 0.247074 0.122897
0.560833 0.247799 0.123622
0.586585 0.248458 0.124281
0.611686 0.249101 0.124924
0.636753 0.249742 0.125565
0.661786 0.250383 0.126206
0.686785 0.251023 0.126846
0.711750 0.251663 0.127486
0.735941 0.252282 0.128105
0.756005 0.252796 0.128619
0.776047 0.253309 0.129132
0.796067 0.253822 0.129644
0.816065 0.254334 0.130156
0.834928 0.254817 0.130639
0.852704 0.255272 0.131095
0.870463 0.255726 0.131549
0.099404 0.262887 0.113941
0.120316 0.263422 0.114476
0.141206 0.263957 0.115011
0.162074 0.264492 0.115545
0.182919 0.265025 0.116079
0.207804 0.265662 0.116716
0.234132 0.266337 0.117390
0.260425 0.267010 0.118063
0.286681 0.267682 0.118736
0.312901 0.268353 0.119407
0.339086 0.269024 0.120077
0.365235 0.269693 0.120747
0.392467 0.270390 0.121444
0.421001 0.271121 0.122175
0.449491 0.271850 0.122904
0.477939 0.272579 0.123633
0.506343 0.273306 0.124360
0.534704 0.274032 0.125086
0.563023 0.274757 0.125811
0.588774 0.275417 0.126470
0.613875 0.276059 0.127113
0.638942 0.276701 0.127755
0.663975 0.277342 0.128396
0.688974 0.277982 0.129036
0.713939 0.278621 0.129675
0.738130 0.279241 0.130294
0.758194 0.279754 0.130808
0.778236 0.280268 0.131321
0.798256 0.280780 0.131834
0.818254 0.281292 0.132346
0.837118 0.281775 0.132829
0.854894 0.282230 0.133284
0.872652 0.282685 0.133739
0.101593 0.289846 0.116130
0.122506 0.290381 0.116666
0.143395 0.290916 0.117201
0.164263 0.291450 0.117735
0.185108 0.291984 0.118269
0.209993 0.292621 0.118906
0.236322 0.293295 0.119580
0.262614 0.293968 0.120253
0.288870 0.294641 0.120925
0.315091 0.295312 0.121597
0.341276 0.295982 0.122267
0.367424 0.296652 0.122936
0.394657 0.297349 0.123634
0.423190 0.298080 0.124364
0.451681 0.298809 0.125094
0.480128 0.299537 0.125822
0.508532 0.300265 0.126549
0.536894 0.300991 0.127276
0.565212 0.301716 0.128001
0.590964 0.302375 0.128660
0.616065 0.303018 0.129303
0.641132 0.303660 0.129944
0.666165 0.304301 0.130585
0.691164 0.304941 0.131225
0.716129 0.305580 0.131865
0.740319 0.306199 0.132484
0.760384 0.306713 0.132998
0.780426 0.307226 0.133511
0.800446 0.307739 0.134023
0.820444 0.308251 0.134535
0.839307 0.308734 0.135018
0.857083 0.309189 0.135474
0.874841 0.309644 0.135928
0.103783 0.316804 0.118320
0.124695 0.317340 0.118855
0.145585 0.317874 0.119390
0.166453 0.318409 0.119924
0.187298 0.318942 0.120458
0.212183 0.319580 0.121095
0.238511 0.320254 0.121769
0.264803 0.320927 0.122442
0.291060 0.321599 0.123115
0.317280 0.322270 0.123786
0.343465 0.322941 0.124456
0.369614 0.323610 0.125126
0.396846 0.324308 0.125823
0.425380 0.325038 0.126554
0.453870 0.325768 0.127283
0.482318 0.326496 0.128012
0.510722 0.327223 0.128739
0.539083 0.327949 0.129465
0.567402 0.328675 0.130190
0.593153 0.329334 0.130849
0.618254 0.329977 0.131492
0.643321 0.330618 0.132134
0.668354 0.331259 0.132775
0.693353 0.331899 0.133415
0.718318 0.332539 0.134054
0.742509 0.333158 0.134673
0.762573 0.333672 0.135187
0.782615 0.334185 0.135700
0.802635 0.334697 0.136213
0.822633 0.335209 0.136725
0.841497 0.335692 0.137208
0.859273 0.336147 0.137663
0.877031 0.336602 0.138118
0.105972 0.343763 0.120509
0.126884 0.344298 0.121045
0.147774 0.344833 0.121579
0.168642 0.345367 0.122114
0.189487 0.345901 0.122647
0.214372 0.346538 0.123285
0.240701 0.347212 0.123959
0.266993 0.347886 0.124632
0.293249 0.348558 0.125304
0.319470 0.349229 0.125976
0.345655 0.349900 0.126646
0.371803 0.350569 0.127315
0.399036 0.351266 0.128013
0.427569 0.351997 0.128743
0.456060 0.352726 0.129473
0.484507 0.353455 0.130201
0.512911 0.354182 0.130928
0.541273 0.354908 0.131654
0.569591 0.355633 0.132380
0.595343 0.356292 0.133039
0.620444 0.356935 0.133682
0.645511 0.357577 0.134323
0.670544 0.358218 0.134964
0.695543 0.358858 0.135604
0.720508 0.359497 0.136244
0.744698 0.360117 0.136863
0.764763 0.360630 0.137377
0.784805 0.361143 0.137890
0.804825 0.361656 0.138402
0.824822 0.362168 0.138914
0.843686 0.362651 0.139397
0.861462 0.363106 0.139852
0.879220 0.363561 0.140307
0.108162 0.370721 0.122699
0.129074 0.371257 0.123234
0.149964 0.371792 0.123769
0.170832 0.372326 0.124303
0.191677 0.372860 0.124837
0.216562 0.373497 0.125474
0.242890 0.374171 0.126148
0.269182 0.374844 0.126821
0.295439 0.375516 0.127494
0.321659 0.376188 0.128165
0.347844 0.376858 0.128835
0.373993 0.377528 0.129505
0.401225 0.378225 0.130202
0.429759 0.378955 0.130933
0.458249 0.379685 0.131662
0.486697 0.380413 0.132391
0.515101 0.381141 0.133118
0.543462 0.381867 0.133844
0.571781 0.382592 0.134569
0.597532 0.383251 0.135228
0.622633 0.383894 0.135871
0.647700 0.384536 0.136513
0.672733 0.385176 0.137154
0.697732 0.385817 0.137794
0.722697 0.386456 0.138433
0.746888 0.387075 0.139052
0.766952 0.387589 0.139566
0.786994 0.388102 0.140079
0.807014 0.388615 0.140592
0.827012 0.389127 0.141104
0.845876 0.389610 0.141587
0.863652 0.390065 0.142042
0.881410 0.390519 0.142497
0.110445 0.398837 0.124982
0.131357 0.399372 0.125518
0.152247 0.399907 0.126052
0.173115 0.400442 0.126587
0.193960 0.400975 0.127120
0.218845 0.401612 0.127758
0.245174 0.402286 0.128432
0.271466 0.402960 0.129105
0.297722 0.403632 0.129777
0.323943 0.404303 0.130448
0.350127 0.404974 0.131119
0.376276 0.405643 0.131788
0.403509 0.406340 0.132486
0.432042 0.407071 0.133216
0.460533 0.407800 0.133946
0.488980 0.408529 0.134674
0.517384 0.409256 0.135401
0.545746 0.409982 0.136127
0.574064 0.410707 0.136852
0.599816 0.411367 0.137512
0.624916 0.412009 0.138154
0.649983 0.412651 0.138796
0.675016 0.413292 0.139437
0.700015 0.413932 0.140077
0.724981 0.414571 0.140716
0.749171 0.415191 0.141336
0.769235 0.415704 0.141850
0.789278 0.416218 0.142363
0.809297 0.416730 0.142875
0.829295 0.417242 0.143387
0.848159 0.417725 0.143870
0.865935 0.418180 0.144325
0.883693 0.418635 0.144780
0.112841 0.428339 0.127378
0.133753 0.428874 0.127914
0.154643 0.429409 0.128448
0.175511 0.429943 0.128983
0.196356 0.430477 0.129516
0.221241 0.431114 0.130154
0.247570 0.431788 0.130828
0.273862 0.432462 0.131501
0.300118 0.433134 0.132173
0.326339 0.433805 0.132844
0.352524 0.434476 0.133515
0.378672 0.435145 0.134184
0.405905 0.435842 0.134882
0.434438 0.436573 0.135612
0.462929 0.437302 0.136342
0.491376 0.438031 0.137070
0.519780 0.438758 0.137797
0.548142 0.439484 0.138523
0.576460 0.440209 0.139248
0.602212 0.440868 0.139908
0.627313 0.441511 0.140550
0.652380 0.442153 0.141192
0.677413 0.442794 0.141833
0.702412 0.443434 0.142473
0.727377 0.444073 0.143112
0.751567 0.444693 0.143732
0.771631 0.445206 0.144246
0.791674 0.445719 0.144759
0.811694 0.446232 0.145271
0.831691 0.446744 0.145783
0.850555 0.447227 0.146266
0.868331 0.447682 0.146721
0.886089 0.448137 0.147176
0.115237 0.457841 0.129774
0.136149 0.458376 0.130310
0.157039 0.458911 0.130844
0.177907 0.459445 0.131379
0.198752 0.459979 0.131912
0.223637 0.460616 0.132550
0.249966 0.461290 0.133224
0.276258 0.461963 0.133897
0.302514 0.462636 0.134569
0.328735 0.463307 0.135241
0.354920 0.463977 0.135911
0.381068 0.464647 0.136580
0.408301 0.465344 0.137278
0.436834 0.466075 0.138008
0.465325 0.466804 0.138738
0.493772 0.467533 0.139466
0.522176 0.468260 0.140193
0.550538 0.468986 0.140919
0.578856 0.469711 0.141645
0.604608 0.470370 0.142304
0.629709 0.471013 0.142947
0.654776 0.471655 0.143588
0.679809 0.472296 0.144229
0.704808 0.472936 0.144869
0.729773 0.473575 0.145509
0.753963 0.474194 0.146128
0.774028 0.474708 0.146642
0.794070 0.475221 0.147155
0.814090 0.475734 0.147667
0.834087 0.476246 0.148179
0.852951 0.476729 0.148662
0.870727 0.477184 0.149117
0.888485 0.477639 0.149572
0.117633 0.487343 0.132170
0.138545 0.487878 0.132706
0.159435 0.488413 0.133241
0.180303 0.488947 0.133775
0.201148 0.489481 0.134309
0.226033 0.490118 0.134946
0.252362 0.490792 0.135620
0.278654 0.491465 0.136293
0.304910 0.492138 0.136965
0.331131 0.492809 0.137637
0.357316 0.493479 0.138307
0.383464 0.494149 0.138976
0.410697 0.494846 0.139674
0.439230 0.495577 0.140404
0.467721 0.496306 0.141134
0.496168 0.497034 0.141862
0.524572 0.497762 0.142589
0.552934 0.498488 0.143315
0.581252 0.499213 0.144041
0.607004 0.499872 0.144700
0.632105 0.500515 0.145343
0.657172 0.501157 0.145984
0.682205 0.501798 0.146625
0.707204 0.502438 0.147265
0.732169 0.503077 0.147905
0.756359 0.503696 0.148524
0.776424 0.504210 0.149038
0.796466 0.504723 0.149551
0.816486 0.505236 0.150063
0.836484 0.505748 0.150575
0.855347 0.506231 0.151058
0.873123 0.506686 0.151514
0.890881 0.507141 0.151968
0.120029 0.516844 0.134566
0.140942 0.517380 0.135102
0.161832 0.517915 0.135637
0.182699 0.518449 0.136171
0.203544 0.518983 0.136705
0.228429 0.519620 0.137342
0.254758 0.520294 0.138016
0.281050 0.520967 0.138689
0.307306 0.521639 0.139361
0.333527 0.522311 0.140033
0.359712 0.522981 0.140703
0.385860 0.523651 0.141372
0.413093 0.524348 0.142070
0.441626 0.525078 0.142800
0.470117 0.525808 0.143530
0.498564 0.526536 0.144258
0.526969 0.527264 0.144985
0.555330 0.527990 0.145712
0.583648 0.528715 0.146437
0.609400 0.529374 0.147096
0.634501 0.530017 0.147739
0.659568 0.530659 0.148380
0.684601 0.531300 0.149021
0.709600 0.531940 0.149661
0.734565 0.532579 0.150301
0.758755 0.533198 0.150920
0.778820 0.533712 0.151434
0.798862 0.534225 0.151947
0.818882 0.534738 0.152459
0.838880 0.535250 0.152971
0.857743 0.535733 0.153454
0.875519 0.536188 0.153910
0.893277 0.536642 0.154364
0.122425 0.546346 0.136962
0.143338 0.546882 0.137498
0.164228 0.547417 0.138033
0.185095 0.547951 0.138567
0.205940 0.548485 0.139101
0.230825 0.549122 0.139738
0.257154 0.549796 0.140412
0.283446 0.550469 0.141085
0.309703 0.551141 0.141757
0.335923 0.551813 0.142429
0.362108 0.552483 0.143099
0.388256 0.553153 0.143769
0.415489 0.553850 0.144466
0.444022 0.554580 0.145196
0.472513 0.555310 0.145926
0.500960 0.556038 0.146654
0.529365 0.556765 0.147381
0.557726 0.557492 0.148108
0.586044 0.558217 0.148833
0.611796 0.558876 0.149492
0.636897 0.559519 0.150135
0.661964 0.560160 0.150776
0.686997 0.560801 0.151417
0.711996 0.561441 0.152057
0.736961 0.562081 0.152697
0.761152 0.562700 0.153316
0.781216 0.563214 0.153830
0.801258 0.563727 0.154343
0.821278 0.564239 0.154855
0.841276 0.564751 0.155367
0.860139 0.565234 0.155850
0.877915 0.565690 0.156306
0.895674 0.566144 0.156760
0.124821 0.575848 0.139358
0.145734 0.576384 0.139894
0.166624 0.576918 0.140429
0.187491 0.577453 0.140963
0.208336 0.577986 0.141497
0.233221 0.578624 0.142134
0.259550 0.579298 0.142808
0.285842 0.579971 0.143481
0.312099 0.580643 0.144153
0.338319 0.581315 0.144825
0.364504 0.581985 0.145495
0.390652 0.582654 0.146165
0.417885 0.583352 0.146862
0.446418 0.584082 0.147592
0.474909 0.584812 0.148322
0.503356 0.585540 0.149050
0.531761 0.586267 0.149777
0.560122 0.586993 0.150504
0.588440 0.587719 0.151229
0.614192 0.588378 0.151888
0.639293 0.589021 0.152531
0.664360 0.589662 0.153172
0.689393 0.590303 0.153813
0.714392 0.590943 0.154453
0.739357 0.591583 0.155093
0.763548 0.592202 0.155712
0.783612 0.592716 0.156226
0.803654 0.593229 0.156739
0.823674 0.593741 0.157251
0.843672 0.594253 0.157764
0.862535 0.594736 0.158246
0.880311 0.595191 0.158702
0.898070 0.595646 0.159156
0.127003 0.602715 0.141540
0.147916 0.603250 0.142076
0.168806 0.603785 0.142611
0.189673 0.604319 0.143145
0.210518 0.604853 0.143679
0.235403 0.605490 0.144316
0.261732 0.606164 0.144990
0.288024 0.606838 0.145663
0.314281 0.607510 0.146335
0.340501 0.608181 0.147007
0.366686 0.608852 0.147677
0.392834 0.609521 0.148347
0.420067 0.610218 0.149044
0.448600 0.610949 0.149774
0.477091 0.611678 0.150504
0.505538 0.612407 0.151232
0.533943 0.613134 0.151959
0.562304 0.613860 0.152686
0.590622 0.614585 0.153411
0.616374 0.615244 0.154070
0.641475 0.615887 0.154713
0.666542 0.616529 0.155354
0.691575 0.617170 0.155995
0.716574 0.617810 0.156635
0.741539 0.618449 0.157275
0.765730 0.619069 0.157894
0.785794 0.619582 0.158408
0.805836 0.620095 0.158921
0.825856 0.620608 0.159433
0.845854 0.621120 0.159946
0.864717 0.621603 0.160428
0.882493 0.622058 0.160884
0.900252 0.622513 0.161338
0.129133 0.628939 0.143670
0.150045 0.629474 0.144206
0.170935 0.630009 0.144740
0.191803 0.630543 0.145275
0.212648 0.631077 0.145808
0.237533 0.631714 0.146446
0.263862 0.632388 0.147120
0.290154 0.633061 0.147793
0.316410 0.633734 0.148465
0.342631 0.634405 0.149136
0.368815 0.635075 0.149807
0.394964 0.635745 0.150476
0.422197 0.636442 0.151174
0.450730 0.637173 0.151904
0.479221 0.637902 0.152634
0.507668 0.638631 0.153362
0.536072 0.639358 0.154089
0.564434 0.640084 0.154815
0.592752 0.640809 0.155540
0.618504 0.641468 0.156200
0.643605 0.642111 0.156842
0.668671 0.642753 0.157484
0.693704 0.643394 0.158125
0.718704 0.644034 0.158765
0.743669 0.644673 0.159404
0.767859 0.645292 0.160024
0.787923 0.645806 0.160538
0.807966 0.646319 0.161051
0.827986 0.646832 0.161563
0.847983 0.647344 0.162075
0.866847 0.647827 0.162558
0.884623 0.648282 0.163013
0.902381 0.648737 0.163468
0.131263 0.655163 0.145800
0.152175 0.655698 0.146335
0.173065 0.656233 0.146870
0.193933 0.656767 0.147405
0.214778 0.657301 0.147938
0.239663 0.657938 0.148575
0.265991 0.658612 0.149249
0.292284 0.659285 0.149923
0.318540 0.659958 0.150595
0.344761 0.660629 0.151266
0.370945 0.661299 0.151937
0.397094 0.661969 0.152606
0.424327 0.662666 0.153303
0.452860 0.663397 0.154034
0.481350 0.664126 0.154763
0.509798 0.664854 0.155492
0.538202 0.665582 0.156219
0.566564 0.666308 0.156945
0.594882 0.667033 0.157670
0.620633 0.667692 0.158330
0.645734 0.668335 0.158972
0.670801 0.668977 0.159614
0.695834 0.669618 0.160255
0.720833 0.670258 0.160895
0.745798 0.670897 0.161534
0.769989 0.671516 0.162154
0.790053 0.672030 0.162667
0.810095 0.672543 0.163181
0.830115 0.673056 0.163693
0.850113 0.673568 0.164205
0.868977 0.674051 0.164688
0.886753 0.674506 0.165143
0.904511 0.674961 0.165598
0.133393 0.681386 0.147930
0.154305 0.681922 0.148465
0.175195 0.682457 0.149000
0.196063 0.682991 0.149534
0.216908 0.683525 0.150068
0.241793 0.684162 0.150705
0.268121 0.684836 0.151379
0.294414 0.685509 0.152052
0.320670 0.686181 0.152725
0.346890 0.686853 0.153396
0.373075 0.687523 0.154066
0.399224 0.688193 0.154736
0.426456 0.688890 0.155433
0.454990 0.689621 0.156164
0.483480 0.690350 0.156893
0.511928 0.691078 0.157622
0.540332 0.691806 0.158349
0.568693 0.692532 0.159075
0.597012 0.693257 0.159800
0.622763 0.693916 0.160459
0.647864 0.694559 0.161102
0.672931 0.695201 0.161744
0.697964 0.695842 0.162385
0.722963 0.696482 0.163025
0.747928 0.697121 0.163664
0.772119 0.697740 0.164283
0.792183 0.698254 0.164797
0.812225 0.698767 0.165310
0.832245 0.699280 0.165823
0.852243 0.699792 0.166335
0.871107 0.700275 0.166818
0.888883 0.700730 0.167273
0.906641 0.701184 0.167728
0.135522 0.707610 0.150060
0.156435 0.708146 0.150595
0.177325 0.708681 0.151130
0.198192 0.709215 0.151664
0.219038 0.709749 0.152198
0.243923 0.710386 0.152835
0.270251 0.711060 0.153509
0.296543 0.711733 0.154182
0.322800 0.712405 0.154855
0.349020 0.713077 0.155526
0.375205 0.713747 0.156196
0.401354 0.714417 0.156866
0.428586 0.715114 0.157563
0.457120 0.715844 0.158294
0.485610 0.716574 0.159023
0.514057 0.717302 0.159751
0.542462 0.718030 0.160479
0.570823 0.718756 0.161205
0.599142 0.719481 0.161930
0.624893 0.720140 0.162589
0.649994 0.720783 0.163232
0.675061 0.721425 0.163874
0.700094 0.722065 0.164515
0.725093 0.722706 0.165155
0.750058 0.723345 0.165794
0.774249 0.723964 0.166413
0.794313 0.724478 0.166927
0.814355 0.724991 0.167440
0.834375 0.725504 0.167953
0.854373 0.726016 0.168465
0.873237 0.726499 0.168948
0.891012 0.726954 0.169403
0.908771 0.727408 0.169858
0.137652 0.733834 0.152189
0.158565 0.734370 0.152725
0.179455 0.734905 0.153260
0.200322 0.735439 0.153794
0.221167 0.735973 0.154328
0.246053 0.736610 0.154965
0.272381 0.737284 0.155639
0.298673 0.737957 0.156312
0.324930 0.738629 0.156984
0.351150 0.739301 0.157656
0.377335 0.739971 0.158326
0.403483 0.740641 0.158996
0.430716 0.741338 0.159693
0.459249 0.742068 0.160423
0.487740 0.742798 0.161153
0.516187 0.743526 0.161881
0.544592 0.744253 0.162608
0.572953 0.744980 0.163335
0.601271 0.745705 0.164060
0.627023 0.746364 0.164719
0.652124 0.747007 0.165362
0.677191 0.747648 0.166004
0.702224 0.748289 0.166644
0.727223 0.748929 0.167285
0.752188 0.749569 0.167924
0.776379 0.750188 0.168543
0.796443 0.750702 0.169057
0.816485 0.751215 0.169570
0.836505 0.751727 0.170083
0.856503 0.752239 0.170595
0.875366 0.752722 0.171078
0.893142 0.753178 0.171533
0.910901 0.753632 0.171987
0.139719 0.759279 0.154256
0.160631 0.759814 0.154791
0.181521 0.760349 0.155326
0.202389 0.760884 0.155860
0.223234 0.761417 0.156394
0.248119 0.762054 0.157031
0.274447 0.762729 0.157705
0.300740 0.763402 0.158379
0.326996 0.764074 0.159051
0.353217 0.764745 0.159722
0.379401 0.765416 0.160393
0.405550 0.766085 0.161062
0.432783 0.766783 0.161759
0.461316 0.767513 0.162490
0.489806 0.768243 0.163219
0.518254 0.768971 0.163948
0.546658 0.769698 0.164675
0.575020 0.770424 0.165401
0.603338 0.771149 0.166126
0.629089 0.771809 0.166786
0.654190 0.772451 0.167428
0.679257 0.773093 0.168070
0.704290 0.773734 0.168711
0.729289 0.774374 0.169351
0.754254 0.775013 0.169990
0.778445 0.775633 0.170610
0.798509 0.776146 0.171123
0.818551 0.776660 0.171636
0.838571 0.777172 0.172149
0.858569 0.777684 0.172661
0.877433 0.778167 0.173144
0.895209 0.778622 0.173599
0.912967 0.779077 0.174054
0.141435 0.780409 0.155972
0.162347 0.780944 0.156507
0.183237 0.781479 0.157042
0.204105 0.782013 0.157577
0.224950 0.782547 0.158110
0.249835 0.783184 0.158747
0.276163 0.783858 0.159422
0.302456 0.784531 0.160095
0.328712 0.785204 0.160767
0.354933 0.785875 0.161438
0.381117 0.786546 0.162109
0.407266 0.787215 0.162778
0.434499 0.787912 0.163475
0.463032 0.788643 0.164206
0.491522 0.789372 0.164935
0.519970 0.790101 0.165664
0.548374 0.790828 0.166391
0.576736 0.791554 0.167117
0.605054 0.792279 0.167842
0.630805 0.792938 0.168502
0.655906 0.793581 0.169144
0.680973 0.794223 0.169786
0.706006 0.794864 0.170427
0.731005 0.795504 0.171067
0.755970 0.796143 0.171706
0.780161 0.796762 0.172326
