assets/ricoh/Ricoh_GR2_PS_Filter/LUT/GR2_Positive_Film.cube
TITLE "Ricoh GR2 Positive Film"
LUT_3D_SIZE 9
DOMAIN_MIN 0.000000 0.000000 0.000000
DOMAIN_MAX 1.000000 1.000000 1.000000
0.000000 0.000000 0.000000
0.045190 0.000000 0.000000
0.175698 0.000000 0.000000
0.322947 0.000000 0.000000
0.481697 0.000000 0.000000
0.630347 0.000000 0.000000
0.766971 0.000000 0.000000
0.864162 0.000000 0.000000
0.963362 0.000000 0.000000
0.000000 0.055106 0.000000
0.049474 0.056416 0.000000
0.179982 0.058163 0.000000
0.327230 0.060134 0.000000
0.485980 0.062260 0.000000
0.634630 0.064250 0.000000
0.771255 0.066079 0.000000
0.868446 0.067380 0.000000
0.967645 0.068709 0.000000
0.000000 0.186249 0.000000
0.055199 0.187559 0.000000
0.185707 0.189306 0.000000
0.332956 0.191278 0.000000
0.491706 0.193403 0.000000
0.640356 0.195394 0.000000
0.776980 0.197223 0.000000
0.874171 0.198524 0.000000
0.973371 0.199852 0.000000
0.000000 0.334588 0.000000
0.061676 0.335898 0.000000
0.192184 0.337646 0.000000
0.339432 0.339617 0.000000
0.498182 0.341743 0.000000
0.646832 0.343733 0.000000
0.783457 0.345562 0.000000
0.880648 0.346863 0.000000
0.979847 0.348191 0.000000
0.000000 0.494961 0.000000
0.068677 0.496271 0.000000
0.199185 0.498019 0.000000
0.346434 0.499990 0.000000
0.505184 0.502115 0.000000
0.653834 0.504106 0.000000
0.790458 0.505935 0.000000
0.887649 0.507236 0.000251
0.986849 0.508564 0.001579
0.000000 0.645554 0.000000
0.075252 0.646864 0.000000
0.205760 0.648611 0.000000
0.353008 0.650583 0.000000
0.511758 0.652708 0.001705
0.660408 0.654699 0.003695
0.797033 0.656528 0.005524
0.894224 0.657829 0.006825
0.993423 0.659157 0.008153
0.000000 0.784327 0.000609
0.081310 0.785637 0.001919
0.211818 0.787384 0.003666
0.359067 0.789356 0.005638
0.517817 0.791481 0.007763
0.666467 0.793472 0.009753
0.803091 0.795301 0.011583
0.900282 0.796602 0.012884
0.999482 0.797930 0.014212
0.000000 0.883260 0.004928
0.085630 0.884570 0.006238
0.216138 0.886317 0.007985
0.363386 0.888288 0.009957
0.522136 0.890414 0.012082
0.670786 0.892404 0.014073
0.807410 0.894233 0.015902
0.904601 0.895535 0.017203
1.000000 0.896863 0.018531
0.000000 0.984420 0.009345
0.090046 0.985730 0.010655
0.220554 0.987478 0.012402
0.367802 0.989449 0.014373
0.526552 0.991574 0.016499
0.675203 0.993565 0.018489
0.811827 0.995394 0.020318
0.909018 0.996695 0.021619
1.000000 0.998023 0.022948
0.000000 0.000000 0.057059
0.045615 0.000000 0.058369
0.176123 0.000000 0.060117
0.323371 0.000000 0.062088
0.482121 0.000000 0.064213
0.630771 0.000000 0.066204
0.767396 0.000000 0.068033
0.864587 0.000000 0.069334
0.963786 0.000000 0.070662
0.000000 0.055530 0.061343
0.049899 0.056840 0.062653
0.180407 0.058588 0.064400
0.327655 0.060559 0.066372
0.486405 0.062684 0.068497
0.635055 0.064675 0.070487
0.771679 0.066504 0.072317
0.868870 0.067805 0.073618
0.968070 0.069133 0.074946
0.000000 0.186674 0.067068
0.055624 0.187984 0.068378
0.186132 0.189731 0.070126
0.333380 0.191703 0.072097
0.492130 0.193828 0.074223
0.640781 0.195818 0.076213
0.777405 0.197647 0.078042
0.874596 0.198949 0.079343
0.973796 0.200277 0.080671
0.000000 0.335013 0.073545
0.062100 0.336323 0.074855
0.192608 0.338070 0.076602
0.339857 0.340042 0.078573
0.498607 0.342167 0.080699
0.647257 0.344157 0.082689
0.783881 0.345987 0.084518
0.881072 0.347288 0.085820
0.980272 0.348616 0.087148
0.000000 0.495386 0.080546
0.069102 0.496696 0.081856
0.199610 0.498443 0.083604
0.346858 0.500415 0.085575
0.505608 0.502540 0.087700
0.654258 0.504530 0.089691
0.790883 0.506360 0.091520
0.888074 0.507661 0.092821
0.987273 0.508989 0.094149
0.000000 0.645979 0.087121
0.075676 0.647289 0.088431
0.206184 0.649036 0.090178
0.353433 0.651008 0.092150
0.512183 0.653133 0.094275
0.660833 0.655123 0.096265
0.797457 0.656952 0.098094
0.894648 0.658254 0.099396
0.993848 0.659582 0.100724
0.000000 0.784752 0.093179
0.081735 0.786062 0.094489
0.212243 0.787809 0.096237
0.359491 0.789781 0.098208
0.518241 0.791906 0.100334
0.666892 0.793896 0.102324
0.803516 0.795725 0.104153
0.900707 0.797027 0.105454
0.999906 0.798355 0.106782
0.000000 0.883684 0.097499
0.086054 0.884994 0.098809
0.216562 0.886742 0.100556
0.363811 0.888713 0.102527
0.522561 0.890839 0.104653
0.671211 0.892829 0.106643
0.807835 0.894658 0.108472
0.905026 0.895959 0.109773
1.000000 0.897287 0.111102
0.000000 0.984845 0.101915
0.090471 0.986155 0.103225
0.220979 0.987902 0.104972
0.368227 0.989874 0.106944
0.526977 0.991999 0.109069
0.675627 0.993989 0.111059
0.812252 0.995818 0.112889
0.909443 0.997120 0.114190
1.000000 0.998448 0.115518
0.000000 0.000000 0.180893
0.046183 0.000000 0.182203
0.176691 0.000000 0.183950
0.323939 0.000000 0.185922
0.482689 0.000000 0.188047
0.631339 0.000000 0.190038
0.767964 0.000000 0.191867
0.865155 0.000000 0.193168
0.964354 0.000000 0.194496
0.000000 0.056098 0.185177
0.050467 0.057408 0.186487
0.180975 0.059156 0.188234
0.328223 0.061127 0.190206
0.486973 0.063252 0.192331
0.635623 0.065243 0.194321
0.772248 0.067072 0.196150
0.869439 0.068373 0.197452
0.968638 0.069701 0.198780
0.000000 0.187242 0.190902
0.056192 0.188552 0.192212
0.186700 0.190299 0.193960
0.333949 0.192271 0.195931
0.492699 0.194396 0.198057
0.641349 0.196386 0.200047
0.777973 0.198215 0.201876
0.875164 0.199517 0.203177
0.974364 0.200845 0.204505
0.000000 0.335581 0.197379
0.062668 0.336891 0.198689
0.193176 0.338638 0.200436
0.340425 0.340610 0.202407
0.499175 0.342735 0.204533
0.647825 0.344725 0.206523
0.784449 0.346555 0.208352
0.881640 0.347856 0.209653
0.980840 0.349184 0.210981
0.000000 0.495954 0.204380
0.069670 0.497264 0.205690
0.200178 0.499011 0.207437
0.347426 0.500983 0.209409
0.506176 0.503108 0.211534
0.654826 0.505098 0.213524
0.791451 0.506928 0.215354
0.888642 0.508229 0.216655
0.987841 0.509557 0.217983
0.000000 0.646547 0.210955
0.076245 0.647857 0.212265
0.206753 0.649604 0.214012
0.354001 0.651576 0.215983
0.512751 0.653701 0.218109
0.661401 0.655691 0.220099
0.798025 0.657520 0.221928
0.895216 0.658822 0.223230
0.994416 0.660150 0.224558
0.000000 0.785320 0.217013
0.082303 0.786630 0.218323
0.212811 0.788377 0.220071
0.360059 0.790349 0.222042
0.518809 0.792474 0.224167
0.667460 0.794464 0.226158
0.804084 0.796293 0.227987
0.901275 0.797595 0.229288
1.000000 0.798923 0.230616
0.000000 0.884252 0.221332
0.086622 0.885562 0.222642
0.217130 0.887310 0.224390
0.364379 0.889281 0.226361
0.523129 0.891407 0.228487
0.671779 0.893397 0.230477
0.808403 0.895226 0.232306
0.905594 0.896527 0.233607
1.000000 0.897855 0.234935
0.000000 0.985413 0.225749
0.091039 0.986723 0.227059
0.221547 0.988470 0.228806
0.368795 0.990442 0.230778
0.527545 0.992567 0.232903
0.676195 0.994557 0.234893
0.812820 0.996387 0.236722
0.910011 0.997688 0.238024
1.000000 0.999016 0.239352
0.000000 0.000000 0.321112
0.046826 0.000000 0.322422
0.177334 0.000000 0.324169
0.324583 0.000000 0.326141
0.483333 0.000000 0.328266
0.631983 0.000000 0.330257
0.768607 0.000000 0.332086
0.865798 0.000000 0.333387
0.964998 0.000000 0.334715
0.000000 0.056742 0.325396
0.051110 0.058052 0.326706
0.181618 0.059799 0.328453
0.328866 0.061770 0.330425
0.487616 0.063896 0.332550
0.636266 0.065886 0.334540
0.772891 0.067715 0.336369
0.870082 0.069016 0.337671
0.969281 0.070344 0.338999
0.000000 0.187885 0.331121
0.056835 0.189195 0.332431
0.187343 0.190942 0.334179
0.334592 0.192914 0.336150
0.493342 0.195039 0.338276
0.641992 0.197029 0.340266
0.778616 0.198859 0.342095
0.875807 0.200160 0.343396
0.975007 0.201488 0.344724
0.000000 0.336224 0.337598
0.063312 0.337534 0.338908
0.193820 0.339282 0.340655
0.341068 0.341253 0.342626
0.499818 0.343379 0.344752
0.648468 0.345369 0.346742
0.785092 0.347198 0.348571
0.882283 0.348499 0.349872
0.981483 0.349827 0.351201
0.000000 0.496597 0.344599
0.070313 0.497907 0.345909
0.200821 0.499655 0.347656
0.348070 0.501626 0.349628
0.506820 0.503751 0.351753
0.655470 0.505742 0.353744
0.792094 0.507571 0.355573
0.889285 0.508872 0.356874
0.988485 0.510200 0.358202
0.000000 0.647190 0.351174
0.076888 0.648500 0.352484
0.207396 0.650247 0.354231
0.354644 0.652219 0.356202
0.513394 0.654344 0.358328
0.662044 0.656334 0.360318
0.798669 0.658164 0.362147
0.895860 0.659465 0.363449
0.995059 0.660793 0.364777
0.000000 0.785963 0.357232
0.082946 0.787273 0.358542
0.213454 0.789020 0.360290
0.360703 0.790992 0.362261
0.519453 0.793117 0.364386
0.668103 0.795108 0.366377
0.804727 0.796937 0.368206
0.901918 0.798238 0.369507
1.000000 0.799566 0.370835
0.000000 0.884896 0.361551
0.087266 0.886206 0.362861
0.217774 0.887953 0.364609
0.365022 0.889924 0.366580
0.523772 0.892050 0.368706
0.672422 0.894040 0.370696
0.809046 0.895869 0.372525
0.906237 0.897170 0.373826
1.000000 0.898499 0.375154
0.000000 0.986056 0.365968
0.091682 0.987366 0.367278
0.222190 0.989113 0.369025
0.369438 0.991085 0.370997
0.528188 0.993210 0.373122
0.676838 0.995201 0.375112
0.813463 0.997030 0.376942
0.910654 0.998331 0.378243
1.000000 0.999659 0.379571
0.000000 0.000000 0.472882
0.047522 0.000000 0.474193
0.178030 0.000000 0.475940
0.325279 0.000000 0.477911
0.484029 0.000000 0.480037
0.632679 0.000000 0.482027
0.769303 0.000000 0.483856
0.866494 0.000000 0.485157
0.965694 0.000000 0.486485
0.000000 0.057438 0.477166
0.051806 0.058748 0.478476
0.182314 0.060495 0.480224
0.329563 0.062467 0.482195
0.488313 0.064592 0.484320
0.636963 0.066582 0.486311
0.773587 0.068411 0.488140
0.870778 0.069713 0.489441
0.969978 0.071041 0.490769
0.000000 0.188581 0.482892
0.057532 0.189891 0.484202
0.188040 0.191639 0.485949
0.335288 0.193610 0.487920
0.494038 0.195736 0.490046
0.642688 0.197726 0.492036
0.779312 0.199555 0.493865
0.876504 0.200856 0.495167
0.975703 0.202184 0.496495
0.000000 0.336921 0.489368
0.064008 0.338231 0.490678
0.194516 0.339978 0.492425
0.341764 0.341949 0.494397
0.500514 0.344075 0.496522
0.649164 0.346065 0.498512
0.785789 0.347894 0.500341
0.882980 0.349195 0.501643
0.982179 0.350524 0.502971
0.000000 0.497293 0.496369
0.071009 0.498603 0.497679
0.201517 0.500351 0.499427
0.348766 0.502322 0.501398
0.507516 0.504448 0.503524
0.656166 0.506438 0.505514
0.792790 0.508267 0.507343
0.889981 0.509568 0.508644
0.989181 0.510896 0.509972
0.000000 0.647886 0.502944
0.077584 0.649196 0.504254
0.208092 0.650944 0.506001
0.355340 0.652915 0.507973
0.514090 0.655040 0.510098
0.662741 0.657031 0.512088
0.799365 0.658860 0.513918
0.896556 0.660161 0.515219
0.995755 0.661489 0.516547
0.000000 0.786659 0.509003
0.083643 0.787969 0.510313
0.214151 0.789717 0.512060
0.361399 0.791688 0.514031
0.520149 0.793814 0.516157
0.668799 0.795804 0.518147
0.805423 0.797633 0.519976
0.902614 0.798934 0.521277
1.000000 0.800262 0.522606
0.000000 0.885592 0.513322
0.087962 0.886902 0.514632
0.218470 0.888649 0.516379
0.365718 0.890621 0.518351
0.524468 0.892746 0.520476
0.673118 0.894736 0.522466
0.809743 0.896565 0.524295
0.906934 0.897867 0.525597
1.000000 0.899195 0.526925
0.000000 0.986752 0.517738
0.092378 0.988062 0.519048
0.222886 0.989810 0.520796
0.370135 0.991781 0.522767
0.528885 0.993907 0.524892
0.677535 0.995897 0.526883
0.814159 0.997726 0.528712
0.911350 0.999027 0.530013
1.000000 1.000000 0.531341
0.000000 0.000000 0.615564
0.048177 0.000000 0.616874
0.178685 0.000000 0.618621
0.325933 0.000000 0.620593
0.484683 0.000000 0.622718
0.633333 0.000000 0.624708
0.769958 0.000000 0.626538
0.867149 0.000000 0.627839
0.966348 0.000000 0.629167
0.000000 0.058092 0.619848
0.052461 0.059402 0.621158
0.182969 0.061150 0.622905
0.330217 0.063121 0.624876
0.488967 0.065246 0.627002
0.637617 0.067237 0.628992
0.774242 0.069066 0.630821
0.871433 0.070367 0.632123
0.970632 0.071695 0.633451
0.000000 0.189236 0.625573
0.058186 0.190546 0.626883
0.188694 0.192293 0.628630
0.335943 0.194265 0.630602
0.494693 0.196390 0.632727
0.643343 0.198380 0.634718
0.779967 0.200209 0.636547
0.877158 0.201511 0.637848
0.976358 0.202839 0.639176
0.000000 0.337575 0.632049
0.064662 0.338885 0.633359
0.195170 0.340632 0.635107
0.342419 0.342604 0.637078
0.501169 0.344729 0.639204
0.649819 0.346719 0.641194
0.786443 0.348549 0.643023
0.883634 0.349850 0.644324
0.982834 0.351178 0.645652
0.000000 0.497948 0.639051
0.071664 0.499258 0.640361
0.202172 0.501005 0.642108
0.349420 0.502977 0.644080
0.508170 0.505102 0.646205
0.656820 0.507092 0.648195
0.793445 0.508922 0.650025
0.890636 0.510223 0.651326
0.989835 0.511551 0.652654
0.000000 0.648541 0.645626
0.078239 0.649851 0.646936
0.208747 0.651598 0.648683
0.355995 0.653570 0.650654
0.514745 0.655695 0.652780
0.663395 0.657685 0.654770
0.800019 0.659514 0.656599
0.897210 0.660816 0.657900
0.996410 0.662144 0.659228
0.000000 0.787314 0.651684
0.084297 0.788624 0.652994
0.214805 0.790371 0.654741
0.362053 0.792343 0.656713
0.520803 0.794468 0.658838
0.669454 0.796458 0.660828
0.806078 0.798287 0.662658
0.903269 0.799589 0.663959
1.000000 0.800917 0.665287
0.000000 0.886246 0.656003
0.088616 0.887556 0.657313
0.219124 0.889304 0.659061
0.366373 0.891275 0.661032
0.525123 0.893401 0.663157
0.673773 0.895391 0.665148
0.810397 0.897220 0.666977
0.907588 0.898521 0.668278
1.000000 0.899849 0.669606
0.000000 0.987407 0.660420
0.093033 0.988717 0.661730
0.223541 0.990464 0.663477
0.370789 0.992436 0.665448
0.529539 0.994561 0.667574
0.678189 0.996551 0.669564
0.814814 0.998380 0.671393
0.912005 0.999682 0.672695
1.000000 1.000000 0.674023
0.000000 0.000000 0.747189
0.048781 0.000000 0.748499
0.179289 0.000000 0.750247
0.326537 0.000000 0.752218
0.485287 0.000000 0.754343
0.633937 0.000000 0.756334
0.770562 0.000000 0.758163
0.867753 0.000000 0.759464
0.966952 0.000000 0.760792
0.000000 0.058696 0.751473
0.053065 0.060006 0.752783
0.183573 0.061753 0.754530
0.330821 0.063725 0.756502
0.489571 0.065850 0.758627
0.638221 0.067840 0.760617
0.774845 0.069670 0.762447
0.872036 0.070971 0.763748
0.971236 0.072299 0.765076
0.000000 0.189840 0.757198
0.058790 0.191150 0.758508
0.189298 0.192897 0.760256
0.336546 0.194868 0.762227
0.495296 0.196994 0.764353
0.643946 0.198984 0.766343
0.780571 0.200813 0.768172
0.877762 0.202115 0.769473
0.976961 0.203443 0.770801
0.000000 0.338179 0.763675
0.065266 0.339489 0.764985
0.195774 0.341236 0.766732
0.343023 0.343208 0.768703
0.501773 0.345333 0.770829
0.650423 0.347323 0.772819
0.787047 0.349153 0.774648
0.884238 0.350454 0.775949
0.983438 0.351782 0.777278
0.000000 0.498552 0.770676
0.072268 0.499862 0.771986
0.202776 0.501609 0.773733
0.350024 0.503581 0.775705
0.508774 0.505706 0.777830
0.657424 0.507696 0.779821
0.794049 0.509525 0.781650
0.891240 0.510827 0.782951
0.990439 0.512155 0.784279
0.000000 0.649145 0.777251
0.078842 0.650455 0.778561
0.209350 0.652202 0.780308
0.356599 0.654173 0.782280
0.515349 0.656299 0.784405
0.663999 0.658289 0.786395
0.800623 0.660118 0.788224
0.897814 0.661419 0.789526
0.997014 0.662748 0.790854
0.000000 0.787918 0.783309
0.084901 0.789228 0.784619
0.215409 0.790975 0.786367
0.362657 0.792946 0.788338
0.521407 0.795072 0.790464
0.670057 0.797062 0.792454
0.806682 0.798891 0.794283
0.903873 0.800193 0.795584
1.000000 0.801521 0.796912
0.000000 0.886850 0.787629
0.089220 0.888160 0.788939
0.219728 0.889908 0.790686
0.366976 0.891879 0.792657
0.525726 0.894004 0.794783
0.674377 0.895995 0.796773
0.811001 0.897824 0.798602
0.908192 0.899125 0.799903
1.000000 0.900453 0.801231
0.000000 0.988011 0.792045
0.093637 0.989321 0.793355
0.224145 0.991068 0.795102
0.371393 0.993039 0.797074
0.530143 0.995165 0.799199
0.678793 0.997155 0.801189
0.815417 0.998984 0.803019
0.912608 1.000000 0.804320
1.000000 1.000000 0.805648
0.000000 0.000000 0.841109
0.049212 0.000000 0.842419
0.179720 0.000000 0.844167
0.326968 0.000000 0.846138
0.485718 0.000000 0.848264
0.634368 0.000000 0.850254
0.770992 0.000000 0.852083
0.868184 0.000000 0.853384
0.967383 0.000000 0.854712
0.000000 0.059127 0.845393
0.053495 0.060437 0.846703
0.184003 0.062184 0.848450
0.331252 0.064156 0.850422
0.490002 0.066281 0.852547
0.638652 0.068271 0.854537
0.775276 0.070101 0.856367
0.872467 0.071402 0.857668
0.971667 0.072730 0.858996
0.000000 0.190271 0.851119
0.059221 0.191581 0.852429
0.189729 0.193328 0.854176
0.336977 0.195299 0.856147
0.495727 0.197425 0.858273
0.644377 0.199415 0.860263
0.781002 0.201244 0.862092
0.878193 0.202545 0.863393
0.977392 0.203873 0.864722
0.000000 0.338610 0.857595
0.065697 0.339920 0.858905
0.196205 0.341667 0.860652
0.343453 0.343639 0.862624
0.502203 0.345764 0.864749
0.650854 0.347754 0.866739
0.787478 0.349583 0.868568
0.884669 0.350885 0.869870
0.983868 0.352213 0.871198
0.000000 0.498983 0.864596
0.072699 0.500293 0.865906
0.203207 0.502040 0.867654
0.350455 0.504011 0.869625
0.509205 0.506137 0.871751
0.657855 0.508127 0.873741
0.794479 0.509956 0.875570
0.891670 0.511257 0.876871
0.990870 0.512586 0.878199
0.000000 0.649575 0.871171
0.079273 0.650886 0.872481
0.209781 0.652633 0.874228
0.357030 0.654604 0.876200
0.515780 0.656730 0.878325
0.664430 0.658720 0.880315
0.801054 0.660549 0.882145
0.898245 0.661850 0.883446
0.997445 0.663178 0.884774
0.000000 0.788349 0.877229
0.085332 0.789659 0.878539
0.215840 0.791406 0.880287
0.363088 0.793377 0.882258
0.521838 0.795503 0.884384
0.670488 0.797493 0.886374
0.807113 0.799322 0.888203
0.904304 0.800623 0.889504
1.000000 0.801952 0.890832
0.000000 0.887281 0.881549
0.089651 0.888591 0.882859
0.220159 0.890338 0.884606
0.367407 0.892310 0.886577
0.526157 0.894435 0.888703
0.674807 0.896425 0.890693
0.811432 0.898255 0.892522
0.908623 0.899556 0.893824
1.000000 0.900884 0.895152
0.000000 0.988442 0.885965
0.094067 0.989752 0.887275
0.224575 0.991499 0.889022
0.371824 0.993470 0.890994
0.530574 0.995596 0.893119
0.679224 0.997586 0.895110
0.815848 0.999415 0.896939
0.913039 1.000000 0.898240
1.000000 1.000000 0.899568
0.000000 0.000000 0.937216
0.049653 0.000000 0.938526
0.180161 0.000000 0.940274
0.327409 0.000000 0.942245
0.486159 0.000000 0.944371
0.634809 0.000000 0.946361
0.771433 0.000000 0.948190
0.868624 0.000000 0.949491
0.967824 0.000000 0.950819
0.000000 0.059568 0.941500
0.053936 0.060878 0.942810
0.184444 0.062625 0.944557
0.331693 0.064597 0.946529
0.490443 0.066722 0.948654
0.639093 0.068712 0.950644
0.775717 0.070541 0.952474
0.872908 0.071843 0.953775
0.972108 0.073171 0.955103
0.000000 0.190711 0.947225
0.059662 0.192021 0.948536
0.190170 0.193769 0.950283
0.337418 0.195740 0.952254
0.496168 0.197866 0.954380
0.644818 0.199856 0.956370
0.781443 0.201685 0.958199
0.878634 0.202986 0.959500
0.977833 0.204314 0.960828
0.000000 0.339051 0.953702
0.066138 0.340361 0.955012
0.196646 0.342108 0.956759
0.343894 0.344079 0.958730
0.502644 0.346205 0.960856
0.651294 0.348195 0.962846
0.787919 0.350024 0.964675
0.885110 0.351325 0.965977
0.984309 0.352654 0.967305
0.000000 0.499424 0.960703
0.073139 0.500734 0.962013
0.203647 0.502481 0.963761
0.350896 0.504452 0.965732
0.509646 0.506578 0.967857
0.658296 0.508568 0.969848
0.794920 0.510397 0.971677
0.892111 0.511698 0.972978
0.991311 0.513026 0.974306
0.000000 0.650016 0.967278
0.079714 0.651326 0.968588
0.210222 0.653074 0.970335
0.357470 0.655045 0.972307
0.516220 0.657171 0.974432
0.664871 0.659161 0.976422
0.801495 0.660990 0.978251
0.898686 0.662291 0.979553
0.997885 0.663619 0.980881
0.000000 0.788789 0.973336
0.085773 0.790099 0.974646
0.216281 0.791847 0.976394
0.363529 0.793818 0.978365
0.522279 0.795944 0.980491
0.670929 0.797934 0.982481
0.807553 0.799763 0.984310
0.904744 0.801064 0.985611
1.000000 0.802392 0.986939
0.000000 0.887722 0.977656
0.090092 0.889032 0.978966
0.220600 0.890779 0.980713
0.367848 0.892751 0.982684
0.526598 0.894876 0.984810
0.675248 0.896866 0.986800
0.811873 0.898696 0.988629
0.909064 0.899997 0.989930
1.000000 0.901325 0.991259
0.000000 0.988882 0.982072
0.094508 0.990192 0.983382
0.225016 0.991940 0.985129
0.372265 0.993911 0.987101
0.531015 0.996037 0.989226
0.679665 0.998027 0.991216
0.816289 0.999856 0.993046
0.913480 1.000000 0.994347
1.000000 1.000000 0.995675
