assets/ricoh/Ricoh_GR3_CameraRaw_Presets/Presets/GR3_Negative_Film.xmp
<?xpacket begin="﻿" id="W5M0MpCehiHzreSzNTczkc9d"?>
<x:xmpmeta xmlns:x="adobe:ns:meta/" x:xmptk="Adobe XMP Core 7.0-c000 1.000000, 0000/00/00-00:00:00        ">
 <rdf:RDF xmlns:rdf="http://www.w3.org/1999/02/22-rdf-syntax-ns#">
  <rdf:Description rdf:about=""
    xmlns:crs="http://ns.adobe.com/camera-raw-settings/1.0/"
   crs:PresetType="Normal"
   crs:Cluster=""
   crs:UUID="F5331704AAABAFEB5A4C82254D62AC6C"
   crs:SupportsAmount="False"
   crs:SupportsColor="True"
   crs:SupportsMonochrome="True"
   crs:SupportsHighDynamicRange="True"
   crs:SupportsNormalDynamicRange="True"
   crs:SupportsSceneReferred="True"
   crs:SupportsOutputReferred="True"
   crs:RequiresRGBTables="False"
   crs:Copyright=""
   crs:ContactInfo=""
   crs:Version="17.5"
   crs:ProcessVersion="15.4"
   crs:WhiteBalance="As Shot"
   crs:Temperature="0"
   crs:Tint="0"
   crs:Exposure2012="0"
   crs:Contrast2012="-7"
   crs:Highlights2012="-20"
   crs:Shadows2012="28"
   crs:Whites2012="-14"
   crs:Blacks2012="15"
   crs:Texture="-3"
   crs:Clarity2012="-8"
   crs:Dehaze="-3"
   crs:Vibrance="-7"
   crs:Saturation="-9"
   crs:ParametricShadows="0"
   crs:ParametricDarks="0"
   crs:ParametricLights="0"
   crs:ParametricHighlights="0"
   crs:ParametricShadowSplit="25"
   crs:ParametricMidtoneSplit="50"
   crs:ParametricHighlightSplit="75"
   crs:Sharpness="24"
   crs:SharpenRadius="+0.8"
   crs:SharpenDetail="20"
   crs:SharpenEdgeMasking="5"
   crs:LuminanceSmoothing="8"
   crs:ColorNoiseReduction="28"
   crs:ColorNoiseReductionDetail="50"
   crs:ColorNoiseReductionSmoothness="50"
   crs:HueAdjustmentRed="4"
   crs:HueAdjustmentOrange="-2"
   crs:HueAdjustmentYellow="-10"
   crs:HueAdjustmentGreen="-6"
   crs:HueAdjustmentAqua="2"
   crs:HueAdjustmentBlue="1"
   crs:HueAdjustmentPurple="-4"
   crs:HueAdjustmentMagenta="-6"
   crs:SaturationAdjustmentRed="-8"
   crs:SaturationAdjustmentOrange="-12"
   crs:SaturationAdjustmentYellow="-16"
   crs:SaturationAdjustmentGreen="-15"
   crs:SaturationAdjustmentAqua="-8"
   crs:SaturationAdjustmentBlue="-10"
   crs:SaturationAdjustmentPurple="-5"
   crs:SaturationAdjustmentMagenta="-10"
   crs:LuminanceAdjustmentRed="6"
   crs:LuminanceAdjustmentOrange="5"
   crs:LuminanceAdjustmentYellow="0"
   crs:LuminanceAdjustmentGreen="-10"
   crs:LuminanceAdjustmentAqua="-5"
   crs:LuminanceAdjustmentBlue="-3"
   crs:LuminanceAdjustmentPurple="0"
   crs:LuminanceAdjustmentMagenta="-3"
   crs:SplitToningShadowHue="205"
   crs:SplitToningShadowSaturation="12"
   crs:SplitToningHighlightHue="48"
   crs:SplitToningHighlightSaturation="6"
   crs:SplitToningBalance="-15"
   crs:ColorGradeMidtoneHue="55"
   crs:ColorGradeMidtoneSat="2"
   crs:ColorGradeShadowLum="0"
   crs:ColorGradeMidtoneLum="0"
   crs:ColorGradeHighlightLum="0"
   crs:ColorGradeBlending="50"
   crs:ColorGradeGlobalHue="0"
   crs:ColorGradeGlobalSat="0"
   crs:ColorGradeGlobalLum="0"
   crs:AutoLateralCA="1"
   crs:LensProfileEnable="0"
   crs:LensManualDistortionAmount="0"
   crs:VignetteAmount="0"
   crs:DefringePurpleAmount="0"
   crs:DefringePurpleHueLo="30"
   crs:DefringePurpleHueHi="70"
   crs:DefringeGreenAmount="0"
   crs:DefringeGreenHueLo="40"
   crs:DefringeGreenHueHi="60"
   crs:GrainAmount="16"
   crs:GrainSize="24"
   crs:GrainFrequency="32"
   crs:PostCropVignetteAmount="-6"
   crs:PostCropVignetteMidpoint="50"
   crs:PostCropVignetteFeather="80"
   crs:PostCropVignetteRoundness="0"
   crs:PostCropVignetteStyle="1"
   crs:ShadowTint="0"
   crs:RedHue="0"
   crs:RedSaturation="0"
   crs:GreenHue="0"
   crs:GreenSaturation="0"
   crs:BlueHue="0"
   crs:BlueSaturation="0"
   crs:ConvertToGrayscale="False"
   crs:HDREditMode="0"
   crs:OverrideLookVignette="False"
   crs:ToneCurveName2012="Custom"
   crs:HasSettings="True"
   crs:CameraProfile="Adobe Standard"
   >
   <crs:Name>
    <rdf:Alt>
     <rdf:li xml:lang="x-default">GR3 璐熺墖 Negative Film</rdf:li>
    </rdf:Alt>
   </crs:Name>
   <crs:ShortName>
    <rdf:Alt>
     <rdf:li xml:lang="x-default">GR3 璐熺墖 Negative Film</rdf:li>
    </rdf:Alt>
   </crs:ShortName>
   <crs:Group>
    <rdf:Alt>
     <rdf:li xml:lang="x-default">GR3 Camera Raw Looks</rdf:li>
    </rdf:Alt>
   </crs:Group>
   <crs:Description>
    <rdf:Alt>
     <rdf:li xml:lang="x-default">GR III-inspired negative film: lifted blacks, soft contrast, muted color and creamy highlights.</rdf:li>
    </rdf:Alt>
   </crs:Description>
   <crs:ToneCurvePV2012>
    <rdf:Seq>
     <rdf:li>0, 16</rdf:li>
     <rdf:li>32, 38</rdf:li>
     <rdf:li>84, 88</rdf:li>
     <rdf:li>132, 139</rdf:li>
     <rdf:li>186, 185</rdf:li>
     <rdf:li>230, 220</rdf:li>
     <rdf:li>255, 241</rdf:li>
    </rdf:Seq>
   </crs:ToneCurvePV2012>
  </rdf:Description>
 </rdf:RDF>
</x:xmpmeta>
<?xpacket end="w"?>