assets/ricoh/Ricoh_GR3_CameraRaw_Presets/Presets/GR3_Bleach_Bypass.xmp
<?xpacket begin="﻿" id="W5M0MpCehiHzreSzNTczkc9d"?>
<x:xmpmeta xmlns:x="adobe:ns:meta/" x:xmptk="Adobe XMP Core 7.0-c000 1.000000, 0000/00/00-00:00:00        ">
 <rdf:RDF xmlns:rdf="http://www.w3.org/1999/02/22-rdf-syntax-ns#">
  <rdf:Description rdf:about=""
    xmlns:crs="http://ns.adobe.com/camera-raw-settings/1.0/"
   crs:PresetType="Normal"
   crs:Cluster=""
   crs:UUID="C7EE0D70BA51CC7ECB4EB8078F3AE10E"
   crs:SupportsAmount="False"
   crs:SupportsColor="True"
   crs:SupportsMonochrome="True"
   crs:SupportsHighDynamicRange="True"
   crs:SupportsNormalDynamicRange="True"
   crs:SupportsSceneReferred="True"
   crs:SupportsOutputReferred="True"
   crs:RequiresRGBTables="False"
   crs:Copyright=""
   crs:ContactInfo=""
   crs:Version="17.5"
   crs:ProcessVersion="15.4"
   crs:WhiteBalance="As Shot"
   crs:Temperature="0"
   crs:Tint="0"
   crs:Exposure2012="0"
   crs:Contrast2012="25"
   crs:Highlights2012="-35"
   crs:Shadows2012="12"
   crs:Whites2012="12"
   crs:Blacks2012="-18"
   crs:Texture="8"
   crs:Clarity2012="18"
   crs:Dehaze="5"
   crs:Vibrance="-18"
   crs:Saturation="-28"
   crs:ParametricShadows="0"
   crs:ParametricDarks="0"
   crs:ParametricLights="0"
   crs:ParametricHighlights="0"
   crs:ParametricShadowSplit="25"
   crs:ParametricMidtoneSplit="50"
   crs:ParametricHighlightSplit="75"
   crs:Sharpness="44"
   crs:SharpenRadius="+0.8"
   crs:SharpenDetail="30"
   crs:SharpenEdgeMasking="15"
   crs:LuminanceSmoothing="2"
   crs:ColorNoiseReduction="22"
   crs:ColorNoiseReductionDetail="50"
   crs:ColorNoiseReductionSmoothness="50"
   crs:HueAdjustmentRed="-2"
   crs:HueAdjustmentOrange="0"
   crs:HueAdjustmentYellow="-3"
   crs:HueAdjustmentGreen="4"
   crs:HueAdjustmentAqua="1"
   crs:HueAdjustmentBlue="-2"
   crs:HueAdjustmentPurple="0"
   crs:HueAdjustmentMagenta="0"
   crs:SaturationAdjustmentRed="-14"
   crs:SaturationAdjustmentOrange="-18"
   crs:SaturationAdjustmentYellow="-24"
   crs:SaturationAdjustmentGreen="-28"
   crs:SaturationAdjustmentAqua="-22"
   crs:SaturationAdjustmentBlue="-24"
   crs:SaturationAdjustmentPurple="-20"
   crs:SaturationAdjustmentMagenta="-23"
   crs:LuminanceAdjustmentRed="3"
   crs:LuminanceAdjustmentOrange="2"
   crs:LuminanceAdjustmentYellow="-6"
   crs:LuminanceAdjustmentGreen="-8"
   crs:LuminanceAdjustmentAqua="-5"
   crs:LuminanceAdjustmentBlue="-7"
   crs:LuminanceAdjustmentPurple="0"
   crs:LuminanceAdjustmentMagenta="-4"
   crs:SplitToningShadowHue="205"
   crs:SplitToningShadowSaturation="6"
   crs:SplitToningHighlightHue="45"
   crs:SplitToningHighlightSaturation="4"
   crs:SplitToningBalance="0"
   crs:ColorGradeMidtoneHue="0"
   crs:ColorGradeMidtoneSat="0"
   crs:ColorGradeShadowLum="0"
   crs:ColorGradeMidtoneLum="0"
   crs:ColorGradeHighlightLum="0"
   crs:ColorGradeBlending="50"
   crs:ColorGradeGlobalHue="0"
   crs:ColorGradeGlobalSat="0"
   crs:ColorGradeGlobalLum="0"
   crs:AutoLateralCA="1"
   crs:LensProfileEnable="0"
   crs:LensManualDistortionAmount="0"
   crs:VignetteAmount="0"
   crs:DefringePurpleAmount="0"
   crs:DefringePurpleHueLo="30"
   crs:DefringePurpleHueHi="70"
   crs:DefringeGreenAmount="0"
   crs:DefringeGreenHueLo="40"
   crs:DefringeGreenHueHi="60"
   crs:GrainAmount="14"
   crs:GrainSize="20"
   crs:GrainFrequency="40"
   crs:PostCropVignetteAmount="-11"
   crs:PostCropVignetteMidpoint="50"
   crs:PostCropVignetteFeather="68"
   crs:PostCropVignetteRoundness="10"
   crs:PostCropVignetteStyle="1"
   crs:ShadowTint="0"
   crs:RedHue="0"
   crs:RedSaturation="0"
   crs:GreenHue="0"
   crs:GreenSaturation="0"
   crs:BlueHue="0"
   crs:BlueSaturation="0"
   crs:ConvertToGrayscale="False"
   crs:HDREditMode="0"
   crs:OverrideLookVignette="False"
   crs:ToneCurveName2012="Custom"
   crs:HasSettings="True"
   crs:CameraProfile="Adobe Standard"
   >
   <crs:Name>
    <rdf:Alt>
     <rdf:li xml:lang="x-default">GR3 婕傜櫧璐熷啿 Bleach Bypass</rdf:li>
    </rdf:Alt>
   </crs:Name>
   <crs:ShortName>
    <rdf:Alt>
     <rdf:li xml:lang="x-default">GR3 婕傜櫧璐熷啿 Bleach Bypass</rdf:li>
    </rdf:Alt>
   </crs:ShortName>
   <crs:Group>
    <rdf:Alt>
     <rdf:li xml:lang="x-default">GR3 Camera Raw Looks</rdf:li>
    </rdf:Alt>
   </crs:Group>
   <crs:Description>
    <rdf:Alt>
     <rdf:li xml:lang="x-default">GR III-inspired bleach bypass: high contrast, low saturation and metallic gray tonality.</rdf:li>
    </rdf:Alt>
   </crs:Description>
   <crs:ToneCurvePV2012>
    <rdf:Seq>
     <rdf:li>0, 0</rdf:li>
     <rdf:li>20, 8</rdf:li>
     <rdf:li>60, 48</rdf:li>
     <rdf:li>124, 131</rdf:li>
     <rdf:li>188, 204</rdf:li>
     <rdf:li>232, 238</rdf:li>
     <rdf:li>255, 255</rdf:li>
    </rdf:Seq>
   </crs:ToneCurvePV2012>
  </rdf:Description>
 </rdf:RDF>
</x:xmpmeta>
<?xpacket end="w"?>