assets/ricoh/Ricoh_GR3_CameraRaw_Presets/Presets/GR3_Positive_Film.xmp
<?xpacket begin="﻿" id="W5M0MpCehiHzreSzNTczkc9d"?>
<x:xmpmeta xmlns:x="adobe:ns:meta/" x:xmptk="Adobe XMP Core 7.0-c000 1.000000, 0000/00/00-00:00:00        ">
 <rdf:RDF xmlns:rdf="http://www.w3.org/1999/02/22-rdf-syntax-ns#">
  <rdf:Description rdf:about=""
    xmlns:crs="http://ns.adobe.com/camera-raw-settings/1.0/"
   crs:PresetType="Normal"
   crs:Cluster=""
   crs:UUID="A65B033C41C145792AA738A1C9E48A32"
   crs:SupportsAmount="False"
   crs:SupportsColor="True"
   crs:SupportsMonochrome="True"
   crs:SupportsHighDynamicRange="True"
   crs:SupportsNormalDynamicRange="True"
   crs:SupportsSceneReferred="True"
   crs:SupportsOutputReferred="True"
   crs:RequiresRGBTables="False"
   crs:Copyright=""
   crs:ContactInfo=""
   crs:Version="17.5"
   crs:ProcessVersion="15.4"
   crs:WhiteBalance="As Shot"
   crs:Temperature="0"
   crs:Tint="0"
   crs:Exposure2012="0"
   crs:Contrast2012="14"
   crs:Highlights2012="-28"
   crs:Shadows2012="16"
   crs:Whites2012="8"
   crs:Blacks2012="-12"
   crs:Texture="4"
   crs:Clarity2012="7"
   crs:Dehaze="0"
   crs:Vibrance="-5"
   crs:Saturation="-6"
   crs:ParametricShadows="0"
   crs:ParametricDarks="0"
   crs:ParametricLights="0"
   crs:ParametricHighlights="0"
   crs:ParametricShadowSplit="25"
   crs:ParametricMidtoneSplit="50"
   crs:ParametricHighlightSplit="75"
   crs:Sharpness="46"
   crs:SharpenRadius="+0.7"
   crs:SharpenDetail="30"
   crs:SharpenEdgeMasking="12"
   crs:LuminanceSmoothing="4"
   crs:ColorNoiseReduction="22"
   crs:ColorNoiseReductionDetail="50"
   crs:ColorNoiseReductionSmoothness="50"
   crs:HueAdjustmentRed="-4"
   crs:HueAdjustmentOrange="1"
   crs:HueAdjustmentYellow="-6"
   crs:HueAdjustmentGreen="7"
   crs:HueAdjustmentAqua="2"
   crs:HueAdjustmentBlue="-3"
   crs:HueAdjustmentPurple="0"
   crs:HueAdjustmentMagenta="2"
   crs:SaturationAdjustmentRed="6"
   crs:SaturationAdjustmentOrange="-2"
   crs:SaturationAdjustmentYellow="-14"
   crs:SaturationAdjustmentGreen="-20"
   crs:SaturationAdjustmentAqua="-5"
   crs:SaturationAdjustmentBlue="6"
   crs:SaturationAdjustmentPurple="-3"
   crs:SaturationAdjustmentMagenta="-9"
   crs:LuminanceAdjustmentRed="4"
   crs:LuminanceAdjustmentOrange="3"
   crs:LuminanceAdjustmentYellow="-9"
   crs:LuminanceAdjustmentGreen="-15"
   crs:LuminanceAdjustmentAqua="-7"
   crs:LuminanceAdjustmentBlue="-8"
   crs:LuminanceAdjustmentPurple="0"
   crs:LuminanceAdjustmentMagenta="-3"
   crs:SplitToningShadowHue="190"
   crs:SplitToningShadowSaturation="10"
   crs:SplitToningHighlightHue="43"
   crs:SplitToningHighlightSaturation="8"
   crs:SplitToningBalance="-12"
   crs:ColorGradeMidtoneHue="36"
   crs:ColorGradeMidtoneSat="2"
   crs:ColorGradeShadowLum="0"
   crs:ColorGradeMidtoneLum="0"
   crs:ColorGradeHighlightLum="0"
   crs:ColorGradeBlending="50"
   crs:ColorGradeGlobalHue="0"
   crs:ColorGradeGlobalSat="0"
   crs:ColorGradeGlobalLum="0"
   crs:AutoLateralCA="1"
   crs:LensProfileEnable="0"
   crs:LensManualDistortionAmount="0"
   crs:VignetteAmount="0"
   crs:DefringePurpleAmount="0"
   crs:DefringePurpleHueLo="30"
   crs:DefringePurpleHueHi="70"
   crs:DefringeGreenAmount="0"
   crs:DefringeGreenHueLo="40"
   crs:DefringeGreenHueHi="60"
   crs:GrainAmount="12"
   crs:GrainSize="18"
   crs:GrainFrequency="42"
   crs:PostCropVignetteAmount="-10"
   crs:PostCropVignetteMidpoint="50"
   crs:PostCropVignetteFeather="72"
   crs:PostCropVignetteRoundness="15"
   crs:PostCropVignetteStyle="1"
   crs:ShadowTint="0"
   crs:RedHue="0"
   crs:RedSaturation="0"
   crs:GreenHue="0"
   crs:GreenSaturation="0"
   crs:BlueHue="0"
   crs:BlueSaturation="0"
   crs:ConvertToGrayscale="False"
   crs:HDREditMode="0"
   crs:OverrideLookVignette="False"
   crs:ToneCurveName2012="Custom"
   crs:HasSettings="True"
   crs:CameraProfile="Adobe Standard"
   >
   <crs:Name>
    <rdf:Alt>
     <rdf:li xml:lang="x-default">GR3 姝ｇ墖 Positive Film</rdf:li>
    </rdf:Alt>
   </crs:Name>
   <crs:ShortName>
    <rdf:Alt>
     <rdf:li xml:lang="x-default">GR3 姝ｇ墖 Positive Film</rdf:li>
    </rdf:Alt>
   </crs:ShortName>
   <crs:Group>
    <rdf:Alt>
     <rdf:li xml:lang="x-default">GR3 Camera Raw Looks</rdf:li>
    </rdf:Alt>
   </crs:Group>
   <crs:Description>
    <rdf:Alt>
     <rdf:li xml:lang="x-default">GR III-inspired positive film: deep blues, restrained greens, cyan shadows and warm highlights.</rdf:li>
    </rdf:Alt>
   </crs:Description>
   <crs:ToneCurvePV2012>
    <rdf:Seq>
     <rdf:li>0, 2</rdf:li>
     <rdf:li>30, 24</rdf:li>
     <rdf:li>72, 66</rdf:li>
     <rdf:li>128, 133</rdf:li>
     <rdf:li>190, 199</rdf:li>
     <rdf:li>232, 231</rdf:li>
     <rdf:li>255, 248</rdf:li>
    </rdf:Seq>
   </crs:ToneCurvePV2012>
  </rdf:Description>
 </rdf:RDF>
</x:xmpmeta>
<?xpacket end="w"?>