assets/ricoh/Ricoh_GR3_CameraRaw_Presets/Presets/GR3_Vivid_Street.xmp
<?xpacket begin="﻿" id="W5M0MpCehiHzreSzNTczkc9d"?>
<x:xmpmeta xmlns:x="adobe:ns:meta/" x:xmptk="Adobe XMP Core 7.0-c000 1.000000, 0000/00/00-00:00:00        ">
 <rdf:RDF xmlns:rdf="http://www.w3.org/1999/02/22-rdf-syntax-ns#">
  <rdf:Description rdf:about=""
    xmlns:crs="http://ns.adobe.com/camera-raw-settings/1.0/"
   crs:PresetType="Normal"
   crs:Cluster=""
   crs:UUID="6072087D69CAAB4757BF17F82F26DF25"
   crs:SupportsAmount="False"
   crs:SupportsColor="True"
   crs:SupportsMonochrome="True"
   crs:SupportsHighDynamicRange="True"
   crs:SupportsNormalDynamicRange="True"
   crs:SupportsSceneReferred="True"
   crs:SupportsOutputReferred="True"
   crs:RequiresRGBTables="False"
   crs:Copyright=""
   crs:ContactInfo=""
   crs:Version="17.5"
   crs:ProcessVersion="15.4"
   crs:WhiteBalance="As Shot"
   crs:Temperature="0"
   crs:Tint="0"
   crs:Exposure2012="0"
   crs:Contrast2012="20"
   crs:Highlights2012="-34"
   crs:Shadows2012="18"
   crs:Whites2012="10"
   crs:Blacks2012="-15"
   crs:Texture="10"
   crs:Clarity2012="13"
   crs:Dehaze="4"
   crs:Vibrance="4"
   crs:Saturation="3"
   crs:ParametricShadows="0"
   crs:ParametricDarks="0"
   crs:ParametricLights="0"
   crs:ParametricHighlights="0"
   crs:ParametricShadowSplit="25"
   crs:ParametricMidtoneSplit="50"
   crs:ParametricHighlightSplit="75"
   crs:Sharpness="56"
   crs:SharpenRadius="+0.6"
   crs:SharpenDetail="34"
   crs:SharpenEdgeMasking="8"
   crs:LuminanceSmoothing="1"
   crs:ColorNoiseReduction="16"
   crs:ColorNoiseReductionDetail="50"
   crs:ColorNoiseReductionSmoothness="50"
   crs:HueAdjustmentRed="-4"
   crs:HueAdjustmentOrange="1"
   crs:HueAdjustmentYellow="-6"
   crs:HueAdjustmentGreen="7"
   crs:HueAdjustmentAqua="2"
   crs:HueAdjustmentBlue="-5"
   crs:HueAdjustmentPurple="-1"
   crs:HueAdjustmentMagenta="1"
   crs:SaturationAdjustmentRed="5"
   crs:SaturationAdjustmentOrange="-3"
   crs:SaturationAdjustmentYellow="-12"
   crs:SaturationAdjustmentGreen="-18"
   crs:SaturationAdjustmentAqua="-4"
   crs:SaturationAdjustmentBlue="8"
   crs:SaturationAdjustmentPurple="-4"
   crs:SaturationAdjustmentMagenta="-10"
   crs:LuminanceAdjustmentRed="3"
   crs:LuminanceAdjustmentOrange="2"
   crs:LuminanceAdjustmentYellow="-9"
   crs:LuminanceAdjustmentGreen="-15"
   crs:LuminanceAdjustmentAqua="-7"
   crs:LuminanceAdjustmentBlue="-9"
   crs:LuminanceAdjustmentPurple="0"
   crs:LuminanceAdjustmentMagenta="-4"
   crs:SplitToningShadowHue="210"
   crs:SplitToningShadowSaturation="8"
   crs:SplitToningHighlightHue="42"
   crs:SplitToningHighlightSaturation="6"
   crs:SplitToningBalance="-8"
   crs:ColorGradeMidtoneHue="38"
   crs:ColorGradeMidtoneSat="2"
   crs:ColorGradeShadowLum="0"
   crs:ColorGradeMidtoneLum="0"
   crs:ColorGradeHighlightLum="0"
   crs:ColorGradeBlending="50"
   crs:ColorGradeGlobalHue="0"
   crs:ColorGradeGlobalSat="0"
   crs:ColorGradeGlobalLum="0"
   crs:AutoLateralCA="1"
   crs:LensProfileEnable="0"
   crs:LensManualDistortionAmount="0"
   crs:VignetteAmount="0"
   crs:DefringePurpleAmount="0"
   crs:DefringePurpleHueLo="30"
   crs:DefringePurpleHueHi="70"
   crs:DefringeGreenAmount="0"
   crs:DefringeGreenHueLo="40"
   crs:DefringeGreenHueHi="60"
   crs:GrainAmount="10"
   crs:GrainSize="16"
   crs:GrainFrequency="48"
   crs:PostCropVignetteAmount="-13"
   crs:PostCropVignetteMidpoint="50"
   crs:PostCropVignetteFeather="65"
   crs:PostCropVignetteRoundness="20"
   crs:PostCropVignetteStyle="1"
   crs:ShadowTint="0"
   crs:RedHue="0"
   crs:RedSaturation="0"
   crs:GreenHue="0"
   crs:GreenSaturation="0"
   crs:BlueHue="0"
   crs:BlueSaturation="0"
   crs:ConvertToGrayscale="False"
   crs:HDREditMode="0"
   crs:OverrideLookVignette="False"
   crs:ToneCurveName2012="Custom"
   crs:HasSettings="True"
   crs:CameraProfile="Adobe Standard"
   >
   <crs:Name>
    <rdf:Alt>
     <rdf:li xml:lang="x-default">GR3 椴滄槑琛楀ご Vivid Street</rdf:li>
    </rdf:Alt>
   </crs:Name>
   <crs:ShortName>
    <rdf:Alt>
     <rdf:li xml:lang="x-default">GR3 椴滄槑琛楀ご Vivid Street</rdf:li>
    </rdf:Alt>
   </crs:ShortName>
   <crs:Group>
    <rdf:Alt>
     <rdf:li xml:lang="x-default">GR3 Camera Raw Looks</rdf:li>
    </rdf:Alt>
   </crs:Group>
   <crs:Description>
    <rdf:Alt>
     <rdf:li xml:lang="x-default">GR III-inspired vivid street: hard contrast, strong blues, crisp detail and controlled skin tones.</rdf:li>
    </rdf:Alt>
   </crs:Description>
   <crs:ToneCurvePV2012>
    <rdf:Seq>
     <rdf:li>0, 0</rdf:li>
     <rdf:li>24, 15</rdf:li>
     <rdf:li>72, 70</rdf:li>
     <rdf:li>128, 137</rdf:li>
     <rdf:li>192, 204</rdf:li>
     <rdf:li>236, 237</rdf:li>
     <rdf:li>255, 250</rdf:li>
    </rdf:Seq>
   </crs:ToneCurvePV2012>
  </rdf:Description>
 </rdf:RDF>
</x:xmpmeta>
<?xpacket end="w"?>