assets/ricoh/Ricoh_GR3_PS_Filter/LUT/GR3_Negative_Film.cube
TITLE "Ricoh GR III Negative Film"
LUT_3D_SIZE 5
DOMAIN_MIN 0.000000 0.000000 0.000000
DOMAIN_MAX 1.000000 1.000000 1.000000
0.080766 0.087469 0.090145
0.262549 0.092591 0.095267
0.488120 0.098946 0.101622
0.675336 0.104221 0.106897
0.850627 0.109159 0.111835
0.097474 0.275489 0.106853
0.279256 0.280610 0.111974
0.504827 0.286965 0.118329
0.692044 0.292240 0.123604
0.867334 0.297179 0.128543
0.118417 0.511178 0.127796
0.300200 0.516299 0.132918
0.525771 0.522655 0.139273
0.712987 0.527929 0.144548
0.888278 0.532868 0.149486
0.135982 0.708840 0.145361
0.317764 0.713962 0.150482
0.543335 0.720317 0.156837
0.730552 0.725591 0.162112
0.905842 0.730530 0.167051
0.152580 0.895632 0.161959
0.334363 0.900754 0.167081
0.559934 0.907109 0.173436
0.747150 0.912384 0.178711
0.922441 0.917323 0.183649
0.082411 0.089114 0.258820
0.264193 0.094235 0.263942
0.489764 0.100591 0.270297
0.676981 0.105865 0.275572
0.852271 0.110804 0.280510
0.099118 0.277133 0.275528
0.280901 0.282255 0.280649
0.506472 0.288610 0.287005
0.693688 0.293885 0.292279
0.868979 0.298823 0.297218
0.120062 0.512822 0.296471
0.301844 0.517944 0.301593
0.527415 0.524299 0.307948
0.714632 0.529574 0.313223
0.889922 0.534513 0.318161
0.137626 0.710484 0.314036
0.319409 0.715606 0.319157
0.544980 0.721961 0.325513
0.732196 0.727236 0.330787
0.907487 0.732175 0.335726
0.154225 0.897277 0.330634
0.336007 0.902398 0.335756
0.561578 0.908754 0.342111
0.748795 0.914028 0.347386
0.924085 0.918967 0.352324
0.084482 0.091185 0.471308
0.266265 0.096307 0.476430
0.491836 0.102662 0.482785
0.679053 0.107937 0.488060
0.854343 0.112876 0.492999
0.101190 0.279205 0.488016
0.282972 0.284326 0.493138
0.508543 0.290681 0.499493
0.695760 0.295956 0.504767
0.871050 0.300895 0.509706
0.122134 0.514894 0.508960
0.303916 0.520016 0.514081
0.529487 0.526371 0.520436
0.716704 0.531646 0.525711
0.891994 0.536584 0.530650
0.139698 0.712556 0.526524
0.321480 0.717678 0.531646
0.547051 0.724033 0.538001
0.734268 0.729308 0.543275
0.909558 0.734246 0.548214
0.156297 0.899349 0.543123
0.338079 0.904470 0.548244
0.563650 0.910825 0.554599
0.750867 0.916100 0.559874
0.926157 0.921039 0.564813
0.086229 0.092932 0.650405
0.268011 0.098053 0.655526
0.493582 0.104408 0.661882
0.680799 0.109683 0.667156
0.856089 0.114622 0.672095
0.102936 0.280951 0.667112
0.284718 0.286072 0.672234
0.510289 0.292428 0.678589
0.697506 0.297702 0.683864
0.872797 0.302641 0.688802
0.123880 0.516640 0.688056
0.305662 0.521762 0.693177
0.531233 0.528117 0.699533
0.718450 0.533392 0.704807
0.893740 0.538330 0.709746
0.141444 0.714302 0.705620
0.323226 0.719424 0.710742
0.548797 0.725779 0.717097
0.736014 0.731054 0.722372
0.911305 0.735992 0.727310
0.158043 0.901095 0.722219
0.339825 0.906216 0.727340
0.565396 0.912571 0.733696
0.752613 0.917846 0.738970
0.927903 0.922785 0.743909
0.087886 0.094589 0.820395
0.269668 0.099710 0.825517
0.495239 0.106066 0.831872
0.682456 0.111340 0.837147
0.857746 0.116279 0.842085
0.104593 0.282608 0.837103
0.286376 0.287730 0.842224
0.511947 0.294085 0.848580
0.699163 0.299360 0.853854
0.874454 0.304298 0.858793
0.125537 0.518297 0.858046
0.307319 0.523419 0.863168
0.532890 0.529774 0.869523
0.720107 0.535049 0.874798
0.895397 0.539988 0.879737
0.143101 0.715960 0.875611
0.324884 0.721081 0.880732
0.550455 0.727436 0.887088
0.737671 0.732711 0.892362
0.912962 0.737650 0.897301
0.159700 0.902752 0.892209
0.341482 0.907874 0.897331
0.567053 0.914229 0.903686
0.754270 0.919503 0.908961
0.929560 0.924442 0.913900
