assets/ricoh/Ricoh_GR3_PS_Filter/LUT/GR3_Standard.cube
TITLE "Ricoh GR III Standard"
LUT_3D_SIZE 33
DOMAIN_MIN 0.000000 0.000000 0.000000
DOMAIN_MAX 1.000000 1.000000 1.000000
0.000000 0.000000 0.000000
0.000000 0.000000 0.000000
0.024779 0.000000 0.000000
0.054440 0.000000 0.000000
0.084097 0.000000 0.000000
0.118918 0.000000 0.000000
0.153816 0.000000 0.000000
0.188710 0.000000 0.000000
0.223600 0.000000 0.000000
0.258485 0.000000 0.000000
0.293366 0.000000 0.000000
0.328242 0.000000 0.000000
0.362587 0.000000 0.000000
0.396297 0.000000 0.000000
0.430003 0.000000 0.000000
0.463704 0.000000 0.000000
0.497402 0.000000 0.000000
0.531095 0.000000 0.000000
0.564784 0.000000 0.000000
0.598469 0.000000 0.000000
0.631502 0.000000 0.000000
0.663648 0.000000 0.000000
0.695790 0.000000 0.000000
0.727929 0.000000 0.000000
0.760063 0.000000 0.000000
0.792194 0.000000 0.000000
0.824322 0.000000 0.000000
0.856445 0.000000 0.000000
0.886937 0.000000 0.000000
0.914902 0.000000 0.000000
0.942864 0.000000 0.000000
0.970824 0.000000 0.000000
0.998781 0.000000 0.000000
0.000000 0.000911 0.000000
0.000000 0.001171 0.000000
0.025646 0.001432 0.000000
0.055307 0.001692 0.000000
0.084964 0.001953 0.000000
0.119784 0.002259 0.000000
0.154683 0.002565 0.000000
0.189577 0.002871 0.000000
0.224467 0.003178 0.000000
0.259352 0.003484 0.000000
0.294233 0.003790 0.000000
0.329109 0.004097 0.000000
0.363454 0.004398 0.000000
0.397164 0.004694 0.000000
0.430870 0.004990 0.000000
0.464571 0.005286 0.000000
0.498269 0.005582 0.000000
0.531962 0.005878 0.000000
0.565651 0.006174 0.000000
0.599336 0.006469 0.000000
0.632369 0.006759 0.000000
0.664515 0.007042 0.000000
0.696657 0.007324 0.000000
0.728796 0.007606 0.000000
0.760930 0.007888 0.000000
0.793061 0.008170 0.000000
0.825189 0.008452 0.000000
0.857312 0.008734 0.000000
0.887804 0.009002 0.000000
0.915769 0.009248 0.000000
0.943731 0.009493 0.000000
0.971691 0.009739 0.000000
0.999648 0.009984 0.000000
0.000000 0.030867 0.000000
0.000000 0.031127 0.000000
0.026513 0.031388 0.000000
0.056173 0.031648 0.000000
0.085831 0.031909 0.000000
0.120651 0.032214 0.000000
0.155550 0.032521 0.000000
0.190444 0.032827 0.000000
0.225334 0.033134 0.000000
0.260219 0.033440 0.000000
0.295099 0.033746 0.000000
0.329976 0.034052 0.000000
0.364321 0.034354 0.000000
0.398031 0.034650 0.000000
0.431737 0.034946 0.000000
0.465438 0.035242 0.000000
0.499136 0.035538 0.000000
0.532829 0.035834 0.000000
0.566518 0.036129 0.000000
0.600203 0.036425 0.000000
0.633235 0.036715 0.000000
0.665382 0.036998 0.000000
0.697524 0.037280 0.000000
0.729662 0.037562 0.000000
0.761797 0.037844 0.000000
0.793928 0.038126 0.000000
0.826056 0.038408 0.000000
0.858179 0.038690 0.000000
0.888671 0.038958 0.000000
0.916636 0.039204 0.000000
0.944598 0.039449 0.000000
0.972558 0.039695 0.000000
1.000000 0.039940 0.000000
0.000000 0.060820 0.000000
0.000000 0.061080 0.000000
0.027380 0.061341 0.000000
0.057040 0.061601 0.000000
0.086698 0.061861 0.000000
0.121518 0.062167 0.000000
0.156417 0.062474 0.000000
0.191311 0.062780 0.000000
0.226200 0.063086 0.000000
0.261085 0.063393 0.000000
0.295966 0.063699 0.000000
0.330843 0.064005 0.000000
0.365188 0.064307 0.000000
0.398898 0.064603 0.000000
0.432603 0.064899 0.000000
0.466305 0.065195 0.000000
0.500002 0.065490 0.000000
0.533696 0.065786 0.000000
0.567385 0.066082 0.000000
0.601070 0.066378 0.000000
0.634102 0.066668 0.000000
0.666248 0.066950 0.000000
0.698391 0.067232 0.000000
0.730529 0.067515 0.000000
0.762664 0.067797 0.000000
0.794795 0.068079 0.000000
0.826922 0.068361 0.000000
0.859046 0.068643 0.000000
0.889537 0.068911 0.000000
0.917503 0.069156 0.000000
0.945465 0.069402 0.000000
0.973425 0.069647 0.000000
1.000000 0.069893 0.000000
0.000000 0.090769 0.000000
0.000000 0.091030 0.000000
0.028246 0.091290 0.000000
0.057907 0.091550 0.000000
0.087564 0.091811 0.000000
0.122385 0.092117 0.000000
0.157283 0.092423 0.000000
0.192177 0.092729 0.000000
0.227067 0.093036 0.000000
0.261952 0.093342 0.000000
0.296833 0.093648 0.000000
0.331709 0.093955 0.000000
0.366054 0.094256 0.000000
0.399764 0.094552 0.000000
0.433470 0.094848 0.000000
0.467172 0.095144 0.000000
0.500869 0.095440 0.000000
0.534562 0.095736 0.000000
0.568251 0.096032 0.000000
0.601936 0.096327 0.000000
0.634969 0.096617 0.000000
0.667115 0.096900 0.000000
0.699257 0.097182 0.000000
0.731396 0.097464 0.000000
0.763531 0.097746 0.000000
0.795662 0.098028 0.000000
0.827789 0.098310 0.000000
0.859912 0.098592 0.000000
0.890404 0.098860 0.000000
0.918369 0.099106 0.000000
0.946332 0.099351 0.000000
0.974291 0.099597 0.000000
1.000000 0.099842 0.000000
0.000000 0.125933 0.000000
0.000000 0.126193 0.000000
0.029264 0.126453 0.000000
0.058924 0.126714 0.000000
0.088582 0.126974 0.000000
0.123402 0.127280 0.000000
0.158301 0.127586 0.000000
0.193195 0.127893 0.000000
0.228084 0.128199 0.000000
0.262970 0.128506 0.000000
0.297850 0.128812 0.000000
0.332727 0.129118 0.000000
0.367072 0.129420 0.000000
0.400782 0.129716 0.000000
0.434488 0.130012 0.000000
0.468189 0.130307 0.000000
0.501887 0.130603 0.000000
0.535580 0.130899 0.000000
0.569269 0.131195 0.000000
0.602954 0.131491 0.000000
0.635986 0.131781 0.000000
0.668133 0.132063 0.000000
0.700275 0.132345 0.000000
0.732413 0.132628 0.000000
0.764548 0.132910 0.000000
0.796679 0.133192 0.000000
0.828806 0.133474 0.000000
0.860930 0.133756 0.000000
0.891422 0.134024 0.000000
0.919387 0.134269 0.000000
0.947349 0.134515 0.000000
0.975309 0.134760 0.000000
1.000000 0.135006 0.000000
0.000000 0.161175 0.000000
0.000620 0.161435 0.000000
0.030284 0.161696 0.000000
0.059944 0.161956 0.000000
0.089602 0.162216 0.000000
0.124422 0.162522 0.000000
0.159321 0.162829 0.000000
0.194215 0.163135 0.000000
0.229104 0.163441 0.000000
0.263989 0.163748 0.000000
0.298870 0.164054 0.000000
0.333747 0.164360 0.000000
0.368092 0.164662 0.000000
0.401802 0.164958 0.000000
0.435507 0.165254 0.000000
0.469209 0.165550 0.000000
0.502906 0.165845 0.000000
0.536600 0.166141 0.000000
0.570289 0.166437 0.000000
0.603974 0.166733 0.000000
0.637006 0.167023 0.000000
0.669152 0.167305 0.000000
0.701295 0.167587 0.000000
0.733433 0.167870 0.000000
0.765568 0.168152 0.000000
0.797699 0.168434 0.000000
0.829826 0.168716 0.000000
0.861950 0.168998 0.000000
0.892441 0.169266 0.000000
0.920407 0.169511 0.000000
0.948369 0.169757 0.000000
0.976329 0.170002 0.000000
1.000000 0.170248 0.000000
0.000000 0.196412 0.000000
0.001640 0.196673 0.000000
0.031303 0.196933 0.000000
0.060964 0.197194 0.000000
0.090621 0.197454 0.000000
0.125442 0.197760 0.000000
0.160340 0.198066 0.000000
0.195234 0.198373 0.000000
0.230124 0.198679 0.000000
0.265009 0.198985 0.000000
0.299890 0.199291 0.000000
0.334766 0.199598 0.000000
0.369111 0.199899 0.000000
0.402821 0.200195 0.000000
0.436527 0.200491 0.000000
0.470229 0.200787 0.000000
0.503926 0.201083 0.000000
0.537619 0.201379 0.000000
0.571308 0.201675 0.000000
0.604993 0.201970 0.000000
0.638026 0.202260 0.000000
0.670172 0.202543 0.000000
0.702314 0.202825 0.000000
0.734453 0.203107 0.000000
0.766588 0.203389 0.000000
0.798719 0.203671 0.000000
0.830846 0.203954 0.000000
0.862969 0.204236 0.000000
0.893461 0.204503 0.000000
0.921426 0.204749 0.000000
0.949389 0.204994 0.000000
0.977348 0.205240 0.000000
1.000000 0.205485 0.000000
0.000000 0.231645 0.000000
0.002659 0.231906 0.000000
0.032323 0.232166 0.000000
0.061983 0.232427 0.000000
0.091641 0.232687 0.000000
0.126461 0.232993 0.000000
0.161360 0.233299 0.000000
0.196254 0.233606 0.000000
0.231144 0.233912 0.000000
0.266029 0.234218 0.000000
0.300909 0.234525 0.000000
0.335786 0.234831 0.000000
0.370131 0.235132 0.000000
0.403841 0.235428 0.000000
0.437547 0.235724 0.000000
0.471248 0.236020 0.000000
0.504946 0.236316 0.000000
0.538639 0.236612 0.000000
0.572328 0.236908 0.000000
0.606013 0.237203 0.000000
0.639046 0.237494 0.000000
0.671192 0.237776 0.000000
0.703334 0.238058 0.000000
0.735473 0.238340 0.000000
0.767607 0.238622 0.000000
0.799738 0.238904 0.000000
0.831866 0.239187 0.000000
0.863989 0.239469 0.000000
0.894481 0.239736 0.000000
0.922446 0.239982 0.000000
0.950408 0.240227 0.000000
0.978368 0.240473 0.000000
1.000000 0.240718 0.000000
0.000000 0.266874 0.000000
0.003679 0.267134 0.000000
0.033342 0.267395 0.000000
0.063003 0.267655 0.000000
0.092660 0.267916 0.000000
0.127481 0.268221 0.000000
0.162379 0.268528 0.000000
0.197273 0.268834 0.000000
0.232163 0.269140 0.000000
0.267048 0.269447 0.000000
0.301929 0.269753 0.000000
0.336805 0.270059 0.000000
0.371150 0.270361 0.000000
0.404860 0.270657 0.000000
0.438566 0.270953 0.000000
0.472268 0.271249 0.000000
0.505965 0.271545 0.000000
0.539658 0.271840 0.000000
0.573347 0.272136 0.000000
0.607032 0.272432 0.000000
0.640065 0.272722 0.000000
0.672211 0.273004 0.000000
0.704353 0.273287 0.000000
0.736492 0.273569 0.000000
0.768627 0.273851 0.000000
0.800758 0.274133 0.000000
0.832885 0.274415 0.000000
0.865008 0.274697 0.000000
0.895500 0.274965 0.000000
0.923465 0.275210 0.000000
0.951428 0.275456 0.000000
0.979387 0.275701 0.000000
1.000000 0.275947 0.000000
0.000000 0.302098 0.000000
0.004698 0.302358 0.000000
0.034362 0.302619 0.000000
0.064022 0.302879 0.000000
0.093680 0.303140 0.000000
0.128500 0.303445 0.000000
0.163399 0.303752 0.000000
0.198293 0.304058 0.000000
0.233182 0.304364 0.000000
0.268067 0.304671 0.000000
0.302948 0.304977 0.000000
0.337825 0.305283 0.000000
0.372170 0.305585 0.000000
0.405880 0.305881 0.000000
0.439585 0.306177 0.000000
0.473287 0.306473 0.000000
0.506984 0.306769 0.000000
0.540678 0.307064 0.000000
0.574367 0.307360 0.000000
0.608052 0.307656 0.000000
0.641084 0.307946 0.000000
0.673230 0.308228 0.000000
0.705373 0.308511 0.000000
0.737511 0.308793 0.000000
0.769646 0.309075 0.000000
0.801777 0.309357 0.000000
0.833904 0.309639 0.000000
0.866028 0.309921 0.000000
0.896519 0.310189 0.000000
0.924485 0.310434 0.000000
0.952447 0.310680 0.000000
0.980407 0.310925 0.000000
1.000000 0.311171 0.000000
0.000000 0.337317 0.000000
0.005717 0.337578 0.000000
0.035381 0.337838 0.000000
0.065041 0.338099 0.000000
0.094699 0.338359 0.000000
0.129519 0.338665 0.000000
0.164418 0.338971 0.000000
0.199312 0.339278 0.000000
0.234201 0.339584 0.000000
0.269087 0.339890 0.000000
0.303967 0.340196 0.000000
0.338844 0.340503 0.000000
0.373189 0.340804 0.000000
0.406899 0.341100 0.000000
0.440605 0.341396 0.000000
0.474306 0.341692 0.000000
0.508004 0.341988 0.000000
0.541697 0.342284 0.000000
0.575386 0.342580 0.000000
0.609071 0.342875 0.000000
0.642103 0.343165 0.000000
0.674250 0.343448 0.000000
0.706392 0.343730 0.000000
0.738530 0.344012 0.000000
0.770665 0.344294 0.000000
0.802796 0.344576 0.000000
0.834923 0.344859 0.000000
0.867047 0.345141 0.000000
0.897539 0.345408 0.000000
0.925504 0.345654 0.000000
0.953466 0.345899 0.000000
0.981426 0.346145 0.000000
1.000000 0.346390 0.000000
0.000000 0.372000 0.000000
0.006721 0.372261 0.000000
0.036384 0.372521 0.000000
0.066045 0.372782 0.000000
0.095702 0.373042 0.000000
0.130523 0.373348 0.000000
0.165421 0.373654 0.000000
0.200315 0.373961 0.000000
0.235205 0.374267 0.000000
0.270090 0.374573 0.000000
0.304971 0.374880 0.000000
0.339847 0.375186 0.000000
0.374193 0.375487 0.000000
0.407902 0.375783 0.000000
0.441608 0.376079 0.000000
0.475310 0.376375 0.000000
0.509007 0.376671 0.000000
0.542700 0.376967 0.000000
0.576390 0.377263 0.000000
0.610075 0.377559 0.000000
0.643107 0.377849 0.000000
0.675253 0.378131 0.000000
0.707396 0.378413 0.000000
0.739534 0.378695 0.000000
0.771669 0.378977 0.000000
0.803800 0.379260 0.000000
0.835927 0.379542 0.000000
0.868051 0.379824 0.000000
0.898542 0.380091 0.000000
0.926508 0.380337 0.000000
0.954470 0.380582 0.000000
0.982429 0.380828 0.000000
1.000000 0.381073 0.000000
0.000000 0.406042 0.000000
0.007706 0.406302 0.000000
0.037370 0.406563 0.000000
0.067030 0.406823 0.000000
0.096687 0.407083 0.000000
0.131508 0.407389 0.000000
0.166407 0.407696 0.000000
0.201301 0.408002 0.000000
0.236190 0.408308 0.000000
0.271075 0.408615 0.000000
0.305956 0.408921 0.000000
0.340832 0.409227 0.000000
0.375178 0.409529 0.000000
0.408888 0.409825 0.000000
0.442593 0.410121 0.000000
0.476295 0.410417 0.000000
0.509992 0.410713 0.000000
0.543686 0.411008 0.000000
0.577375 0.411304 0.000000
0.611060 0.411600 0.000000
0.644092 0.411890 0.000000
0.676238 0.412172 0.000000
0.708381 0.412454 0.000000
0.740519 0.412737 0.000000
0.772654 0.413019 0.000000
0.804785 0.413301 0.000000
0.836912 0.413583 0.000000
0.869036 0.413865 0.000000
0.899527 0.414133 0.000000
0.927493 0.414378 0.000000
0.955455 0.414624 0.000000
0.983414 0.414869 0.000000
1.000000 0.415115 0.000000
0.000000 0.440079 0.000000
0.008691 0.440339 0.000000
0.038355 0.440600 0.000000
0.068015 0.440860 0.000000
0.097672 0.441121 0.000000
0.132493 0.441426 0.000000
0.167391 0.441733 0.000000
0.202286 0.442039 0.000000
0.237175 0.442346 0.000000
0.272060 0.442652 0.000000
0.306941 0.442958 0.000000
0.341817 0.443264 0.000000
0.376163 0.443566 0.000000
0.409872 0.443862 0.000000
0.443578 0.444158 0.000000
0.477280 0.444454 0.000000
0.510977 0.444750 0.000000
0.544670 0.445046 0.000000
0.578360 0.445341 0.000000
0.612045 0.445637 0.000000
0.645077 0.445927 0.000000
0.677223 0.446209 0.000000
0.709366 0.446492 0.000000
0.741504 0.446774 0.000000
0.773639 0.447056 0.000000
0.805770 0.447338 0.000000
0.837897 0.447620 0.000000
0.870021 0.447902 0.000000
0.900512 0.448170 0.000000
0.928478 0.448416 0.000000
0.956440 0.448661 0.000000
0.984399 0.448907 0.000000
1.000000 0.449152 0.000000
0.000000 0.474112 0.000000
0.009676 0.474372 0.000000
0.039339 0.474633 0.000000
0.069000 0.474893 0.000000
0.098657 0.475154 0.000000
0.133478 0.475459 0.000000
0.168376 0.475766 0.000000
0.203270 0.476072 0.000000
0.238160 0.476379 0.000000
0.273045 0.476685 0.000000
0.307926 0.476991 0.000000
0.342802 0.477297 0.000000
0.377147 0.477599 0.000000
0.410857 0.477895 0.000000
0.444563 0.478191 0.000000
0.478265 0.478487 0.000000
0.511962 0.478783 0.000000
0.545655 0.479079 0.000000
0.579344 0.479374 0.000000
0.613029 0.479670 0.000000
0.646062 0.479960 0.000000
0.678208 0.480242 0.000000
0.710350 0.480525 0.000000
0.742489 0.480807 0.000000
0.774624 0.481089 0.000000
0.806755 0.481371 0.000000
0.838882 0.481653 0.000000
0.871005 0.481935 0.000000
0.901497 0.482203 0.000000
0.929462 0.482449 0.000000
0.957425 0.482694 0.000000
0.985384 0.482940 0.000000
1.000000 0.483185 0.000000
0.000000 0.508141 0.000000
0.010660 0.508401 0.000000
0.040324 0.508662 0.000000
0.069985 0.508922 0.000000
0.099642 0.509182 0.000000
0.134463 0.509488 0.000000
0.169361 0.509795 0.000000
0.204255 0.510101 0.000000
0.239145 0.510407 0.000000
0.274030 0.510714 0.000000
0.308911 0.511020 0.000000
0.343787 0.511326 0.000000
0.378132 0.511628 0.000000
0.411842 0.511924 0.000000
0.445548 0.512220 0.000000
0.479249 0.512516 0.000000
0.512947 0.512811 0.000000
0.546640 0.513107 0.000000
0.580329 0.513403 0.000000
0.614014 0.513699 0.000000
0.647047 0.513989 0.000000
0.679193 0.514271 0.000000
0.711335 0.514553 0.000000
0.743474 0.514836 0.000000
0.775608 0.515118 0.000000
0.807739 0.515400 0.000000
0.839867 0.515682 0.000000
0.871990 0.515964 0.000000
0.902482 0.516232 0.000000
0.930447 0.516477 0.000000
0.958409 0.516723 0.000000
0.986369 0.516968 0.000000
1.000000 0.517214 0.000000
0.000000 0.542165 0.000000
0.011645 0.542426 0.000000
0.041309 0.542686 0.000000
0.070969 0.542947 0.000000
0.100627 0.543207 0.000000
0.135447 0.543513 0.000000
0.170346 0.543819 0.000000
0.205240 0.544126 0.000000
0.240129 0.544432 0.000000
0.275014 0.544738 0.000000
0.309895 0.545044 0.000000
0.344772 0.545351 0.000000
0.379117 0.545652 0.000000
0.412827 0.545948 0.000000
0.446532 0.546244 0.000000
0.480234 0.546540 0.000000
0.513931 0.546836 0.000000
0.547625 0.547132 0.000000
0.581314 0.547428 0.000000
0.614999 0.547723 0.000000
0.648031 0.548013 0.000000
0.680177 0.548296 0.000000
0.712320 0.548578 0.000000
0.744458 0.548860 0.000000
0.776593 0.549142 0.000000
0.808724 0.549424 0.000000
0.840851 0.549707 0.000000
0.872975 0.549989 0.000000
0.903466 0.550256 0.000000
0.931432 0.550502 0.000000
0.959394 0.550747 0.000000
0.987354 0.550993 0.000000
1.000000 0.551238 0.000000
0.000000 0.576185 0.000000
0.012629 0.576446 0.000000
0.042293 0.576706 0.000000
0.071954 0.576967 0.000000
0.101611 0.577227 0.000000
0.136432 0.577533 0.000000
0.171330 0.577839 0.000000
0.206224 0.578146 0.000000
0.241114 0.578452 0.000000
0.275999 0.578758 0.000000
0.310880 0.579065 0.000000
0.345756 0.579371 0.000000
0.380101 0.579673 0.000000
0.413811 0.579969 0.000000
0.447517 0.580264 0.000000
0.481218 0.580560 0.000000
0.514916 0.580856 0.000000
0.548609 0.581152 0.000000
0.582298 0.581448 0.000000
0.615983 0.581744 0.000000
0.649016 0.582034 0.000000
0.681162 0.582316 0.000000
0.713304 0.582598 0.000000
0.745443 0.582880 0.000000
0.777578 0.583163 0.000000
0.809709 0.583445 0.000000
0.841836 0.583727 0.000000
0.873959 0.584009 0.000000
0.904451 0.584277 0.000000
0.932416 0.584522 0.000000
0.960379 0.584768 0.000000
0.988338 0.585013 0.000000
1.000000 0.585259 0.000000
0.000000 0.610201 0.000000
0.013614 0.610462 0.000000
0.043277 0.610722 0.000000
0.072938 0.610983 0.000000
0.102595 0.611243 0.000000
0.137416 0.611549 0.000000
0.172314 0.611855 0.000000
0.207208 0.612162 0.000000
0.242098 0.612468 0.000000
0.276983 0.612775 0.000000
0.311864 0.613081 0.000000
0.346740 0.613387 0.000000
0.381086 0.613689 0.000000
0.414795 0.613985 0.000000
0.448501 0.614281 0.000000
0.482203 0.614576 0.000000
0.515900 0.614872 0.000000
0.549593 0.615168 0.000000
0.583283 0.615464 0.000000
0.616968 0.615760 0.000000
0.650000 0.616050 0.000000
0.682146 0.616332 0.000000
0.714289 0.616614 0.000000
0.746427 0.616896 0.000000
0.778562 0.617179 0.000000
0.810693 0.617461 0.000000
0.842820 0.617743 0.000000
0.874944 0.618025 0.000000
0.905435 0.618293 0.000000
0.933400 0.618538 0.000000
0.961363 0.618784 0.000083
0.989322 0.619029 0.000329
1.000000 0.619275 0.000574
0.000000 0.643559 0.000000
0.014579 0.643819 0.000000
0.044243 0.644080 0.000000
0.073903 0.644340 0.000000
0.103561 0.644600 0.000000
0.138381 0.644906 0.000000
0.173280 0.645213 0.000000
0.208174 0.645519 0.000000
0.243063 0.645825 0.000000
0.277949 0.646132 0.000000
0.312829 0.646438 0.000000
0.347706 0.646744 0.000000
0.382051 0.647046 0.000000
0.415761 0.647342 0.000000
0.449466 0.647638 0.000000
0.483168 0.647934 0.000000
0.516865 0.648229 0.000000
0.550559 0.648525 0.000000
0.584248 0.648821 0.000000
0.617933 0.649117 0.000000
0.650965 0.649407 0.000000
0.683111 0.649689 0.000000
0.715254 0.649971 0.000000
0.747392 0.650254 0.000000
0.779527 0.650536 0.000000
0.811658 0.650818 0.000000
0.843785 0.651100 0.000007
0.875909 0.651382 0.000290
0.906401 0.651650 0.000557
0.934366 0.651895 0.000803
0.962328 0.652141 0.001048
0.990288 0.652386 0.001294
1.000000 0.652632 0.001539
0.000000 0.676021 0.000000
0.015518 0.676281 0.000000
0.045182 0.676542 0.000000
0.074843 0.676802 0.000000
0.104500 0.677062 0.000000
0.139321 0.677368 0.000000
0.174219 0.677675 0.000000
0.209113 0.677981 0.000000
0.244003 0.678287 0.000000
0.278888 0.678594 0.000000
0.313769 0.678900 0.000000
0.348645 0.679206 0.000000
0.382990 0.679508 0.000000
0.416700 0.679804 0.000000
0.450406 0.680100 0.000000
0.484107 0.680396 0.000000
0.517805 0.680691 0.000000
0.551498 0.680987 0.000000
0.585187 0.681283 0.000000
0.618872 0.681579 0.000000
0.651905 0.681869 0.000000
0.684051 0.682151 0.000000
0.716193 0.682433 0.000000
0.748332 0.682716 0.000100
0.780467 0.682998 0.000383
0.812598 0.683280 0.000665
0.844725 0.683562 0.000947
0.876848 0.683844 0.001229
0.907340 0.684112 0.001497
0.935305 0.684357 0.001742
0.963268 0.684603 0.001988
0.991227 0.684848 0.002233
1.000000 0.685094 0.002479
0.000000 0.708479 0.000000
0.016458 0.708739 0.000000
0.046121 0.709000 0.000000
0.075782 0.709260 0.000000
0.105439 0.709520 0.000000
0.140260 0.709826 0.000000
0.175158 0.710133 0.000000
0.210052 0.710439 0.000000
0.244942 0.710745 0.000000
0.279827 0.711052 0.000000
0.314708 0.711358 0.000000
0.349584 0.711664 0.000000
0.383929 0.711966 0.000000
0.417639 0.712262 0.000000
0.451345 0.712558 0.000000
0.485047 0.712854 0.000000
0.518744 0.713150 0.000000
0.552437 0.713445 0.000000
0.586126 0.713741 0.000000
0.619811 0.714037 0.000000
0.652844 0.714327 0.000193
0.684990 0.714609 0.000475
0.717132 0.714891 0.000758
0.749271 0.715174 0.001040
0.781406 0.715456 0.001322
0.813537 0.715738 0.001604
0.845664 0.716020 0.001886
0.877787 0.716302 0.002168
0.908279 0.716570 0.002436
0.936244 0.716815 0.002681
0.964207 0.717061 0.002927
0.992166 0.717306 0.003172
1.000000 0.717552 0.003418
0.000000 0.740933 0.000000
0.017397 0.741193 0.000000
0.047061 0.741454 0.000000
0.076721 0.741714 0.000000
0.106378 0.741975 0.000000
0.141199 0.742280 0.000000
0.176097 0.742587 0.000000
0.210992 0.742893 0.000000
0.245881 0.743200 0.000000
0.280766 0.743506 0.000000
0.315647 0.743812 0.000000
0.350523 0.744118 0.000000
0.384869 0.744420 0.000000
0.418578 0.744716 0.000000
0.452284 0.745012 0.000000
0.485986 0.745308 0.000000
0.519683 0.745604 0.000000
0.553377 0.745900 0.000251
0.587066 0.746195 0.000546
0.620751 0.746491 0.000842
0.653783 0.746781 0.001132
0.685929 0.747063 0.001414
0.718072 0.747346 0.001697
0.750210 0.747628 0.001979
0.782345 0.747910 0.002261
0.814476 0.748192 0.002543
0.846603 0.748474 0.002825
0.878727 0.748756 0.003107
0.909218 0.749024 0.003375
0.937184 0.749270 0.003621
0.965146 0.749515 0.003866
0.993105 0.749761 0.004112
1.000000 0.750006 0.004357
0.000000 0.773383 0.000000
0.018336 0.773644 0.000000
0.048000 0.773904 0.000000
0.077660 0.774165 0.000000
0.107317 0.774425 0.000000
0.142138 0.774731 0.000000
0.177037 0.775037 0.000000
0.211931 0.775344 0.000000
0.246820 0.775650 0.000000
0.281705 0.775956 0.000000
0.316586 0.776263 0.000000
0.351462 0.776569 0.000000
0.385808 0.776870 0.000000
0.419518 0.777166 0.000006
0.453223 0.777462 0.000302
0.486925 0.777758 0.000598
0.520622 0.778054 0.000894
0.554316 0.778350 0.001190
0.588005 0.778646 0.001485
0.621690 0.778942 0.001781
0.654722 0.779232 0.002071
0.686868 0.779514 0.002354
0.719011 0.779796 0.002636
0.751149 0.780078 0.002918
0.783284 0.780360 0.003200
0.815415 0.780643 0.003482
0.847542 0.780925 0.003764
0.879666 0.781207 0.004046
0.910157 0.781474 0.004314
0.938123 0.781720 0.004560
0.966085 0.781966 0.004805
0.994044 0.782211 0.005051
1.000000 0.782457 0.005296
0.000000 0.805830 0.000000
0.019275 0.806090 0.000000
0.048938 0.806351 0.000000
0.078599 0.806611 0.000000
0.108256 0.806872 0.000000
0.143077 0.807177 0.000000
0.177975 0.807484 0.000000
0.212869 0.807790 0.000000
0.247759 0.808097 0.000000
0.282644 0.808403 0.000000
0.317525 0.808709 0.000041
0.352401 0.809015 0.000347
0.386747 0.809317 0.000649
0.420456 0.809613 0.000945
0.454162 0.809909 0.001241
0.487864 0.810205 0.001537
0.521561 0.810501 0.001833
0.555254 0.810797 0.002129
0.588944 0.811092 0.002424
0.622629 0.811388 0.002720
0.655661 0.811678 0.003010
0.687807 0.811960 0.003292
0.719950 0.812243 0.003575
0.752088 0.812525 0.003857
0.784223 0.812807 0.004139
0.816354 0.813089 0.004421
0.848481 0.813371 0.004703
0.880605 0.813653 0.004985
0.911096 0.813921 0.005253
0.939062 0.814167 0.005499
0.967024 0.814412 0.005744
0.994983 0.814658 0.005990
1.000000 0.814903 0.006235
0.000000 0.838273 0.000000
0.020214 0.838533 0.000000
0.049877 0.838793 0.000000
0.079538 0.839054 0.000000
0.109195 0.839314 0.000000
0.144016 0.839620 0.000000
0.178914 0.839926 0.000000
0.213808 0.840233 0.000061
0.248698 0.840539 0.000367
0.283583 0.840846 0.000674
0.318464 0.841152 0.000980
0.353340 0.841458 0.001286
0.387685 0.841760 0.001588
0.421395 0.842056 0.001884
0.455101 0.842352 0.002180
0.488803 0.842647 0.002476
0.522500 0.842943 0.002772
0.556193 0.843239 0.003067
0.589882 0.843535 0.003363
0.623567 0.843831 0.003659
0.656600 0.844121 0.003949
0.688746 0.844403 0.004231
0.720888 0.844685 0.004513
0.753027 0.844968 0.004796
0.785162 0.845250 0.005078
0.817293 0.845532 0.005360
