assets/ricoh/Ricoh_GR3_PS_Filter/LUT/GR3_Negative_Film.cube
TITLE "Ricoh GR III Negative Film"
LUT_3D_SIZE 9
DOMAIN_MIN 0.000000 0.000000 0.000000
DOMAIN_MAX 1.000000 1.000000 1.000000
0.080766 0.087469 0.090145
0.156754 0.089610 0.092286
0.262549 0.092591 0.095267
0.372068 0.095676 0.098352
0.488120 0.098946 0.101622
0.584018 0.101648 0.104324
0.675336 0.104221 0.106897
0.761250 0.106641 0.109317
0.850627 0.109159 0.111835
0.087732 0.165859 0.097111
0.163720 0.168000 0.099252
0.269514 0.170980 0.102232
0.379033 0.174066 0.105318
0.495085 0.177336 0.108588
0.590983 0.180038 0.111290
0.682302 0.182610 0.113862
0.768216 0.185031 0.116283
0.857592 0.187549 0.118801
0.097474 0.275489 0.106853
0.173462 0.277629 0.108994
0.279256 0.280610 0.111974
0.388775 0.283696 0.115060
0.504827 0.286965 0.118329
0.600725 0.289667 0.121031
0.692044 0.292240 0.123604
0.777958 0.294661 0.126025
0.867334 0.297179 0.128543
0.107613 0.389588 0.116992
0.183601 0.391728 0.119132
0.289395 0.394709 0.122113
0.398914 0.397795 0.125199
0.514966 0.401064 0.128468
0.610864 0.403766 0.131170
0.702183 0.406339 0.133743
0.788096 0.408760 0.136164
0.877473 0.411278 0.138682
0.118417 0.511178 0.127796
0.194405 0.513319 0.129937
0.300200 0.516299 0.132918
0.409719 0.519385 0.136003
0.525771 0.522655 0.139273
0.621669 0.525357 0.141975
0.712987 0.527929 0.144548
0.798901 0.530350 0.146968
0.888278 0.532868 0.149486
0.127394 0.612191 0.136772
0.203382 0.614332 0.138913
0.309176 0.617313 0.141894
0.418695 0.620399 0.144980
0.534747 0.623668 0.148249
0.630645 0.626370 0.150951
0.721964 0.628943 0.153524
0.807877 0.631363 0.155944
0.897254 0.633882 0.158462
0.135982 0.708840 0.145361
0.211970 0.710981 0.147502
0.317764 0.713962 0.150482
0.427283 0.717047 0.153568
0.543335 0.720317 0.156837
0.639233 0.723019 0.159539
0.730552 0.725591 0.162112
0.816466 0.728012 0.164533
0.905842 0.730530 0.167051
0.144099 0.800181 0.153477
0.220086 0.802322 0.155618
0.325881 0.805302 0.158599
0.435400 0.808388 0.161684
0.551452 0.811657 0.164954
0.647350 0.814359 0.167656
0.738669 0.816932 0.170229
0.824582 0.819353 0.172649
0.913959 0.821871 0.175167
0.152580 0.895632 0.161959
0.228568 0.897773 0.164100
0.334363 0.900754 0.167081
0.443882 0.903840 0.170166
0.559934 0.907109 0.173436
0.655832 0.909811 0.176138
0.747150 0.912384 0.178711
0.833064 0.914804 0.181131
0.922441 0.917323 0.183649
0.081451 0.088154 0.160379
0.157439 0.090295 0.162520
0.263233 0.093276 0.165501
0.372752 0.096361 0.168586
0.488804 0.099631 0.171856
0.584702 0.102333 0.174558
0.676021 0.104906 0.177131
0.761935 0.107326 0.179551
0.851311 0.109844 0.182069
0.088417 0.166544 0.167345
0.164405 0.168685 0.169486
0.270199 0.171665 0.172466
0.379718 0.174751 0.175552
0.495770 0.178020 0.178822
0.591668 0.180722 0.181524
0.682987 0.183295 0.184096
0.768900 0.185716 0.186517
0.858277 0.188234 0.189035
0.098159 0.276173 0.177087
0.174147 0.278314 0.179228
0.279941 0.281295 0.182208
0.389460 0.284380 0.185294
0.505512 0.287650 0.188564
0.601410 0.290352 0.191265
0.692729 0.292925 0.193838
0.778642 0.295345 0.196259
0.868019 0.297863 0.198777
0.108298 0.390272 0.187226
0.184286 0.392413 0.189367
0.290080 0.395394 0.192347
0.399599 0.398479 0.195433
0.515651 0.401749 0.198702
0.611549 0.404451 0.201404
0.702868 0.407024 0.203977
0.788781 0.409444 0.206398
0.878158 0.411962 0.208916
0.119102 0.511863 0.198030
0.195090 0.514004 0.200171
0.300885 0.516984 0.203152
0.410404 0.520070 0.206237
0.526455 0.523339 0.209507
0.622353 0.526041 0.212209
0.713672 0.528614 0.214782
0.799586 0.531035 0.217202
0.888963 0.533553 0.219720
0.128078 0.612876 0.207006
0.204066 0.615017 0.209147
0.309861 0.617998 0.212128
0.419380 0.621083 0.215214
0.535432 0.624353 0.218483
0.631330 0.627055 0.221185
0.722648 0.629628 0.223758
0.808562 0.632048 0.226178
0.897939 0.634566 0.228697
0.136667 0.709525 0.215595
0.212655 0.711666 0.217736
0.318449 0.714646 0.220716
0.427968 0.717732 0.223802
0.544020 0.721002 0.227072
0.639918 0.723703 0.229773
0.731237 0.726276 0.232346
0.817150 0.728697 0.234767
0.906527 0.731215 0.237285
0.144783 0.800865 0.223711
0.220771 0.803006 0.225852
0.326566 0.805987 0.228833
0.436085 0.809073 0.231918
0.552136 0.812342 0.235188
0.648034 0.815044 0.237890
0.739353 0.817617 0.240463
0.825267 0.820037 0.242883
0.914644 0.822556 0.245401
0.153265 0.896317 0.232193
0.229253 0.898458 0.234334
0.335047 0.901439 0.237315
0.444567 0.904524 0.240400
0.560618 0.907794 0.243670
0.656516 0.910496 0.246372
0.747835 0.913069 0.248945
0.833749 0.915489 0.251365
0.923126 0.918007 0.253883
0.082411 0.089114 0.258820
0.158399 0.091255 0.260961
0.264193 0.094235 0.263942
0.373712 0.097321 0.267027
0.489764 0.100591 0.270297
0.585662 0.103292 0.272999
0.676981 0.105865 0.275572
0.762894 0.108286 0.277992
0.852271 0.110804 0.280510
0.089377 0.167503 0.265786
0.165365 0.169644 0.267927
0.271159 0.172625 0.270908
0.380678 0.175711 0.273993
0.496730 0.178980 0.277263
0.592628 0.181682 0.279965
0.683947 0.184255 0.282537
0.769860 0.186675 0.284958
0.859237 0.189194 0.287476
0.099118 0.277133 0.275528
0.175106 0.279274 0.277669
0.280901 0.282255 0.280649
0.390420 0.285340 0.283735
0.506472 0.288610 0.287005
0.602370 0.291312 0.289706
0.693688 0.293885 0.292279
0.779602 0.296305 0.294700
0.868979 0.298823 0.297218
0.109257 0.391232 0.285667
0.185245 0.393373 0.287808
0.291040 0.396354 0.290788
0.400559 0.399439 0.293874
0.516611 0.402709 0.297143
0.612509 0.405411 0.299845
0.703827 0.407983 0.302418
0.789741 0.410404 0.304839
0.879118 0.412922 0.307357
0.120062 0.512822 0.296471
0.196050 0.514963 0.298612
0.301844 0.517944 0.301593
0.411363 0.521030 0.304678
0.527415 0.524299 0.307948
0.623313 0.527001 0.310650
0.714632 0.529574 0.313223
0.800546 0.531994 0.315643
0.889922 0.534513 0.318161
0.129038 0.613836 0.305447
0.205026 0.615977 0.307588
0.310820 0.618957 0.310569
0.420339 0.622043 0.313655
0.536391 0.625313 0.316924
0.632289 0.628015 0.319626
0.723608 0.630587 0.322199
0.809522 0.633008 0.324619
0.898899 0.635526 0.327138
0.137626 0.710484 0.314036
0.213614 0.712625 0.316177
0.319409 0.715606 0.319157
0.428928 0.718692 0.322243
0.544980 0.721961 0.325513
0.640878 0.724663 0.328214
0.732196 0.727236 0.330787
0.818110 0.729656 0.333208
0.907487 0.732175 0.335726
0.145743 0.801825 0.322152
0.221731 0.803966 0.324293
0.327525 0.806947 0.327274
0.437044 0.810032 0.330360
0.553096 0.813302 0.333629
0.648994 0.816004 0.336331
0.740313 0.818577 0.338904
0.826227 0.820997 0.341324
0.915603 0.823515 0.343842
0.154225 0.897277 0.330634
0.230213 0.899418 0.332775
0.336007 0.902398 0.335756
0.445526 0.905484 0.338841
0.561578 0.908754 0.342111
0.657476 0.911456 0.344813
0.748795 0.914028 0.347386
0.834709 0.916449 0.349806
0.924085 0.918967 0.352324
0.083412 0.090115 0.361542
0.159400 0.092256 0.363683
0.265195 0.095237 0.366664
0.374714 0.098322 0.369749
0.490766 0.101592 0.373019
0.586664 0.104294 0.375721
0.677982 0.106867 0.378294
0.763896 0.109287 0.380714
0.853273 0.111805 0.383232
0.090378 0.168505 0.368508
0.166366 0.170646 0.370649
0.272160 0.173626 0.373630
0.381679 0.176712 0.376715
0.497731 0.179982 0.379985
0.593629 0.182684 0.382687
0.684948 0.185256 0.385260
0.770862 0.187677 0.387680
0.860238 0.190195 0.390198
0.100120 0.278135 0.378250
0.176108 0.280275 0.380391
0.281902 0.283256 0.383371
0.391421 0.286342 0.386457
0.507473 0.289611 0.389727
0.603371 0.292313 0.392429
0.694690 0.294886 0.395001
0.780604 0.297307 0.397422
0.869980 0.299825 0.399940
0.110259 0.392234 0.388389
0.186247 0.394374 0.390530
0.292041 0.397355 0.393510
0.401560 0.400441 0.396596
0.517612 0.403710 0.399866
0.613510 0.406412 0.402567
0.704829 0.408985 0.405140
0.790742 0.411406 0.407561
0.880119 0.413924 0.410079
0.121063 0.513824 0.399193
0.197051 0.515965 0.401334
0.302846 0.518945 0.404315
0.412365 0.522031 0.407401
0.528417 0.525301 0.410670
0.624315 0.528003 0.413372
0.715633 0.530575 0.415945
0.801547 0.532996 0.418365
0.890924 0.535514 0.420884
0.130040 0.614837 0.408170
0.206028 0.616978 0.410310
0.311822 0.619959 0.413291
0.421341 0.623045 0.416377
0.537393 0.626314 0.419646
0.633291 0.629016 0.422348
0.724610 0.631589 0.424921
0.810523 0.634009 0.427342
0.899900 0.636528 0.429860
0.138628 0.711486 0.416758
0.214616 0.713627 0.418899
0.320410 0.716607 0.421879
0.429929 0.719693 0.424965
0.545981 0.722963 0.428235
0.641879 0.725665 0.430937
0.733198 0.728237 0.433509
0.819112 0.730658 0.435930
0.908488 0.733176 0.438448
0.146744 0.802827 0.424874
0.222732 0.804968 0.427015
0.328527 0.807948 0.429996
0.438046 0.811034 0.433082
0.554098 0.814303 0.436351
0.649996 0.817005 0.439053
0.741315 0.819578 0.441626
0.827228 0.821999 0.444047
0.916605 0.824517 0.446565
0.155226 0.898278 0.433356
0.231214 0.900419 0.435497
0.337009 0.903400 0.438478
0.446528 0.906486 0.441564
0.562580 0.909755 0.444833
0.658478 0.912457 0.447535
0.749796 0.915030 0.450108
0.835710 0.917450 0.452528
0.925087 0.919969 0.455047
0.084482 0.091185 0.471308
0.160470 0.093326 0.473449
0.266265 0.096307 0.476430
0.375784 0.099393 0.479516
0.491836 0.102662 0.482785
0.587734 0.105364 0.485487
0.679053 0.107937 0.488060
0.764966 0.110358 0.490480
0.854343 0.112876 0.492999
0.091448 0.169575 0.478274
0.167436 0.171716 0.480415
0.273231 0.174697 0.483396
0.382750 0.177782 0.486481
0.498801 0.181052 0.489751
0.594699 0.183754 0.492453
0.686018 0.186327 0.495026
0.771932 0.188747 0.497446
0.861309 0.191265 0.499964
0.101190 0.279205 0.488016
0.177178 0.281346 0.490157
0.282972 0.284326 0.493138
0.392491 0.287412 0.496223
0.508543 0.290681 0.499493
0.604441 0.293383 0.502195
0.695760 0.295956 0.504767
0.781674 0.298377 0.507188
0.871050 0.300895 0.509706
0.111329 0.393304 0.498155
0.187317 0.395445 0.500296
0.293111 0.398425 0.503276
0.402630 0.401511 0.506362
0.518682 0.404780 0.509632
0.614580 0.407482 0.512334
0.705899 0.410055 0.514906
0.791813 0.412476 0.517327
0.881189 0.414994 0.519845
0.122134 0.514894 0.508960
0.198122 0.517035 0.511100
0.303916 0.520016 0.514081
0.413435 0.523101 0.517167
0.529487 0.526371 0.520436
0.625385 0.529073 0.523138
0.716704 0.531646 0.525711
0.802617 0.534066 0.528132
0.891994 0.536584 0.530650
0.131110 0.615908 0.517936
0.207098 0.618048 0.520077
0.312892 0.621029 0.523057
0.422411 0.624115 0.526143
0.538463 0.627384 0.529412
0.634361 0.630086 0.532114
0.725680 0.632659 0.534687
0.811593 0.635080 0.537108
0.900970 0.637598 0.539626
0.139698 0.712556 0.526524
0.215686 0.714697 0.528665
0.321480 0.717678 0.531646
0.430999 0.720763 0.534731
0.547051 0.724033 0.538001
0.642949 0.726735 0.540703
0.734268 0.729308 0.543275
0.820182 0.731728 0.545696
0.909558 0.734246 0.548214
0.147815 0.803897 0.534641
0.223803 0.806038 0.536781
0.329597 0.809018 0.539762
0.439116 0.812104 0.542848
0.555168 0.815374 0.546117
0.651066 0.818075 0.548819
0.742385 0.820648 0.551392
0.828298 0.823069 0.553813
0.917675 0.825587 0.556331
0.156297 0.899349 0.543123
0.232285 0.901489 0.545263
0.338079 0.904470 0.548244
0.447598 0.907556 0.551330
0.563650 0.910825 0.554599
0.659548 0.913527 0.557301
0.750867 0.916100 0.559874
0.836780 0.918521 0.562295
0.926157 0.921039 0.564813
0.085374 0.092077 0.562733
0.161362 0.094218 0.564874
0.267156 0.097198 0.567854
0.376675 0.100284 0.570940
0.492727 0.103554 0.574210
0.588625 0.106255 0.576911
0.679944 0.108828 0.579484
0.765857 0.111249 0.581905
0.855234 0.113767 0.584423
0.092340 0.170466 0.569699
0.168328 0.172607 0.571839
0.274122 0.175588 0.574820
0.383641 0.178674 0.577906
0.499693 0.181943 0.581175
0.595591 0.184645 0.583877
0.686910 0.187218 0.586450
0.772823 0.189638 0.588871
0.862200 0.192157 0.591389
0.102081 0.280096 0.579440
0.178069 0.282237 0.581581
0.283864 0.285218 0.584562
0.393383 0.288303 0.587648
0.509435 0.291573 0.590917
0.605333 0.294275 0.593619
0.696651 0.296847 0.596192
0.782565 0.299268 0.598612
0.871942 0.301786 0.601130
0.112220 0.394195 0.589579
0.188208 0.396336 0.591720
0.294003 0.399317 0.594701
0.403522 0.402402 0.597786
0.519574 0.405672 0.601056
0.615472 0.408374 0.603758
0.706790 0.410946 0.606331
0.792704 0.413367 0.608751
0.882081 0.415885 0.611269
0.123025 0.515785 0.600384
0.199013 0.517926 0.602525
0.304807 0.520907 0.605505
0.414326 0.523993 0.608591
0.530378 0.527262 0.611861
0.626276 0.529964 0.614563
0.717595 0.532537 0.617135
0.803509 0.534957 0.619556
0.892885 0.537476 0.622074
0.132001 0.616799 0.609360
0.207989 0.618940 0.611501
0.313783 0.621920 0.614482
0.423302 0.625006 0.617567
0.539354 0.628276 0.620837
0.635252 0.630978 0.623539
0.726571 0.633550 0.626112
0.812485 0.635971 0.628532
0.901861 0.638489 0.631050
0.140589 0.713447 0.617948
0.216577 0.715588 0.620089
0.322372 0.718569 0.623070
0.431891 0.721655 0.626156
0.547943 0.724924 0.629425
0.643841 0.727626 0.632127
0.735159 0.730199 0.634700
0.821073 0.732619 0.637120
0.910450 0.735138 0.639638
0.148706 0.804788 0.626065
0.224694 0.806929 0.628206
0.330488 0.809910 0.631187
0.440007 0.812995 0.634272
0.556059 0.816265 0.637542
0.651957 0.818967 0.640244
0.743276 0.821540 0.642816
0.829190 0.823960 0.645237
0.918566 0.826478 0.647755
0.157188 0.900240 0.634547
0.233176 0.902381 0.636688
0.338970 0.905361 0.639668
0.448489 0.908447 0.642754
0.564541 0.911717 0.646024
0.660439 0.914419 0.648726
0.751758 0.916991 0.651298
0.837672 0.919412 0.653719
0.927048 0.921930 0.656237
0.086229 0.092932 0.650405
0.162217 0.095072 0.652546
0.268011 0.098053 0.655526
0.377530 0.101139 0.658612
0.493582 0.104408 0.661882
0.589480 0.107110 0.664583
0.680799 0.109683 0.667156
0.766712 0.112104 0.669577
0.856089 0.114622 0.672095
0.093194 0.171321 0.657371
0.169182 0.173462 0.659511
0.274977 0.176443 0.662492
0.384496 0.179528 0.665578
0.500548 0.182798 0.668847
0.596446 0.185500 0.671549
0.687764 0.188073 0.674122
0.773678 0.190493 0.676543
0.863055 0.193011 0.679061
0.102936 0.280951 0.667112
0.178924 0.283092 0.669253
0.284718 0.286072 0.672234
0.394237 0.289158 0.675320
0.510289 0.292428 0.678589
0.606187 0.295129 0.681291
0.697506 0.297702 0.683864
0.783420 0.300123 0.686284
0.872797 0.302641 0.688802
0.113075 0.395050 0.677251
0.189063 0.397191 0.679392
0.294857 0.400171 0.682373
0.404376 0.403257 0.685458
0.520428 0.406527 0.688728
0.616326 0.409228 0.691430
0.707645 0.411801 0.694003
0.793559 0.414222 0.696423
0.882935 0.416740 0.698941
0.123880 0.516640 0.688056
0.199868 0.518781 0.690197
0.305662 0.521762 0.693177
0.415181 0.524847 0.696263
0.531233 0.528117 0.699533
0.627131 0.530819 0.702235
0.718450 0.533392 0.704807
0.804363 0.535812 0.707228
0.893740 0.538330 0.709746
0.132856 0.617654 0.697032
0.208844 0.619795 0.699173
0.314638 0.622775 0.702154
0.424157 0.625861 0.705239
0.540209 0.629130 0.708509
0.636107 0.631832 0.711211
0.727426 0.634405 0.713784
0.813339 0.636826 0.716204
0.902716 0.639344 0.718722
0.141444 0.714302 0.705620
0.217432 0.716443 0.707761
0.323226 0.719424 0.710742
0.432745 0.722509 0.713828
0.548797 0.725779 0.717097
0.644695 0.728481 0.719799
0.736014 0.731054 0.722372
0.821928 0.733474 0.724792
0.911305 0.735992 0.727310
0.149561 0.805643 0.713737
0.225549 0.807784 0.715878
0.331343 0.810764 0.718859
0.440862 0.813850 0.721944
0.556914 0.817120 0.725214
0.652812 0.819822 0.727916
0.744131 0.822394 0.730488
0.830044 0.824815 0.732909
0.919421 0.827333 0.735427
0.158043 0.901095 0.722219
0.234031 0.903236 0.724360
0.339825 0.906216 0.727340
0.449344 0.909302 0.730426
0.565396 0.912571 0.733696
0.661294 0.915273 0.736398
0.752613 0.917846 0.738970
0.838526 0.920267 0.741391
0.927903 0.922785 0.743909
0.087038 0.093741 0.733440
0.163026 0.095882 0.735580
0.268820 0.098863 0.738561
0.378339 0.101948 0.741647
0.494391 0.105218 0.744916
0.590289 0.107920 0.747618
0.681608 0.110493 0.750191
0.767522 0.112913 0.752612
0.856899 0.115431 0.755130
0.094004 0.172131 0.740405
0.169992 0.174272 0.742546
0.275786 0.177252 0.745527
0.385305 0.180338 0.748612
0.501357 0.183607 0.751882
0.597255 0.186309 0.754584
0.688574 0.188882 0.757157
0.774488 0.191303 0.759577
0.863864 0.193821 0.762095
0.103746 0.281760 0.750147
0.179734 0.283901 0.752288
0.285528 0.286882 0.755269
0.395047 0.289967 0.758354
0.511099 0.293237 0.761624
0.606997 0.295939 0.764326
0.698316 0.298512 0.766899
0.784229 0.300932 0.769319
0.873606 0.303450 0.771837
0.113885 0.395859 0.760286
0.189873 0.398000 0.762427
0.295667 0.400981 0.765408
0.405186 0.404066 0.768493
0.521238 0.407336 0.771763
0.617136 0.410038 0.774465
0.708455 0.412611 0.777037
0.794368 0.415031 0.779458
0.883745 0.417549 0.781976
0.124689 0.517450 0.771091
0.200677 0.519591 0.773232
0.306472 0.522571 0.776212
0.415991 0.525657 0.779298
0.532042 0.528927 0.782567
0.627940 0.531628 0.785269
0.719259 0.534201 0.787842
0.805173 0.536622 0.790263
0.894550 0.539140 0.792781
0.133665 0.618463 0.780067
0.209653 0.620604 0.782208
0.315448 0.623585 0.785188
0.424967 0.626670 0.788274
0.541019 0.629940 0.791544
0.636917 0.632642 0.794245
0.728235 0.635215 0.796818
0.814149 0.637635 0.799239
0.903526 0.640153 0.801757
0.142254 0.715112 0.788655
0.218242 0.717253 0.790796
0.324036 0.720233 0.793777
0.433555 0.723319 0.796862
0.549607 0.726589 0.800132
0.645505 0.729290 0.802834
0.736824 0.731863 0.805407
0.822737 0.734284 0.807827
0.912114 0.736802 0.810345
0.150370 0.806452 0.796772
0.226358 0.808593 0.798913
0.332153 0.811574 0.801893
0.441672 0.814660 0.804979
0.557723 0.817929 0.808248
0.653622 0.820631 0.810950
0.744940 0.823204 0.813523
0.830854 0.825624 0.815944
0.920231 0.828143 0.818462
0.158852 0.901904 0.805254
0.234840 0.904045 0.807395
0.340635 0.907026 0.810375
0.450154 0.910111 0.813461
0.566205 0.913381 0.816730
0.662103 0.916083 0.819432
0.753422 0.918656 0.822005
0.839336 0.921076 0.824426
0.928713 0.923594 0.826944
0.087886 0.094589 0.820395
0.163874 0.096730 0.822536
0.269668 0.099710 0.825517
0.379187 0.102796 0.828602
0.495239 0.106066 0.831872
0.591137 0.108768 0.834574
0.682456 0.111340 0.837147
0.768370 0.113761 0.839567
0.857746 0.116279 0.842085
0.094852 0.172978 0.827361
0.170840 0.175119 0.829502
0.276634 0.178100 0.832483
0.386153 0.181186 0.835568
0.502205 0.184455 0.838838
0.598103 0.187157 0.841540
0.689422 0.189730 0.844113
0.775335 0.192150 0.846533
0.864712 0.194669 0.849051
0.104593 0.282608 0.837103
0.180581 0.284749 0.839244
0.286376 0.287730 0.842224
0.395895 0.290815 0.845310
0.511947 0.294085 0.848580
0.607845 0.296787 0.851282
0.699163 0.299360 0.853854
0.785077 0.301780 0.856275
0.874454 0.304298 0.858793
0.114732 0.396707 0.847242
0.190720 0.398848 0.849383
0.296515 0.401829 0.852363
0.406034 0.404914 0.855449
0.522086 0.408184 0.858719
0.617984 0.410886 0.861420
0.709302 0.413459 0.863993
0.795216 0.415879 0.866414
0.884593 0.418397 0.868932
0.125537 0.518297 0.858046
0.201525 0.520438 0.860187
0.307319 0.523419 0.863168
0.416838 0.526505 0.866254
0.532890 0.529774 0.869523
0.628788 0.532476 0.872225
0.720107 0.535049 0.874798
0.806021 0.537469 0.877218
0.895397 0.539988 0.879737
0.134513 0.619311 0.867023
0.210501 0.621452 0.869163
0.316295 0.624433 0.872144
0.425814 0.627518 0.875230
0.541866 0.630788 0.878499
0.637764 0.633490 0.881201
0.729083 0.636062 0.883774
0.814997 0.638483 0.886195
0.904374 0.641001 0.888713
0.143101 0.715960 0.875611
0.219089 0.718100 0.877752
0.324884 0.721081 0.880732
0.434403 0.724167 0.883818
0.550455 0.727436 0.887088
0.646353 0.730138 0.889790
0.737671 0.732711 0.892362
0.823585 0.735132 0.894783
0.912962 0.737650 0.897301
0.151218 0.807300 0.883727
0.227206 0.809441 0.885868
0.333000 0.812422 0.888849
0.442519 0.815507 0.891935
0.558571 0.818777 0.895204
0.654469 0.821479 0.897906
0.745788 0.824052 0.900479
0.831702 0.826472 0.902900
0.921078 0.828990 0.905418
0.159700 0.902752 0.892209
0.235688 0.904893 0.894350
0.341482 0.907874 0.897331
0.451001 0.910959 0.900417
0.567053 0.914229 0.903686
0.662951 0.916931 0.906388
0.754270 0.919503 0.908961
0.840184 0.921924 0.911381
0.929560 0.924442 0.913900
