assets/ricoh/Ricoh_GR3_PS_Filter/LUT/GR3_Positive_Film.cube
TITLE "Ricoh GR III Positive Film"
LUT_3D_SIZE 9
DOMAIN_MIN 0.000000 0.000000 0.000000
DOMAIN_MAX 1.000000 1.000000 1.000000
0.000000 0.000000 0.000000
0.014907 0.000000 0.000000
0.152092 0.000000 0.000000
0.308675 0.000000 0.000000
0.471553 0.000000 0.000000
0.616192 0.000000 0.000000
0.758420 0.000000 0.000000
0.861042 0.000000 0.000000
0.961188 0.000000 0.000000
0.000000 0.030543 0.000000
0.020118 0.032166 0.000000
0.157302 0.034327 0.000000
0.313886 0.036793 0.000000
0.476764 0.039359 0.000000
0.621403 0.041637 0.000000
0.763631 0.043877 0.000000
0.866253 0.045493 0.000000
0.966399 0.047070 0.000000
0.000000 0.166914 0.000000
0.027084 0.168537 0.000000
0.164269 0.170698 0.000000
0.320852 0.173164 0.000000
0.483730 0.175730 0.000000
0.628369 0.178008 0.000000
0.770597 0.180248 0.000000
0.873219 0.181864 0.000000
0.973365 0.183441 0.000000
0.000000 0.323394 0.000000
0.035078 0.325018 0.000000
0.172262 0.327178 0.000000
0.328845 0.329644 0.000000
0.491724 0.332210 0.000000
0.636362 0.334488 0.000000
0.778591 0.336728 0.000000
0.881213 0.338344 0.000000
0.981359 0.339922 0.000000
0.000000 0.487110 0.000000
0.043440 0.488733 0.000000
0.180625 0.490893 0.000000
0.337208 0.493360 0.000000
0.500087 0.495925 0.000000
0.644725 0.498203 0.000000
0.786954 0.500443 0.000000
0.889576 0.502059 0.000000
0.989722 0.503637 0.000000
0.000000 0.633308 0.000000
0.050909 0.634931 0.000000
0.188093 0.637092 0.000000
0.344676 0.639558 0.000000
0.507555 0.642123 0.000000
0.652194 0.644401 0.000000
0.794422 0.646641 0.000000
0.897044 0.648258 0.000000
0.997190 0.649835 0.000000
0.000000 0.777827 0.000000
0.058291 0.779450 0.000000
0.195475 0.781611 0.000000
0.352059 0.784077 0.000000
0.514937 0.786643 0.000000
0.659576 0.788921 0.000000
0.801804 0.791161 0.000000
0.904426 0.792777 0.000000
1.000000 0.794354 0.000000
0.000000 0.882573 0.000000
0.063642 0.884197 0.000000
0.200826 0.886357 0.000000
0.357409 0.888823 0.000000
0.520288 0.891389 0.000000
0.664927 0.893667 0.000000
0.807155 0.895907 0.001245
0.909777 0.897523 0.002862
1.000000 0.899101 0.004439
0.000000 0.985177 0.000000
0.068883 0.986800 0.000000
0.206067 0.988961 0.000000
0.362651 0.991427 0.000000
0.525529 0.993992 0.001968
0.670168 0.996270 0.004246
0.812396 0.998511 0.006486
0.915018 1.000000 0.008103
1.000000 1.000000 0.009680
0.000000 0.000000 0.033279
0.015416 0.000000 0.034902
0.152600 0.000000 0.037063
0.309183 0.000000 0.039529
0.472062 0.000000 0.042095
0.616701 0.000000 0.044373
0.758929 0.000000 0.046613
0.861551 0.000000 0.048229
0.961697 0.000000 0.049806
0.000000 0.031052 0.038490
0.020627 0.032675 0.040113
0.157811 0.034836 0.042274
0.314394 0.037302 0.044740
0.477273 0.039867 0.047305
0.621911 0.042145 0.049584
0.764140 0.044385 0.051824
0.866762 0.046002 0.053440
0.966908 0.047579 0.055017
0.000000 0.167423 0.045456
0.027593 0.169046 0.047079
0.164777 0.171207 0.049240
0.321360 0.173673 0.051706
0.484239 0.176238 0.054272
0.628878 0.178516 0.056550
0.771106 0.180756 0.058790
0.873728 0.182373 0.060406
0.973874 0.183950 0.061983
0.000000 0.323903 0.053450
0.035586 0.325526 0.055073
0.172771 0.327687 0.057233
0.329354 0.330153 0.059700
0.492232 0.332718 0.062265
0.636871 0.334996 0.064543
0.779099 0.337237 0.066783
0.881721 0.338853 0.068400
0.981867 0.340430 0.069977
0.000000 0.487618 0.061813
0.043949 0.489241 0.063436
0.181134 0.491402 0.065596
0.337717 0.493868 0.068063
0.500595 0.496434 0.070628
0.645234 0.498712 0.072906
0.787462 0.500952 0.075146
0.890084 0.502568 0.076762
0.990230 0.504145 0.078340
0.000000 0.633816 0.069281
0.051417 0.635440 0.070904
0.188602 0.637600 0.073065
0.345185 0.640066 0.075531
0.508063 0.642632 0.078096
0.652702 0.644910 0.080374
0.794930 0.647150 0.082614
0.897552 0.648766 0.084231
0.997699 0.650344 0.085808
0.000000 0.778336 0.076663
0.058800 0.779959 0.078286
0.195984 0.782120 0.080447
0.352567 0.784586 0.082913
0.515446 0.787151 0.085479
0.660085 0.789429 0.087757
0.802313 0.791669 0.089997
0.904935 0.793286 0.091613
1.000000 0.794863 0.093190
0.000000 0.883082 0.082014
0.064150 0.884705 0.083637
0.201335 0.886866 0.085798
0.357918 0.889332 0.088264
0.520796 0.891897 0.090829
0.665435 0.894176 0.093107
0.807663 0.896416 0.095347
0.910285 0.898032 0.096964
1.000000 0.899609 0.098541
0.000000 0.985686 0.087255
0.069392 0.987309 0.088878
0.206576 0.989469 0.091039
0.363159 0.991936 0.093505
0.526038 0.994501 0.096070
0.670676 0.996779 0.098349
0.812905 0.999019 0.100589
0.915527 1.000000 0.102205
1.000000 1.000000 0.103782
0.000000 0.000000 0.159432
0.016098 0.000000 0.161055
0.153282 0.000000 0.163216
0.309865 0.000000 0.165682
0.472744 0.000000 0.168248
0.617382 0.000000 0.170526
0.759611 0.000000 0.172766
0.862233 0.000000 0.174382
0.962379 0.000000 0.175959
0.000000 0.031734 0.164643
0.021308 0.033357 0.166266
0.158493 0.035518 0.168427
0.315076 0.037984 0.170893
0.477955 0.040549 0.173459
0.622593 0.042827 0.175737
0.764822 0.045067 0.177977
0.867444 0.046684 0.179593
0.967590 0.048261 0.181170
0.000000 0.168105 0.171609
0.028275 0.169728 0.173232
0.165459 0.171889 0.175393
0.322042 0.174355 0.177859
0.484921 0.176920 0.180425
0.629560 0.179198 0.182703
0.771788 0.181438 0.184943
0.874410 0.183055 0.186559
0.974556 0.184632 0.188136
0.000000 0.324585 0.179603
0.036268 0.326208 0.181226
0.173452 0.328369 0.183387
0.330036 0.330835 0.185853
0.492914 0.333400 0.188418
0.637553 0.335678 0.190696
0.779781 0.337918 0.192936
0.882403 0.339535 0.194553
0.982549 0.341112 0.196130
0.000000 0.488300 0.187966
0.044631 0.489923 0.189589
0.181815 0.492084 0.191749
0.338399 0.494550 0.194216
0.501277 0.497115 0.196781
0.645916 0.499394 0.199059
0.788144 0.501634 0.201299
0.890766 0.503250 0.202916
0.990912 0.504827 0.204493
0.000000 0.634498 0.195434
0.052099 0.636121 0.197057
0.189284 0.638282 0.199218
0.345867 0.640748 0.201684
0.508745 0.643314 0.204249
0.653384 0.645592 0.206527
0.795612 0.647832 0.208767
0.898234 0.649448 0.210384
0.998380 0.651026 0.211961
0.000000 0.779018 0.202816
0.059482 0.780641 0.204439
0.196666 0.782802 0.206600
0.353249 0.785268 0.209066
0.516128 0.787833 0.211632
0.660766 0.790111 0.213910
0.802995 0.792351 0.216150
0.905617 0.793968 0.217766
1.000000 0.795545 0.219343
0.000000 0.883764 0.208167
0.064832 0.885387 0.209790
0.202017 0.887548 0.211951
0.358600 0.890014 0.214417
0.521478 0.892579 0.216982
0.666117 0.894857 0.219260
0.808345 0.897097 0.221500
0.910967 0.898714 0.223117
1.000000 0.900291 0.224694
0.000000 0.986367 0.213408
0.070073 0.987991 0.215031
0.207258 0.990151 0.217192
0.363841 0.992617 0.219658
0.526720 0.995183 0.222223
0.671358 0.997461 0.224502
0.813587 0.999701 0.226742
0.916208 1.000000 0.228358
1.000000 1.000000 0.229935
0.000000 0.000000 0.304681
0.016883 0.000000 0.306305
0.154067 0.000000 0.308465
0.310650 0.000000 0.310932
0.473529 0.000000 0.313497
0.618168 0.000000 0.315775
0.760396 0.000000 0.318015
0.863018 0.000000 0.319631
0.963164 0.000000 0.321209
0.000000 0.032519 0.309892
0.022094 0.034142 0.311516
0.159278 0.036303 0.313676
0.315861 0.038769 0.316142
0.478740 0.041334 0.318708
0.623378 0.043612 0.320986
0.765607 0.045852 0.323226
0.868229 0.047469 0.324842
0.968375 0.049046 0.326420
0.000000 0.168890 0.316858
0.029060 0.170513 0.318482
0.166244 0.172674 0.320642
0.322827 0.175140 0.323109
0.485706 0.177705 0.325674
0.630345 0.179983 0.327952
0.772573 0.182223 0.330192
0.875195 0.183840 0.331808
0.975341 0.185417 0.333386
0.000000 0.325370 0.324852
0.037053 0.326993 0.326475
0.174237 0.329154 0.328636
0.330821 0.331620 0.331102
0.493699 0.334185 0.333667
0.638338 0.336463 0.335945
0.780566 0.338704 0.338185
0.883188 0.340320 0.339802
0.983334 0.341897 0.341379
0.000000 0.489085 0.333215
0.045416 0.490708 0.334838
0.182600 0.492869 0.336999
0.339184 0.495335 0.339465
0.502062 0.497901 0.342030
0.646701 0.500179 0.344308
0.788929 0.502419 0.346548
0.891551 0.504035 0.348165
0.991697 0.505612 0.349742
0.000000 0.635283 0.340683
0.052884 0.636907 0.342306
0.190069 0.639067 0.344467
0.346652 0.641533 0.346933
0.509530 0.644099 0.349498
0.654169 0.646377 0.351776
0.796397 0.648617 0.354017
0.899019 0.650233 0.355633
0.999165 0.651811 0.357210
0.000000 0.779803 0.348065
0.060267 0.781426 0.349689
0.197451 0.783587 0.351849
0.354034 0.786053 0.354315
0.516913 0.788618 0.356881
0.661551 0.790896 0.359159
0.803780 0.793136 0.361399
0.906402 0.794753 0.363015
1.000000 0.796330 0.364593
0.000000 0.884549 0.353416
0.065617 0.886172 0.355039
0.202802 0.888333 0.357200
0.359385 0.890799 0.359666
0.522263 0.893364 0.362231
0.666902 0.895642 0.364510
0.809130 0.897883 0.366750
0.911752 0.899499 0.368366
1.000000 0.901076 0.369943
0.000000 0.987152 0.358657
0.070859 0.988776 0.360280
0.208043 0.990936 0.362441
0.364626 0.993403 0.364907
0.527505 0.995968 0.367473
0.672143 0.998246 0.369751
0.814372 1.000000 0.371991
0.916994 1.000000 0.373607
1.000000 1.000000 0.375185
0.000000 0.000000 0.457209
0.017707 0.000000 0.458832
0.154892 0.000000 0.460993
0.311475 0.000000 0.463459
0.474353 0.000000 0.466024
0.618992 0.000000 0.468302
0.761220 0.000000 0.470542
0.863842 0.000000 0.472159
0.963988 0.000000 0.473736
0.000000 0.033343 0.462420
0.022918 0.034966 0.464043
0.160102 0.037127 0.466203
0.316686 0.039593 0.468670
0.479564 0.042159 0.471235
0.624203 0.044437 0.473513
0.766431 0.046677 0.475753
0.869053 0.048293 0.477369
0.969199 0.049870 0.478947
0.000000 0.169714 0.469386
0.029884 0.171337 0.471009
0.167069 0.173498 0.473170
0.323652 0.175964 0.475636
0.486530 0.178530 0.478201
0.631169 0.180808 0.480479
0.773397 0.183048 0.482719
0.876019 0.184664 0.484336
0.976165 0.186241 0.485913
0.000000 0.326194 0.477379
0.037878 0.327817 0.479002
0.175062 0.329978 0.481163
0.331645 0.332444 0.483629
0.494524 0.335010 0.486194
0.639162 0.337288 0.488473
0.781391 0.339528 0.490713
0.884013 0.341144 0.492329
0.984159 0.342722 0.493906
0.000000 0.489910 0.485742
0.046240 0.491533 0.487365
0.183425 0.493693 0.489526
0.340008 0.496160 0.491992
0.502887 0.498725 0.494557
0.647525 0.501003 0.496836
0.789754 0.503243 0.499076
0.892375 0.504859 0.500692
0.992522 0.506437 0.502269
0.000000 0.636108 0.493210
0.053709 0.637731 0.494833
0.190893 0.639892 0.496994
0.347476 0.642358 0.499460
0.510355 0.644923 0.502026
0.654993 0.647201 0.504304
0.797222 0.649441 0.506544
0.899844 0.651058 0.508160
0.999990 0.652635 0.509737
0.000000 0.780627 0.500593
0.061091 0.782250 0.502216
0.198275 0.784411 0.504376
0.354859 0.786877 0.506843
0.517737 0.789443 0.509408
0.662376 0.791721 0.511686
0.804604 0.793961 0.513926
0.907226 0.795577 0.515542
1.000000 0.797154 0.517120
0.000000 0.885373 0.505943
0.066442 0.886997 0.507566
0.203626 0.889157 0.509727
0.360209 0.891623 0.512193
0.523088 0.894189 0.514759
0.667727 0.896467 0.517037
0.809955 0.898707 0.519277
0.912577 0.900323 0.520893
1.000000 0.901901 0.522470
0.000000 0.987977 0.511184
0.071683 0.989600 0.512808
0.208867 0.991761 0.514968
0.365451 0.994227 0.517435
0.528329 0.996792 0.520000
0.672968 0.999070 0.522278
0.815196 1.000000 0.524518
0.917818 1.000000 0.526134
1.000000 1.000000 0.527712
0.000000 0.000000 0.593899
0.018446 0.000000 0.595523
0.155630 0.000000 0.597683
0.312214 0.000000 0.600149
0.475092 0.000000 0.602715
0.619731 0.000000 0.604993
0.761959 0.000000 0.607233
0.864581 0.000000 0.608849
0.964727 0.000000 0.610427
0.000000 0.034082 0.599110
0.023657 0.035705 0.600733
0.160841 0.037866 0.602894
0.317424 0.040332 0.605360
0.480303 0.042897 0.607926
0.624942 0.045175 0.610204
0.767170 0.047416 0.612444
0.869792 0.049032 0.614060
0.969938 0.050609 0.615637
0.000000 0.170453 0.606076
0.030623 0.172076 0.607700
0.167807 0.174237 0.609860
0.324391 0.176703 0.612326
0.487269 0.179268 0.614892
0.631908 0.181547 0.617170
0.774136 0.183787 0.619410
0.876758 0.185403 0.621026
0.976904 0.186980 0.622604
0.000000 0.326933 0.614070
0.038616 0.328556 0.615693
0.175801 0.330717 0.617854
0.332384 0.333183 0.620320
0.495262 0.335749 0.622885
0.639901 0.338027 0.625163
0.782129 0.340267 0.627403
0.884751 0.341883 0.629020
0.984898 0.343460 0.630597
0.000000 0.490648 0.622433
0.046979 0.492272 0.624056
0.184164 0.494432 0.626217
0.340747 0.496898 0.628683
0.503625 0.499464 0.631248
0.648264 0.501742 0.633526
0.790492 0.503982 0.635766
0.893114 0.505598 0.637383
0.993261 0.507176 0.638960
0.000000 0.636847 0.629901
0.054447 0.638470 0.631524
0.191632 0.640630 0.633685
0.348215 0.643097 0.636151
0.511094 0.645662 0.638716
0.655732 0.647940 0.640994
0.797961 0.650180 0.643234
0.900582 0.651797 0.644851
1.000000 0.653374 0.646428
0.000000 0.781366 0.637283
0.061830 0.782989 0.638906
0.199014 0.785150 0.641067
0.355598 0.787616 0.643533
0.518476 0.790181 0.646099
0.663115 0.792460 0.648377
0.805343 0.794700 0.650617
0.907965 0.796316 0.652233
1.000000 0.797893 0.653810
0.000000 0.886112 0.642634
0.067181 0.887735 0.644257
0.204365 0.889896 0.646418
0.360948 0.892362 0.648884
0.523827 0.894928 0.651449
0.668465 0.897206 0.653727
0.810694 0.899446 0.655968
0.913316 0.901062 0.657584
1.000000 0.902639 0.659161
0.000000 0.988716 0.647875
0.072422 0.990339 0.649498
0.209606 0.992500 0.651659
0.366189 0.994966 0.654125
0.529068 0.997531 0.656691
0.673707 0.999809 0.658969
0.815935 1.000000 0.661209
0.918557 1.000000 0.662825
1.000000 1.000000 0.664402
0.000000 0.000000 0.729466
0.019179 0.000000 0.731090
0.156363 0.000000 0.733250
0.312946 0.000000 0.735716
0.475825 0.000000 0.738282
0.620464 0.000000 0.740560
0.762692 0.000000 0.742800
0.865314 0.000000 0.744416
0.965460 0.000000 0.745994
0.000000 0.034815 0.734677
0.024390 0.036438 0.736300
0.161574 0.038599 0.738461
0.318157 0.041065 0.740927
0.481036 0.043630 0.743493
0.625674 0.045908 0.745771
0.767903 0.048148 0.748011
0.870525 0.049765 0.749627
0.970671 0.051342 0.751204
0.000000 0.171186 0.741643
0.031356 0.172809 0.743267
0.168540 0.174970 0.745427
0.325123 0.177436 0.747893
0.488002 0.180001 0.750459
0.632641 0.182279 0.752737
0.774869 0.184519 0.754977
0.877491 0.186136 0.756593
0.977637 0.187713 0.758171
0.000000 0.327666 0.749637
0.039349 0.329289 0.751260
0.176533 0.331450 0.753421
0.333117 0.333916 0.755887
0.495995 0.336481 0.758452
0.640634 0.338759 0.760730
0.782862 0.340999 0.762970
0.885484 0.342616 0.764587
0.985630 0.344193 0.766164
0.000000 0.491381 0.758000
0.047712 0.493004 0.759623
0.184896 0.495165 0.761784
0.341480 0.497631 0.764250
0.504358 0.500196 0.766815
0.648997 0.502475 0.769093
0.791225 0.504715 0.771333
0.893847 0.506331 0.772950
0.993993 0.507908 0.774527
0.000000 0.637579 0.765468
0.055180 0.639203 0.767091
0.192365 0.641363 0.769252
0.348948 0.643829 0.771718
0.511826 0.646395 0.774283
0.656465 0.648673 0.776561
0.798693 0.650913 0.778801
0.901315 0.652529 0.780418
1.000000 0.654107 0.781995
0.000000 0.782099 0.772850
0.062563 0.783722 0.774473
0.199747 0.785883 0.776634
0.356330 0.788349 0.779100
0.519209 0.790914 0.781666
0.663847 0.793192 0.783944
0.806076 0.795432 0.786184
0.908698 0.797049 0.787800
1.000000 0.798626 0.789377
0.000000 0.886845 0.778201
0.067913 0.888468 0.779824
0.205098 0.890629 0.781985
0.361681 0.893095 0.784451
0.524559 0.895660 0.787016
0.669198 0.897938 0.789294
0.811426 0.900179 0.791535
0.914048 0.901795 0.793151
1.000000 0.903372 0.794728
0.000000 0.989448 0.783442
0.073155 0.991072 0.785065
0.210339 0.993232 0.787226
0.366922 0.995699 0.789692
0.529801 0.998264 0.792258
0.674439 1.000000 0.794536
0.816668 1.000000 0.796776
0.919290 1.000000 0.798392
1.000000 1.000000 0.799969
0.000000 0.000000 0.828000
0.019711 0.000000 0.829623
0.156896 0.000000 0.831784
0.313479 0.000000 0.834250
0.476357 0.000000 0.836815
0.620996 0.000000 0.839093
0.763224 0.000000 0.841333
0.865846 0.000000 0.842950
0.965993 0.000000 0.844527
0.000000 0.035347 0.833211
0.024922 0.036970 0.834834
0.162107 0.039131 0.836995
0.318690 0.041597 0.839461
0.481568 0.044163 0.842026
0.626207 0.046441 0.844304
0.768435 0.048681 0.846544
0.871057 0.050297 0.848161
0.971203 0.051875 0.849738
0.000000 0.171718 0.840177
0.031888 0.173342 0.841800
0.169073 0.175502 0.843961
0.325656 0.177968 0.846427
0.488534 0.180534 0.848992
0.633173 0.182812 0.851270
0.775401 0.185052 0.853510
0.878023 0.186668 0.855127
0.978170 0.188246 0.856704
0.000000 0.328198 0.848170
0.039882 0.329822 0.849793
0.177066 0.331982 0.851954
0.333649 0.334449 0.854420
0.496528 0.337014 0.856986
0.641167 0.339292 0.859264
0.783395 0.341532 0.861504
0.886017 0.343148 0.863120
0.986163 0.344726 0.864697
0.000000 0.491914 0.856533
0.048245 0.493537 0.858156
0.185429 0.495698 0.860317
0.342012 0.498164 0.862783
0.504891 0.500729 0.865349
0.649529 0.503007 0.867627
0.791758 0.505247 0.869867
0.894380 0.506864 0.871483
0.994526 0.508441 0.873060
0.000000 0.638112 0.864001
0.055713 0.639735 0.865625
0.192897 0.641896 0.867785
0.349480 0.644362 0.870251
0.512359 0.646927 0.872817
0.656998 0.649205 0.875095
0.799226 0.651446 0.877335
0.901848 0.653062 0.878951
1.000000 0.654639 0.880529
0.000000 0.782631 0.871384
0.063095 0.784255 0.873007
0.200280 0.786415 0.875168
0.356863 0.788881 0.877634
0.519741 0.791447 0.880199
0.664380 0.793725 0.882477
0.806608 0.795965 0.884717
0.909230 0.797581 0.886334
1.000000 0.799159 0.887911
0.000000 0.887378 0.876734
0.068446 0.889001 0.878358
0.205630 0.891161 0.880518
0.362214 0.893628 0.882984
0.525092 0.896193 0.885550
0.669731 0.898471 0.887828
0.811959 0.900711 0.890068
0.914581 0.902327 0.891684
1.000000 0.903905 0.893262
0.000000 0.989981 0.881976
0.073687 0.991604 0.883599
0.210871 0.993765 0.885760
0.367455 0.996231 0.888226
0.530333 0.998796 0.890791
0.674972 1.000000 0.893069
0.817200 1.000000 0.895309
0.919822 1.000000 0.896926
1.000000 1.000000 0.898503
0.000000 0.000000 0.924742
0.020234 0.000000 0.926365
0.157419 0.000000 0.928526
0.314002 0.000000 0.930992
0.476880 0.000000 0.933557
0.621519 0.000000 0.935835
0.763747 0.000000 0.938075
0.866369 0.000000 0.939692
0.966515 0.000000 0.941269
0.000000 0.035870 0.929953
0.025445 0.037493 0.931576
0.162629 0.039654 0.933736
0.319213 0.042120 0.936203
0.482091 0.044686 0.938768
0.626730 0.046964 0.941046
0.768958 0.049204 0.943286
0.871580 0.050820 0.944903
0.971726 0.052397 0.946480
0.000000 0.172241 0.936919
0.032411 0.173864 0.938542
0.169596 0.176025 0.940703
0.326179 0.178491 0.943169
0.489057 0.181057 0.945734
0.633696 0.183335 0.948012
0.775924 0.185575 0.950252
0.878546 0.187191 0.951869
0.978692 0.188768 0.953446
0.000000 0.328721 0.944912
0.040405 0.330345 0.946535
0.177589 0.332505 0.948696
0.334172 0.334971 0.951162
0.497051 0.337537 0.953728
0.641689 0.339815 0.956006
0.783918 0.342055 0.958246
0.886540 0.343671 0.959862
0.986686 0.345249 0.961439
0.000000 0.492437 0.953275
0.048768 0.494060 0.954898
0.185952 0.496220 0.957059
0.342535 0.498687 0.959525
0.505414 0.501252 0.962091
0.650052 0.503530 0.964369
0.792281 0.505770 0.966609
0.894903 0.507386 0.968225
0.995049 0.508964 0.969802
0.000000 0.638635 0.960743
0.056236 0.640258 0.962366
0.193420 0.642419 0.964527
0.350003 0.644885 0.966993
0.512882 0.647450 0.969559
0.657521 0.649728 0.971837
0.799749 0.651968 0.974077
0.902371 0.653585 0.975693
1.000000 0.655162 0.977270
0.000000 0.783154 0.968126
0.063618 0.784777 0.969749
0.200802 0.786938 0.971910
0.357386 0.789404 0.974376
0.520264 0.791970 0.976941
0.664903 0.794248 0.979219
0.807131 0.796488 0.981459
0.909753 0.798104 0.983076
1.000000 0.799681 0.984653
0.000000 0.887900 0.973476
0.068969 0.889524 0.975100
0.206153 0.891684 0.977260
0.362736 0.894150 0.979726
0.525615 0.896716 0.982292
0.670254 0.898994 0.984570
0.812482 0.901234 0.986810
0.915104 0.902850 0.988426
1.000000 0.904428 0.990004
0.000000 0.990504 0.978718
0.074210 0.992127 0.980341
0.211394 0.994288 0.982501
0.367978 0.996754 0.984968
0.530856 0.999319 0.987533
0.675495 1.000000 0.989811
0.817723 1.000000 0.992051
0.920345 1.000000 0.993667
1.000000 1.000000 0.995245
