assets/ricoh/Ricoh_GR3_PS_Filter/LUT/GR3_Bleach_Bypass.cube
TITLE "Ricoh GR III Bleach Bypass"
LUT_3D_SIZE 9
DOMAIN_MIN 0.000000 0.000000 0.000000
DOMAIN_MAX 1.000000 1.000000 1.000000
0.000000 0.000000 0.000000
0.000000 0.000000 0.000000
0.034307 0.000000 0.000000
0.172164 0.000000 0.000000
0.308005 0.000000 0.000000
0.428920 0.000000 0.000000
0.545715 0.000000 0.000000
0.627445 0.000000 0.000000
0.706544 0.000000 0.000000
0.000000 0.000000 0.000000
0.000000 0.000000 0.000000
0.061634 0.000000 0.000000
0.199491 0.000000 0.000000
0.335332 0.002754 0.000000
0.456247 0.017765 0.000000
0.573042 0.032263 0.000000
0.654772 0.042409 0.000000
0.733871 0.052228 0.000000
0.000000 0.087343 0.000000
0.000000 0.095589 0.000000
0.106991 0.109263 0.000000
0.244848 0.126377 0.000000
0.380689 0.143240 0.000000
0.501605 0.158250 0.008936
0.618399 0.172749 0.023435
0.700129 0.182895 0.033581
0.779228 0.192714 0.043400
0.000000 0.263386 0.000000
0.053676 0.271632 0.003112
0.163829 0.285307 0.016787
0.301686 0.302420 0.033900
0.437527 0.319283 0.050763
0.558442 0.334293 0.065773
0.675237 0.348792 0.080272
0.756966 0.358938 0.090418
0.836066 0.368757 0.100237
0.043336 0.437101 0.050952
0.109762 0.445347 0.059198
0.219914 0.459021 0.072872
0.357771 0.476135 0.089986
0.493612 0.492998 0.106849
0.614528 0.508008 0.121859
0.731322 0.522507 0.136358
0.813052 0.532653 0.146503
0.892151 0.542472 0.156323
0.093325 0.591934 0.100941
0.159751 0.600180 0.109187
0.269904 0.613855 0.122862
0.407761 0.630968 0.139975
0.543602 0.647831 0.156838
0.664517 0.662841 0.171848
0.781312 0.677340 0.186347
0.863041 0.687486 0.196493
0.942141 0.697305 0.206312
0.141671 0.741676 0.149287
0.208097 0.749922 0.157533
0.318249 0.763596 0.171207
0.456106 0.780709 0.188321
0.591947 0.797573 0.205184
0.712863 0.812583 0.220194
0.829657 0.827082 0.234693
0.911387 0.837227 0.244839
0.990486 0.847047 0.254658
0.175537 0.846569 0.183153
0.241963 0.854815 0.191399
0.352115 0.868489 0.205073
0.489972 0.885603 0.222187
0.625813 0.902466 0.239050
0.746729 0.917476 0.254060
0.863523 0.931975 0.268559
0.945253 0.942121 0.278704
1.000000 0.951940 0.288524
0.208340 0.948172 0.215956
0.274766 0.956418 0.224202
0.384919 0.970092 0.237877
0.522776 0.987205 0.254990
0.658617 1.000000 0.271853
0.779532 1.000000 0.286863
0.896327 1.000000 0.301362
0.978056 1.000000 0.311508
1.000000 1.000000 0.321327
0.000000 0.000000 0.000000
0.000000 0.000000 0.000000
0.037033 0.000000 0.000000
0.174890 0.000000 0.000000
0.310731 0.000000 0.000000
0.431646 0.000000 0.000000
0.548441 0.000000 0.010112
0.630171 0.000000 0.020258
0.709270 0.000000 0.030077
0.000000 0.000000 0.000000
0.000000 0.000000 0.000000
0.064360 0.000000 0.000000
0.202217 0.000000 0.000000
0.338058 0.005480 0.007930
0.458973 0.020491 0.022940
0.575768 0.034989 0.037439
0.657498 0.045135 0.047585
0.736597 0.054954 0.057404
0.000000 0.090069 0.000000
0.000000 0.098315 0.005636
0.109717 0.111989 0.019311
0.247574 0.129103 0.036424
0.383415 0.145966 0.053287
0.504331 0.160976 0.068297
0.621125 0.175475 0.082796
0.702855 0.185621 0.092942
0.781954 0.195440 0.102761
0.000000 0.266113 0.054228
0.056402 0.274359 0.062474
0.166555 0.288033 0.076148
0.304412 0.305146 0.093261
0.440253 0.322009 0.110125
0.561168 0.337020 0.125135
0.677963 0.351518 0.139634
0.759692 0.361664 0.149779
0.838792 0.371483 0.159599
0.046062 0.439827 0.110313
0.112488 0.448073 0.118559
0.222640 0.461747 0.132234
0.360497 0.478861 0.149347
0.496338 0.495724 0.166210
0.617254 0.510734 0.181220
0.734048 0.525233 0.195719
0.815778 0.535379 0.205865
0.894877 0.545198 0.215684
0.096052 0.594660 0.160303
0.162477 0.602906 0.168549
0.272630 0.616581 0.182223
0.410487 0.633694 0.199336
0.546328 0.650557 0.216200
0.667243 0.665567 0.231210
0.784038 0.680066 0.245709
0.865767 0.690212 0.255854
0.944867 0.700031 0.265674
0.144397 0.744402 0.208648
0.210823 0.752648 0.216894
0.320976 0.766322 0.230569
0.458832 0.783436 0.247682
0.594673 0.800299 0.264545
0.715589 0.815309 0.279555
0.832383 0.829808 0.294054
0.914113 0.839953 0.304200
0.993212 0.849773 0.314019
0.178263 0.849295 0.242514
0.244689 0.857541 0.250760
0.354841 0.871215 0.264435
0.492698 0.888329 0.281548
0.628539 0.905192 0.298411
0.749455 0.920202 0.313421
0.866249 0.934701 0.327920
0.947979 0.944847 0.338066
1.000000 0.954666 0.347885
0.211066 0.950898 0.275318
0.277492 0.959144 0.283564
0.387645 0.972818 0.297238
0.525502 0.989931 0.314351
0.661343 1.000000 0.331214
0.782258 1.000000 0.346225
0.899053 1.000000 0.360723
0.980782 1.000000 0.370869
1.000000 1.000000 0.380689
0.000000 0.000000 0.023371
0.000000 0.000000 0.031617
0.041564 0.000000 0.045291
0.179421 0.000000 0.062405
0.315262 0.000000 0.079268
0.436177 0.000000 0.094278
0.552972 0.000000 0.108777
0.634702 0.000000 0.118923
0.713801 0.000000 0.128742
0.000000 0.000000 0.050698
0.000000 0.000000 0.058944
0.068891 0.000000 0.072619
0.206748 0.000000 0.089732
0.342589 0.010011 0.106595
0.463504 0.025022 0.121605
0.580299 0.039520 0.136104
0.662029 0.049666 0.146250
0.741128 0.059485 0.156069
0.000000 0.094600 0.096055
0.004096 0.102846 0.104301
0.114248 0.116520 0.117976
0.252105 0.133634 0.135089
0.387946 0.150497 0.151952
0.508862 0.165507 0.166962
0.625656 0.180006 0.181461
0.707386 0.190152 0.191607
0.786485 0.199971 0.201426
0.000000 0.270643 0.152893
0.060933 0.278890 0.161139
0.171086 0.292564 0.174813
0.308943 0.309677 0.191927
0.444784 0.326540 0.208790
0.565699 0.341551 0.223800
0.682494 0.356049 0.238299
0.764223 0.366195 0.248444
0.843323 0.376014 0.258264
0.050593 0.444358 0.208978
0.117019 0.452604 0.217224
0.227171 0.466278 0.230899
0.365028 0.483392 0.248012
0.500869 0.500255 0.264875
0.621785 0.515265 0.279885
0.738579 0.529764 0.294384
0.820309 0.539910 0.304530
0.899408 0.549729 0.314349
0.100583 0.599191 0.258968
0.167008 0.607437 0.267214
0.277161 0.621112 0.280888
0.415018 0.638225 0.298002
0.550859 0.655088 0.314865
0.671774 0.670098 0.329875
0.788569 0.684597 0.344374
0.870298 0.694743 0.354520
0.949398 0.704562 0.364339
0.148928 0.748933 0.307314
0.215354 0.757179 0.315560
0.325507 0.770853 0.329234
0.463363 0.787966 0.346347
0.599204 0.804830 0.363210
0.720120 0.819840 0.378221
0.836914 0.834339 0.392719
0.918644 0.844484 0.402865
0.997743 0.854304 0.412684
0.182794 0.853826 0.341179
0.249220 0.862072 0.349425
0.359372 0.875746 0.363100
0.497229 0.892860 0.380213
0.633070 0.909723 0.397076
0.753986 0.924733 0.412086
0.870780 0.939232 0.426585
0.952510 0.949378 0.436731
1.000000 0.959197 0.446550
0.215597 0.955429 0.373983
0.282023 0.963675 0.382229
0.392176 0.977349 0.395903
0.530033 0.994462 0.413016
0.665874 1.000000 0.429880
0.786789 1.000000 0.444890
0.903584 1.000000 0.459389
0.985313 1.000000 0.469534
1.000000 1.000000 0.479354
0.000000 0.000000 0.147252
0.000000 0.000000 0.155498
0.047253 0.000000 0.169172
0.185110 0.000000 0.186286
0.320951 0.000000 0.203149
0.441866 0.000000 0.218159
0.558661 0.000000 0.232658
0.640391 0.000000 0.242804
0.719490 0.000000 0.252623
0.000000 0.000000 0.174579
0.000000 0.000000 0.182825
0.074580 0.000000 0.196499
0.212437 0.000000 0.213613
0.348278 0.015700 0.230476
0.469193 0.030711 0.245486
0.585988 0.045209 0.259985
0.667718 0.055355 0.270131
0.746817 0.065174 0.279950
0.000000 0.100289 0.219936
0.009785 0.108535 0.228182
0.119937 0.122209 0.241857
0.257794 0.139323 0.258970
0.393635 0.156186 0.275833
0.514551 0.171196 0.290843
0.631345 0.185695 0.305342
0.713075 0.195841 0.315488
0.792174 0.205660 0.325307
0.000196 0.276332 0.276774
0.066622 0.284578 0.285020
0.176775 0.298253 0.298694
0.314632 0.315366 0.315807
0.450473 0.332229 0.332670
0.571388 0.347239 0.347681
0.688183 0.361738 0.362179
0.769912 0.371884 0.372325
0.849012 0.381703 0.382145
0.056282 0.450047 0.332859
0.122708 0.458293 0.341105
0.232860 0.471967 0.354779
0.370717 0.489081 0.371893
0.506558 0.505944 0.388756
0.627474 0.520954 0.403766
0.744268 0.535453 0.418265
0.825998 0.545599 0.428411
0.905097 0.555418 0.438230
0.106271 0.604880 0.382849
0.172697 0.613126 0.391095
0.282850 0.626801 0.404769
0.420707 0.643914 0.421882
0.556548 0.660777 0.438746
0.677463 0.675787 0.453756
0.794258 0.690286 0.468255
0.875987 0.700432 0.478400
0.955087 0.710251 0.488220
0.154617 0.754622 0.431194
0.221043 0.762868 0.439440
0.331195 0.776542 0.453115
0.469052 0.793655 0.470228
0.604893 0.810519 0.487091
0.725809 0.825529 0.502101
0.842603 0.840028 0.516600
0.924333 0.850173 0.526746
1.000000 0.859993 0.536565
0.188483 0.859515 0.465060
0.254909 0.867761 0.473306
0.365061 0.881435 0.486980
0.502918 0.898549 0.504094
0.638759 0.915412 0.520957
0.759675 0.930422 0.535967
0.876469 0.944921 0.550466
0.958199 0.955067 0.560612
1.000000 0.964886 0.570431
0.221286 0.961118 0.497864
0.287712 0.969364 0.506110
0.397865 0.983038 0.519784
0.535722 1.000000 0.536897
0.671563 1.000000 0.553760
0.792478 1.000000 0.568771
0.909273 1.000000 0.583269
0.991002 1.000000 0.593415
1.000000 1.000000 0.603235
0.000000 0.000000 0.269759
0.000000 0.000000 0.278005
0.052879 0.000000 0.291679
0.190736 0.000000 0.308792
0.326577 0.000000 0.325655
0.447492 0.000000 0.340666
0.564287 0.000000 0.355164
0.646017 0.000000 0.365310
0.725116 0.000000 0.375130
0.000000 0.000000 0.297086
0.000000 0.000000 0.305332
0.080206 0.000000 0.319006
0.218063 0.004463 0.336119
0.353904 0.021326 0.352983
0.474819 0.036336 0.367993
0.591614 0.050835 0.382492
0.673344 0.060981 0.392637
0.752443 0.070800 0.402457
0.000000 0.105915 0.342443
0.015411 0.114161 0.350689
0.125563 0.127835 0.364363
0.263420 0.144948 0.381477
0.399261 0.161812 0.398340
0.520176 0.176822 0.413350
0.636971 0.191321 0.427849
0.718701 0.201466 0.437995
0.797800 0.211286 0.447814
0.005822 0.281958 0.399280
0.072248 0.290204 0.407526
0.182401 0.303879 0.421201
0.320258 0.320992 0.438314
0.456099 0.337855 0.455177
0.577014 0.352865 0.470187
0.693809 0.367364 0.484686
0.775538 0.377510 0.494832
0.854637 0.387329 0.504651
0.061908 0.455673 0.455366
0.128334 0.463919 0.463612
0.238486 0.477593 0.477286
0.376343 0.494706 0.494399
0.512184 0.511570 0.511263
0.633099 0.526580 0.526273
0.749894 0.541079 0.540772
0.831624 0.551224 0.550917
0.910723 0.561044 0.560737
0.111897 0.610506 0.505355
0.178323 0.618752 0.513601
0.288476 0.632426 0.527276
0.426333 0.649540 0.544389
0.562174 0.666403 0.561252
0.683089 0.681413 0.576262
0.799884 0.695912 0.590761
0.881613 0.706058 0.600907
0.960712 0.715877 0.610726
0.160243 0.760248 0.553701
0.226669 0.768494 0.561947
0.336821 0.782168 0.575621
0.474678 0.799281 0.592735
0.610519 0.816144 0.609598
0.731435 0.831155 0.624608
0.848229 0.845653 0.639107
0.929959 0.855799 0.649253
1.000000 0.865619 0.659072
0.194109 0.865141 0.587567
0.260535 0.873387 0.595813
0.370687 0.887061 0.609487
0.508544 0.904175 0.626601
0.644385 0.921038 0.643464
0.765300 0.936048 0.658474
0.882095 0.950547 0.672973
0.963825 0.960693 0.683118
1.000000 0.970512 0.692938
0.226912 0.966744 0.620370
0.293338 0.974990 0.628616
0.403491 0.988664 0.642291
0.541348 1.000000 0.659404
0.677189 1.000000 0.676267
0.798104 1.000000 0.691277
0.914898 1.000000 0.705776
0.996628 1.000000 0.715922
1.000000 1.000000 0.725741
0.000000 0.000000 0.379172
0.000000 0.000000 0.387418
0.057904 0.000000 0.401092
0.195761 0.000000 0.418205
0.331601 0.000000 0.435068
0.452517 0.000000 0.450079
0.569311 0.000000 0.464577
0.651041 0.000000 0.474723
0.730140 0.000000 0.484543
0.000000 0.000000 0.406499
0.000000 0.000000 0.414745
0.085231 0.000000 0.428419
0.223088 0.009488 0.445532
0.358929 0.026351 0.462395
0.479844 0.041361 0.477406
0.596638 0.055860 0.491904
0.678368 0.066006 0.502050
0.757467 0.075825 0.511870
0.000000 0.110939 0.451856
0.020435 0.119185 0.460102
0.130588 0.132860 0.473776
0.268445 0.149973 0.490890
0.404286 0.166836 0.507753
0.525201 0.181846 0.522763
0.641996 0.196345 0.537262
0.723725 0.206491 0.547407
0.802825 0.216310 0.557227
0.010847 0.286983 0.508693
0.077273 0.295229 0.516939
0.187425 0.308903 0.530614
0.325282 0.326016 0.547727
0.461123 0.342880 0.564590
0.582038 0.357890 0.579600
0.698833 0.372389 0.594099
0.780563 0.382534 0.604245
0.859662 0.392354 0.614064
0.066932 0.460697 0.564779
0.133358 0.468943 0.573025
0.243511 0.482618 0.586699
0.381368 0.499731 0.603812
0.517209 0.516594 0.620676
0.638124 0.531604 0.635686
0.754919 0.546103 0.650185
0.836648 0.556249 0.660330
0.915748 0.566068 0.670150
0.116922 0.615531 0.614768
0.183348 0.623777 0.623014
0.293500 0.637451 0.636689
0.431357 0.654564 0.653802
0.567198 0.671428 0.670665
0.688114 0.686438 0.685675
0.804908 0.700937 0.700174
0.886638 0.711082 0.710320
0.965737 0.720902 0.720139
0.165267 0.765272 0.663114
0.231693 0.773518 0.671360
0.341846 0.787193 0.685034
0.479703 0.804306 0.702148
0.615544 0.821169 0.719011
0.736459 0.836179 0.734021
0.853254 0.850678 0.748520
0.934983 0.860824 0.758666
1.000000 0.870643 0.768485
0.199133 0.870166 0.696980
0.265559 0.878412 0.705226
0.375712 0.892086 0.718900
0.513569 0.909199 0.736013
0.649410 0.926062 0.752877
0.770325 0.941073 0.767887
0.887120 0.955571 0.782386
0.968849 0.965717 0.792531
1.000000 0.975536 0.802351
0.231937 0.971768 0.729783
0.298363 0.980014 0.738029
0.408515 0.993688 0.751704
0.546372 1.000000 0.768817
0.682213 1.000000 0.785680
0.803128 1.000000 0.800690
0.919923 1.000000 0.815189
1.000000 1.000000 0.825335
1.000000 1.000000 0.835154
0.000000 0.000000 0.485185
0.000000 0.000000 0.493431
0.062772 0.000000 0.507105
0.200629 0.000000 0.524219
0.336470 0.000000 0.541082
0.457385 0.000000 0.556092
0.574180 0.000000 0.570591
0.655910 0.000000 0.580737
0.735009 0.000000 0.590556
0.000000 0.000000 0.512512
0.000000 0.000000 0.520758
0.090099 0.000000 0.534432
0.227956 0.014356 0.551546
0.363797 0.031219 0.568409
0.484712 0.046229 0.583419
0.601507 0.060728 0.597918
0.683237 0.070874 0.608064
0.762336 0.080693 0.617883
0.000000 0.115808 0.557869
0.025304 0.124054 0.566115
0.135456 0.137728 0.579790
0.273313 0.154841 0.596903
0.409154 0.171705 0.613766
0.530069 0.186715 0.628776
0.646864 0.201214 0.643275
0.728594 0.211359 0.653421
0.807693 0.221179 0.663240
0.015715 0.291851 0.614707
0.082141 0.300097 0.622953
0.192294 0.313772 0.636627
0.330151 0.330885 0.653740
0.465992 0.347748 0.670604
0.586907 0.362758 0.685614
0.703702 0.377257 0.700113
0.785431 0.387403 0.710258
0.864530 0.397222 0.720078
0.071801 0.465566 0.670792
0.138227 0.473812 0.679038
0.248379 0.487486 0.692713
0.386236 0.504599 0.709826
0.522077 0.521463 0.726689
0.642992 0.536473 0.741699
0.759787 0.550972 0.756198
0.841517 0.561117 0.766344
0.920616 0.570937 0.776163
0.121790 0.620399 0.720782
0.188216 0.628645 0.729028
0.298369 0.642319 0.742702
0.436226 0.659433 0.759815
0.572067 0.676296 0.776679
0.692982 0.691306 0.791689
0.809777 0.705805 0.806188
0.891506 0.715951 0.816333
0.970606 0.725770 0.826153
0.170136 0.770141 0.769127
0.236562 0.778387 0.777373
0.346714 0.792061 0.791048
0.484571 0.809174 0.808161
0.620412 0.826037 0.825024
0.741328 0.841048 0.840034
0.858122 0.855546 0.854533
0.939852 0.865692 0.864679
1.000000 0.875512 0.874498
0.204002 0.875034 0.802993
0.270428 0.883280 0.811239
0.380580 0.896954 0.824914
0.518437 0.914068 0.842027
0.654278 0.930931 0.858890
0.775193 0.945941 0.873900
0.891988 0.960440 0.888399
0.973718 0.970586 0.898545
1.000000 0.980405 0.908364
0.236805 0.976637 0.835797
0.303231 0.984883 0.844043
0.413384 0.998557 0.857717
0.551241 1.000000 0.874830
0.687082 1.000000 0.891693
0.807997 1.000000 0.906704
0.924791 1.000000 0.921203
1.000000 1.000000 0.931348
1.000000 1.000000 0.941168
0.000000 0.000000 0.559564
0.000000 0.000000 0.567810
0.066188 0.000000 0.581484
0.204045 0.000000 0.598597
0.339886 0.000000 0.615460
0.460801 0.000000 0.630471
0.577596 0.000000 0.644969
0.659325 0.000000 0.655115
0.738424 0.000000 0.664934
0.000000 0.000000 0.586891
0.000000 0.000000 0.595137
0.093515 0.000658 0.608811
0.231372 0.017772 0.625924
0.367213 0.034635 0.642787
0.488128 0.049645 0.657798
0.604923 0.064144 0.672296
0.686652 0.074290 0.682442
0.765752 0.084109 0.692261
0.000000 0.119224 0.632248
0.028719 0.127470 0.640494
0.138872 0.141144 0.654168
0.276729 0.158257 0.671281
0.412570 0.175120 0.688145
0.533485 0.190131 0.703155
0.650280 0.204629 0.717654
0.732009 0.214775 0.727799
0.811109 0.224594 0.737619
0.019131 0.295267 0.689085
0.085557 0.303513 0.697331
0.195709 0.317187 0.711005
0.333566 0.334301 0.728119
0.469407 0.351164 0.744982
0.590323 0.366174 0.759992
0.707117 0.380673 0.774491
0.788847 0.390819 0.784637
0.867946 0.400638 0.794456
0.075216 0.468982 0.745171
0.141642 0.477228 0.753417
0.251795 0.490902 0.767091
0.389652 0.508015 0.784204
0.525493 0.524878 0.801067
0.646408 0.539889 0.816078
0.763203 0.554387 0.830576
0.844932 0.564533 0.840722
0.924032 0.574352 0.850542
0.125206 0.623815 0.795160
0.191632 0.632061 0.803406
0.301784 0.645735 0.817081
0.439641 0.662849 0.834194
0.575482 0.679712 0.851057
0.696398 0.694722 0.866067
0.813192 0.709221 0.880566
0.894922 0.719366 0.890712
0.974021 0.729186 0.900531
0.173552 0.773556 0.843506
0.239977 0.781802 0.851752
0.350130 0.795477 0.865426
0.487987 0.812590 0.882539
0.623828 0.829453 0.899403
0.744743 0.844463 0.914413
0.861538 0.858962 0.928912
0.943268 0.869108 0.939057
1.000000 0.878927 0.948877
0.207417 0.878450 0.877372
0.273843 0.886696 0.885618
0.383996 0.900370 0.899292
0.521853 0.917483 0.916405
0.657694 0.934346 0.933268
0.778609 0.949357 0.948279
0.895404 0.963856 0.962777
0.977133 0.974001 0.972923
1.000000 0.983821 0.982743
0.240221 0.980052 0.910175
0.306647 0.988298 0.918421
0.416799 1.000000 0.932095
0.554656 1.000000 0.949209
0.690497 1.000000 0.966072
0.811413 1.000000 0.981082
0.928207 1.000000 0.995581
1.000000 1.000000 1.000000
1.000000 1.000000 1.000000
0.000000 0.000000 0.631700
0.000000 0.000000 0.639946
0.069500 0.000000 0.653620
0.207357 0.000000 0.670734
0.343198 0.000000 0.687597
0.464114 0.000000 0.702607
0.580908 0.000000 0.717106
0.662638 0.000000 0.727251
0.741737 0.002781 0.737071
0.000000 0.000000 0.659027
0.000000 0.000000 0.667273
0.096828 0.003971 0.680947
0.234684 0.021084 0.698061
0.370525 0.037948 0.714924
0.491441 0.052958 0.729934
0.608235 0.067457 0.744433
0.689965 0.077602 0.754579
0.769064 0.087422 0.764398
0.000000 0.122536 0.704384
0.032032 0.130782 0.712630
0.142185 0.144456 0.726304
0.280042 0.161570 0.743418
0.415883 0.178433 0.760281
0.536798 0.193443 0.775291
0.653592 0.207942 0.789790
0.735322 0.218088 0.799936
0.814421 0.227907 0.809755
0.022444 0.298580 0.761222
0.088869 0.306826 0.769468
0.199022 0.320500 0.783142
0.336879 0.337613 0.800255
0.472720 0.354476 0.817118
0.593635 0.369487 0.832129
0.710430 0.383985 0.846627
0.792160 0.394131 0.856773
0.871259 0.403951 0.866592
0.078529 0.472294 0.817307
0.144955 0.480540 0.825553
0.255108 0.494214 0.839227
0.392965 0.511328 0.856341
0.528805 0.528191 0.873204
0.649721 0.543201 0.888214
0.766515 0.557700 0.902713
0.848245 0.567846 0.912859
0.927344 0.577665 0.922678
0.128519 0.627128 0.867297
0.194945 0.635374 0.875543
0.305097 0.649048 0.889217
0.442954 0.666161 0.906330
0.578795 0.683024 0.923193
0.699710 0.698035 0.938204
0.816505 0.712533 0.952702
0.898235 0.722679 0.962848
0.977334 0.732498 0.972667
0.176864 0.776869 0.915642
0.243290 0.785115 0.923888
0.353443 0.798789 0.937562
0.491300 0.815903 0.954676
0.627141 0.832766 0.971539
0.748056 0.847776 0.986549
0.864851 0.862275 1.000000
0.946580 0.872421 1.000000
1.000000 0.882240 1.000000
0.210730 0.881762 0.949508
0.277156 0.890008 0.957754
0.387309 0.903683 0.971428
0.525166 0.920796 0.988542
0.661006 0.937659 1.000000
0.781922 0.952669 1.000000
0.898716 0.967168 1.000000
0.980446 0.977314 1.000000
1.000000 0.987133 1.000000
0.243534 0.983365 0.982312
0.309959 0.991611 0.990558
0.420112 1.000000 1.000000
0.557969 1.000000 1.000000
0.693810 1.000000 1.000000
0.814725 1.000000 1.000000
0.931520 1.000000 1.000000
1.000000 1.000000 1.000000
1.000000 1.000000 1.000000
