assets/ricoh/Ricoh_GR3_PS_Filter/LUT/GR3_Vivid_Street.cube
TITLE "Ricoh GR III Vivid Street"
LUT_3D_SIZE 5
DOMAIN_MIN 0.000000 0.000000 0.000000
DOMAIN_MAX 1.000000 1.000000 1.000000
0.000000 0.000000 0.000000
0.161950 0.000000 0.000000
0.538848 0.000000 0.000000
0.867357 0.000000 0.000000
1.000000 0.000000 0.000000
0.000000 0.160027 0.000000
0.150054 0.156326 0.000000
0.526952 0.151735 0.000000
0.855461 0.147734 0.000000
1.000000 0.144955 0.000000
0.000000 0.514882 0.000000
0.135082 0.511181 0.000000
0.511980 0.506591 0.000000
0.840490 0.502589 0.000000
1.000000 0.499811 0.000000
0.000000 0.828934 0.000000
0.121832 0.825233 0.000000
0.498730 0.820642 0.000000
0.827239 0.816641 0.000000
1.000000 0.813862 0.000000
0.000000 1.000000 0.000000
0.112519 1.000000 0.000000
0.489417 1.000000 0.000000
0.817926 1.000000 0.000000
1.000000 1.000000 0.000000
0.000000 0.000000 0.174505
0.160762 0.000000 0.170804
0.537660 0.000000 0.166213
0.866170 0.000000 0.162211
1.000000 0.000000 0.159433
0.000000 0.158840 0.162609
0.148867 0.155139 0.158908
0.525765 0.150548 0.154317
0.854274 0.146546 0.150316
1.000000 0.143768 0.147537
0.000000 0.513695 0.147637
0.133895 0.509994 0.143936
0.510793 0.505403 0.139345
0.839302 0.501402 0.135344
1.000000 0.498623 0.132566
0.000000 0.827746 0.134387
0.120645 0.824045 0.130686
0.497543 0.819455 0.126095
0.826052 0.815453 0.122094
1.000000 0.812675 0.119315
0.000000 1.000000 0.125074
0.111331 1.000000 0.121373
0.488229 1.000000 0.116782
0.816739 1.000000 0.112780
1.000000 1.000000 0.110002
0.000000 0.000000 0.537056
0.159275 0.000000 0.533355
0.536173 0.000000 0.528764
0.864682 0.000000 0.524763
1.000000 0.000000 0.521984
0.000000 0.157352 0.525160
0.147379 0.153651 0.521459
0.524277 0.149060 0.516868
0.852786 0.145059 0.512867
1.000000 0.142280 0.510088
0.000000 0.512207 0.510188
0.132407 0.508506 0.506487
0.509305 0.503915 0.501897
0.837814 0.499914 0.497895
1.000000 0.497135 0.495117
0.000000 0.826259 0.496938
0.119157 0.822558 0.493237
0.496055 0.817967 0.488646
0.824564 0.813965 0.484645
1.000000 0.811187 0.481867
0.000000 1.000000 0.487625
0.109844 1.000000 0.483924
0.486742 1.000000 0.479333
0.815251 1.000000 0.475332
1.000000 1.000000 0.472553
0.000000 0.000000 0.856391
0.157964 0.000000 0.852690
0.534862 0.000000 0.848099
0.863371 0.000000 0.844098
1.000000 0.000000 0.841319
0.000000 0.156041 0.844495
0.146068 0.152340 0.840794
0.522967 0.147750 0.836204
0.851476 0.143748 0.832202
1.000000 0.140970 0.829424
0.000000 0.510897 0.829524
0.131097 0.507196 0.825823
0.507995 0.502605 0.821232
0.836504 0.498604 0.817230
1.000000 0.495825 0.814452
0.000000 0.824948 0.816273
0.117847 0.821247 0.812573
0.494745 0.816656 0.807982
0.823254 0.812655 0.803980
1.000000 0.809877 0.801202
0.000000 1.000000 0.806960
0.108533 1.000000 0.803259
0.485431 1.000000 0.798668
0.813940 1.000000 0.794667
1.000000 1.000000 0.791888
0.000000 0.000000 1.000000
0.157047 0.000000 1.000000
0.533945 0.000000 1.000000
0.862454 0.000000 1.000000
1.000000 0.000000 1.000000
0.000000 0.155124 1.000000
0.145151 0.151423 1.000000
0.522049 0.146832 1.000000
0.850558 0.142831 1.000000
1.000000 0.140052 1.000000
0.000000 0.509979 1.000000
0.130179 0.506278 1.000000
0.507077 0.501687 1.000000
0.835586 0.497686 1.000000
1.000000 0.494907 1.000000
0.000000 0.824031 1.000000
0.116929 0.820330 1.000000
0.493827 0.815739 1.000000
0.822336 0.811737 1.000000
1.000000 0.808959 1.000000
0.000000 1.000000 1.000000
0.107616 1.000000 1.000000
0.484514 1.000000 1.000000
0.813023 1.000000 1.000000
1.000000 1.000000 1.000000
