assets/ricoh/Ricoh_GR3_PS_Filter/LUT/GR3_Standard.cube
TITLE "Ricoh GR III Standard"
LUT_3D_SIZE 9
DOMAIN_MIN 0.000000 0.000000 0.000000
DOMAIN_MAX 1.000000 1.000000 1.000000
0.000000 0.000000 0.000000
0.084097 0.000000 0.000000
0.223600 0.000000 0.000000
0.362587 0.000000 0.000000
0.497402 0.000000 0.000000
0.631502 0.000000 0.000000
0.760063 0.000000 0.000000
0.886937 0.000000 0.000000
0.998781 0.000000 0.000000
0.000000 0.090769 0.000000
0.087564 0.091811 0.000000
0.227067 0.093036 0.000000
0.366054 0.094256 0.000000
0.500869 0.095440 0.000000
0.634969 0.096617 0.000000
0.763531 0.097746 0.000000
0.890404 0.098860 0.000000
1.000000 0.099842 0.000000
0.000000 0.231645 0.000000
0.091641 0.232687 0.000000
0.231144 0.233912 0.000000
0.370131 0.235132 0.000000
0.504946 0.236316 0.000000
0.639046 0.237494 0.000000
0.767607 0.238622 0.000000
0.894481 0.239736 0.000000
1.000000 0.240718 0.000000
0.000000 0.372000 0.000000
0.095702 0.373042 0.000000
0.235205 0.374267 0.000000
0.374193 0.375487 0.000000
0.509007 0.376671 0.000000
0.643107 0.377849 0.000000
0.771669 0.378977 0.000000
0.898542 0.380091 0.000000
1.000000 0.381073 0.000000
0.000000 0.508141 0.000000
0.099642 0.509182 0.000000
0.239145 0.510407 0.000000
0.378132 0.511628 0.000000
0.512947 0.512811 0.000000
0.647047 0.513989 0.000000
0.775608 0.515118 0.000000
0.902482 0.516232 0.000000
1.000000 0.517214 0.000000
0.000000 0.643559 0.000000
0.103561 0.644600 0.000000
0.243063 0.645825 0.000000
0.382051 0.647046 0.000000
0.516865 0.648229 0.000000
0.650965 0.649407 0.000000
0.779527 0.650536 0.000000
0.906401 0.651650 0.000557
1.000000 0.652632 0.001539
0.000000 0.773383 0.000000
0.107317 0.774425 0.000000
0.246820 0.775650 0.000000
0.385808 0.776870 0.000000
0.520622 0.778054 0.000894
0.654722 0.779232 0.002071
0.783284 0.780360 0.003200
0.910157 0.781474 0.004314
1.000000 0.782457 0.005296
0.000000 0.901502 0.000000
0.111025 0.902544 0.000972
0.250528 0.903769 0.002197
0.389515 0.904989 0.003417
0.524330 0.906173 0.004601
0.658430 0.907351 0.005779
0.786991 0.908480 0.006908
0.913865 0.909594 0.008022
1.000000 0.910576 0.009004
0.000000 1.000000 0.003199
0.114293 1.000000 0.004240
0.253796 1.000000 0.005465
0.392783 1.000000 0.006686
0.527598 1.000000 0.007870
0.661698 1.000000 0.009047
0.790260 1.000000 0.010176
0.917133 1.000000 0.011290
1.000000 1.000000 0.012272
0.000000 0.000000 0.088467
0.084443 0.000000 0.089509
0.223946 0.000000 0.090734
0.362933 0.000000 0.091954
0.497748 0.000000 0.093138
0.631848 0.000000 0.094315
0.760410 0.000000 0.095444
0.887283 0.000000 0.096558
0.999127 0.000000 0.097540
0.000000 0.091115 0.091934
0.087910 0.092157 0.092976
0.227413 0.093382 0.094201
0.366401 0.094602 0.095421
0.501215 0.095786 0.096605
0.635315 0.096964 0.097783
0.763877 0.098093 0.098911
0.890750 0.099207 0.100025
1.000000 0.100189 0.101007
0.000000 0.231992 0.096011
0.091987 0.233033 0.097053
0.231490 0.234258 0.098278
0.370477 0.235479 0.099498
0.505292 0.236662 0.100682
0.639392 0.237840 0.101859
0.767954 0.238969 0.102988
0.894827 0.240083 0.104102
1.000000 0.241065 0.105084
0.000000 0.372347 0.100072
0.096049 0.373388 0.101114
0.235551 0.374613 0.102339
0.374539 0.375834 0.103560
0.509353 0.377017 0.104743
0.643453 0.378195 0.105921
0.772015 0.379324 0.107050
0.898889 0.380438 0.108164
1.000000 0.381420 0.109146
0.000000 0.508487 0.104012
0.099988 0.509529 0.105054
0.239491 0.510754 0.106279
0.378478 0.511974 0.107499
0.513293 0.513158 0.108683
0.647393 0.514335 0.109860
0.775955 0.515464 0.110989
0.902828 0.516578 0.112103
1.000000 0.517560 0.113085
0.000000 0.643905 0.107931
0.103907 0.644947 0.108972
0.243410 0.646172 0.110197
0.382397 0.647392 0.111418
0.517212 0.648576 0.112602
0.651312 0.649753 0.113779
0.779873 0.650882 0.114908
0.906747 0.651996 0.116022
1.000000 0.652978 0.117004
0.000000 0.773730 0.111688
0.107664 0.774771 0.112729
0.247167 0.775996 0.113954
0.386154 0.777217 0.115175
0.520969 0.778400 0.116358
0.655068 0.779578 0.117536
0.783630 0.780707 0.118665
0.910504 0.781821 0.119779
1.000000 0.782803 0.120761
0.000000 0.901849 0.115395
0.111371 0.902891 0.116437
0.250874 0.904115 0.117662
0.389861 0.905336 0.118882
0.524676 0.906520 0.120066
0.658776 0.907697 0.121243
0.787338 0.908826 0.122372
0.914211 0.909940 0.123486
1.000000 0.910922 0.124468
0.000000 1.000000 0.118663
0.114639 1.000000 0.119705
0.254142 1.000000 0.120930
0.393130 1.000000 0.122150
0.527944 1.000000 0.123334
0.662044 1.000000 0.124512
0.790606 1.000000 0.125640
0.917479 1.000000 0.126754
1.000000 1.000000 0.127736
0.000000 0.000000 0.224355
0.084851 0.000000 0.225397
0.224354 0.000000 0.226622
0.363341 0.000000 0.227842
0.498156 0.000000 0.229026
0.632256 0.000000 0.230204
0.760817 0.000000 0.231332
0.887691 0.000000 0.232446
0.999535 0.000000 0.233428
0.000000 0.091523 0.227822
0.088318 0.092565 0.228864
0.227821 0.093790 0.230089
0.366808 0.095010 0.231310
0.501623 0.096194 0.232493
0.635723 0.097371 0.233671
0.764285 0.098500 0.234800
0.891158 0.099614 0.235914
1.000000 0.100596 0.236896
0.000000 0.232399 0.231899
0.092395 0.233441 0.232941
0.231897 0.234666 0.234166
0.370885 0.235886 0.235386
0.505700 0.237070 0.236570
0.639799 0.238247 0.237747
0.768361 0.239376 0.238876
0.895235 0.240490 0.239990
1.000000 0.241472 0.240972
0.000000 0.372754 0.235961
0.096456 0.373796 0.237002
0.235959 0.375021 0.238227
0.374946 0.376241 0.239448
0.509761 0.377425 0.240631
0.643861 0.378602 0.241809
0.772423 0.379731 0.242938
0.899296 0.380845 0.244052
1.000000 0.381827 0.245034
0.000000 0.508895 0.239900
0.100396 0.509936 0.240942
0.239899 0.511161 0.242167
0.378886 0.512382 0.243387
0.513701 0.513565 0.244571
0.647801 0.514743 0.245749
0.776362 0.515872 0.246877
0.903236 0.516986 0.247991
1.000000 0.517968 0.248973
0.000000 0.644312 0.243819
0.104314 0.645354 0.244861
0.243817 0.646579 0.246086
0.382805 0.647800 0.247306
0.517619 0.648983 0.248490
0.651719 0.650161 0.249667
0.780281 0.651290 0.250796
0.907154 0.652404 0.251910
1.000000 0.653386 0.252892
0.000000 0.774137 0.247576
0.108071 0.775179 0.248617
0.247574 0.776404 0.249842
0.386562 0.777624 0.251063
0.521376 0.778808 0.252247
0.655476 0.779986 0.253424
0.784038 0.781114 0.254553
0.910911 0.782228 0.255667
1.000000 0.783210 0.256649
0.000000 0.902256 0.251283
0.111779 0.903298 0.252325
0.251282 0.904523 0.253550
0.390269 0.905743 0.254770
0.525084 0.906927 0.255954
0.659184 0.908105 0.257131
0.787745 0.909233 0.258260
0.914619 0.910347 0.259374
1.000000 0.911330 0.260356
0.000000 1.000000 0.254551
0.115047 1.000000 0.255593
0.254550 1.000000 0.256818
0.393537 1.000000 0.258039
0.528352 1.000000 0.259222
0.662452 1.000000 0.260400
0.791014 1.000000 0.261529
0.917887 1.000000 0.262643
1.000000 1.000000 0.263625
0.000000 0.000000 0.359880
0.085257 0.000000 0.360922
0.224760 0.000000 0.362147
0.363748 0.000000 0.363367
0.498562 0.000000 0.364551
0.632662 0.000000 0.365729
0.761224 0.000000 0.366857
0.888097 0.000000 0.367971
0.999941 0.000000 0.368954
0.000000 0.091929 0.363348
0.088725 0.092971 0.364389
0.228227 0.094196 0.365614
0.367215 0.095416 0.366835
0.502029 0.096600 0.368018
0.636129 0.097778 0.369196
0.764691 0.098907 0.370325
0.891564 0.100021 0.371439
1.000000 0.101003 0.372421
0.000000 0.232806 0.367424
0.092801 0.233847 0.368466
0.232304 0.235072 0.369691
0.371291 0.236293 0.370911
0.506106 0.237476 0.372095
0.640206 0.238654 0.373272
0.768768 0.239783 0.374401
0.895641 0.240897 0.375515
1.000000 0.241879 0.376497
0.000000 0.373161 0.371486
0.096863 0.374202 0.372527
0.236365 0.375427 0.373752
0.375353 0.376648 0.374973
0.510168 0.377831 0.376157
0.644267 0.379009 0.377334
0.772829 0.380138 0.378463
0.899703 0.381252 0.379577
1.000000 0.382234 0.380559
0.000000 0.509301 0.375425
0.100802 0.510343 0.376467
0.240305 0.511568 0.377692
0.379293 0.512788 0.378912
0.514107 0.513972 0.380096
0.648207 0.515149 0.381274
0.776769 0.516278 0.382402
0.903642 0.517392 0.383516
1.000000 0.518374 0.384499
0.000000 0.644719 0.379344
0.104721 0.645761 0.380386
0.244224 0.646986 0.381611
0.383211 0.648206 0.382831
0.518026 0.649390 0.384015
0.652126 0.650567 0.385192
0.780688 0.651696 0.386321
0.907561 0.652810 0.387435
1.000000 0.653792 0.388417
0.000000 0.774544 0.383101
0.108478 0.775585 0.384143
0.247981 0.776810 0.385367
0.386968 0.778031 0.386588
0.521783 0.779215 0.387772
0.655883 0.780392 0.388949
0.784444 0.781521 0.390078
0.911318 0.782635 0.391192
1.000000 0.783617 0.392174
0.000000 0.902663 0.386808
0.112185 0.903705 0.387850
0.251688 0.904929 0.389075
0.390675 0.906150 0.390295
0.525490 0.907334 0.391479
0.659590 0.908511 0.392657
0.788152 0.909640 0.393785
0.915025 0.910754 0.394899
1.000000 0.911736 0.395881
0.000000 1.000000 0.390077
0.115454 1.000000 0.391118
0.254956 1.000000 0.392343
0.393944 1.000000 0.393564
0.528758 1.000000 0.394747
0.662858 1.000000 0.395925
0.791420 1.000000 0.397054
0.918293 1.000000 0.398168
1.000000 1.000000 0.399150
0.000000 0.000000 0.491469
0.085652 0.000000 0.492511
0.225155 0.000000 0.493736
0.364142 0.000000 0.494956
0.498957 0.000000 0.496140
0.633057 0.000000 0.497317
0.761619 0.000000 0.498446
0.888492 0.000000 0.499560
1.000000 0.000000 0.500542
0.000000 0.092324 0.494936
0.089119 0.093366 0.495978
0.228622 0.094591 0.497203
0.367609 0.095811 0.498423
0.502424 0.096995 0.499607
0.636524 0.098172 0.500785
0.765086 0.099301 0.501913
0.891959 0.100415 0.503028
1.000000 0.101397 0.504010
0.000000 0.233200 0.499013
0.093196 0.234242 0.500055
0.232699 0.235467 0.501280
0.371686 0.236687 0.502500
0.506501 0.237871 0.503684
0.640601 0.239049 0.504861
0.769162 0.240177 0.505990
0.896036 0.241291 0.507104
1.000000 0.242273 0.508086
0.000000 0.373555 0.503074
0.097257 0.374597 0.504116
0.236760 0.375822 0.505341
0.375748 0.377042 0.506562
0.510562 0.378226 0.507745
0.644662 0.379404 0.508923
0.773224 0.380532 0.510052
0.900097 0.381646 0.511166
1.000000 0.382629 0.512148
0.000000 0.509696 0.507014
0.101197 0.510737 0.508056
0.240700 0.511962 0.509281
0.379687 0.513183 0.510501
0.514502 0.514367 0.511685
0.648602 0.515544 0.512862
0.777164 0.516673 0.513991
0.904037 0.517787 0.515105
1.000000 0.518769 0.516087
0.000000 0.645114 0.510933
0.105116 0.646155 0.511975
0.244618 0.647380 0.513199
0.383606 0.648601 0.514420
0.518420 0.649784 0.515604
0.652520 0.650962 0.516781
0.781082 0.652091 0.517910
0.907956 0.653205 0.519024
1.000000 0.654187 0.520006
0.000000 0.774938 0.514690
0.108872 0.775980 0.515731
0.248375 0.777205 0.516956
0.387363 0.778425 0.518177
0.522177 0.779609 0.519360
0.656277 0.780787 0.520538
0.784839 0.781916 0.521667
0.911712 0.783030 0.522781
1.000000 0.784012 0.523763
0.000000 0.903057 0.518397
0.112580 0.904099 0.519439
0.252083 0.905324 0.520664
0.391070 0.906545 0.521884
0.525885 0.907728 0.523068
0.659985 0.908906 0.524245
0.788546 0.910035 0.525374
0.915420 0.911149 0.526488
1.000000 0.912131 0.527470
0.000000 1.000000 0.521665
0.115848 1.000000 0.522707
0.255351 1.000000 0.523932
0.394338 1.000000 0.525152
0.529153 1.000000 0.526336
0.663253 1.000000 0.527514
0.791815 1.000000 0.528642
0.918688 1.000000 0.529756
1.000000 1.000000 0.530739
0.000000 0.000000 0.622490
0.086045 0.000000 0.623532
0.225548 0.000000 0.624757
0.364535 0.000000 0.625977
0.499350 0.000000 0.627161
0.633450 0.000000 0.628338
0.762011 0.000000 0.629467
0.888885 0.000000 0.630581
1.000000 0.000000 0.631563
0.000000 0.092717 0.625957
0.089512 0.093759 0.626999
0.229015 0.094984 0.628224
0.368002 0.096204 0.629444
0.502817 0.097388 0.630628
0.636917 0.098565 0.631806
0.765479 0.099694 0.632934
0.892352 0.100808 0.634048
1.000000 0.101790 0.635031
0.000000 0.233593 0.630034
0.093589 0.234635 0.631076
0.233092 0.235860 0.632301
0.372079 0.237080 0.633521
0.506894 0.238264 0.634705
0.640994 0.239442 0.635882
0.769555 0.240570 0.637011
0.896429 0.241684 0.638125
1.000000 0.242666 0.639107
0.000000 0.373948 0.634095
0.097650 0.374990 0.635137
0.237153 0.376215 0.636362
0.376141 0.377435 0.637583
0.510955 0.378619 0.638766
0.645055 0.379797 0.639944
0.773617 0.380925 0.641073
0.900490 0.382039 0.642187
1.000000 0.383021 0.643169
0.000000 0.510089 0.638035
0.101590 0.511130 0.639077
0.241093 0.512355 0.640302
0.380080 0.513576 0.641522
0.514895 0.514759 0.642706
0.648995 0.515937 0.643883
0.777556 0.517066 0.645012
0.904430 0.518180 0.646126
1.000000 0.519162 0.647108
0.000000 0.645507 0.641954
0.105509 0.646548 0.642996
0.245011 0.647773 0.644220
0.383999 0.648994 0.645441
0.518813 0.650177 0.646625
0.652913 0.651355 0.647802
0.781475 0.652484 0.648931
0.908349 0.653598 0.650045
1.000000 0.654580 0.651027
0.000000 0.775331 0.645711
0.109265 0.776373 0.646752
0.248768 0.777598 0.647977
0.387756 0.778818 0.649198
0.522570 0.780002 0.650381
0.656670 0.781180 0.651559
0.785232 0.782308 0.652688
0.912105 0.783422 0.653802
1.000000 0.784405 0.654784
0.000000 0.903450 0.649418
0.112973 0.904492 0.650460
0.252476 0.905717 0.651685
0.391463 0.906938 0.652905
0.526278 0.908121 0.654089
0.660378 0.909299 0.655266
0.788939 0.910428 0.656395
0.915813 0.911542 0.657509
1.000000 0.912524 0.658491
0.000000 1.000000 0.652686
0.116241 1.000000 0.653728
0.255744 1.000000 0.654953
0.394731 1.000000 0.656173
0.529546 1.000000 0.657357
0.663646 1.000000 0.658535
0.792208 1.000000 0.659663
0.919081 1.000000 0.660777
1.000000 1.000000 0.661760
0.000000 0.000000 0.748222
0.086422 0.000000 0.749264
0.225925 0.000000 0.750488
0.364912 0.000000 0.751709
0.499727 0.000000 0.752893
0.633827 0.000000 0.754070
0.762389 0.000000 0.755199
0.889262 0.000000 0.756313
1.000000 0.000000 0.757295
0.000000 0.093094 0.751689
0.089889 0.094136 0.752731
0.229392 0.095361 0.753956
0.368380 0.096581 0.755176
0.503194 0.097765 0.756360
0.637294 0.098942 0.757537
0.765856 0.100071 0.758666
0.892729 0.101185 0.759780
1.000000 0.102167 0.760762
0.000000 0.233970 0.755766
0.093966 0.235012 0.756807
0.233469 0.236237 0.758032
0.372456 0.237457 0.759253
0.507271 0.238641 0.760436
0.641371 0.239819 0.761614
0.769932 0.240947 0.762743
0.896806 0.242062 0.763857
1.000000 0.243044 0.764839
0.000000 0.374325 0.759827
0.098027 0.375367 0.760869
0.237530 0.376592 0.762094
0.376518 0.377812 0.763314
0.511332 0.378996 0.764498
0.645432 0.380174 0.765675
0.773994 0.381303 0.766804
0.900867 0.382417 0.767918
1.000000 0.383399 0.768900
0.000000 0.510466 0.763767
0.101967 0.511508 0.764809
0.241470 0.512732 0.766033
0.380457 0.513953 0.767254
0.515272 0.515137 0.768438
0.649372 0.516314 0.769615
0.777934 0.517443 0.770744
0.904807 0.518557 0.771858
1.000000 0.519539 0.772840
0.000000 0.645884 0.767685
0.105886 0.646926 0.768727
0.245388 0.648150 0.769952
0.384376 0.649371 0.771172
0.519191 0.650555 0.772356
0.653290 0.651732 0.773534
0.781852 0.652861 0.774663
0.908726 0.653975 0.775777
1.000000 0.654957 0.776759
0.000000 0.775708 0.771442
0.109643 0.776750 0.772484
0.249145 0.777975 0.773709
0.388133 0.779196 0.774929
0.522947 0.780379 0.776113
0.657047 0.781557 0.777291
0.785609 0.782686 0.778419
0.912482 0.783800 0.779533
1.000000 0.784782 0.780515
0.000000 0.903828 0.775150
0.113350 0.904869 0.776191
0.252853 0.906094 0.777416
0.391840 0.907315 0.778637
0.526655 0.908498 0.779821
0.660755 0.909676 0.780998
0.789317 0.910805 0.782127
0.916190 0.911919 0.783241
1.000000 0.912901 0.784223
0.000000 1.000000 0.778418
0.116618 1.000000 0.779460
0.256121 1.000000 0.780685
0.395108 1.000000 0.781905
0.529923 1.000000 0.783089
0.664023 1.000000 0.784266
0.792585 1.000000 0.785395
0.919458 1.000000 0.786509
1.000000 1.000000 0.787491
0.000000 0.000000 0.872419
0.086795 0.000000 0.873461
0.226297 0.000000 0.874686
0.365285 0.000000 0.875906
0.500099 0.000000 0.877090
0.634199 0.000000 0.878267
0.762761 0.000000 0.879396
0.889634 0.000000 0.880510
1.000000 0.000000 0.881492
0.000000 0.093467 0.875886
0.090262 0.094508 0.876928
0.229765 0.095733 0.878153
0.368752 0.096954 0.879373
0.503567 0.098138 0.880557
0.637667 0.099315 0.881735
0.766228 0.100444 0.882863
0.893102 0.101558 0.883978
1.000000 0.102540 0.884960
0.000000 0.234343 0.879963
0.094338 0.235385 0.881005
0.233841 0.236610 0.882230
0.372829 0.237830 0.883450
0.507643 0.239014 0.884634
0.641743 0.240191 0.885811
0.770305 0.241320 0.886940
0.897178 0.242434 0.888054
1.000000 0.243416 0.889036
0.000000 0.374698 0.884025
0.098400 0.375740 0.885066
0.237903 0.376965 0.886291
0.376890 0.378185 0.887512
0.511705 0.379369 0.888695
0.645805 0.380546 0.889873
0.774367 0.381675 0.891002
0.901240 0.382789 0.892116
1.000000 0.383771 0.893098
0.000000 0.510838 0.887964
0.102340 0.511880 0.889006
0.241842 0.513105 0.890231
0.380830 0.514325 0.891451
0.515644 0.515509 0.892635
0.649744 0.516687 0.893812
0.778306 0.517815 0.894941
0.905179 0.518929 0.896055
1.000000 0.519911 0.897037
0.000000 0.646256 0.891883
0.106258 0.647298 0.892925
0.245761 0.648523 0.894149
0.384748 0.649743 0.895370
0.519563 0.650927 0.896554
0.653663 0.652105 0.897731
0.782225 0.653233 0.898860
0.909098 0.654347 0.899974
1.000000 0.655329 0.900956
0.000000 0.776081 0.895640
0.110015 0.777123 0.896681
0.249518 0.778348 0.897906
0.388505 0.779568 0.899127
0.523320 0.780752 0.900310
0.657420 0.781929 0.901488
0.785982 0.783058 0.902617
0.912855 0.784172 0.903731
1.000000 0.785154 0.904713
0.000000 0.904200 0.899347
0.113723 0.905242 0.900389
0.253225 0.906467 0.901614
0.392213 0.907687 0.902834
0.527027 0.908871 0.904018
0.661127 0.910048 0.905195
0.789689 0.911177 0.906324
0.916562 0.912291 0.907438
1.000000 0.913273 0.908420
0.000000 1.000000 0.902615
0.116991 1.000000 0.903657
0.256494 1.000000 0.904882
0.395481 1.000000 0.906102
0.530296 1.000000 0.907286
0.664396 1.000000 0.908464
0.792957 1.000000 0.909592
0.919831 1.000000 0.910706
1.000000 1.000000 0.911689
0.000000 0.000000 0.982000
0.087123 0.000000 0.983042
0.226626 0.000000 0.984267
0.365613 0.000000 0.985487
0.500428 0.000000 0.986671
0.634528 0.000000 0.987849
0.763090 0.000000 0.988977
0.889963 0.000000 0.990092
1.000000 0.000000 0.991074
0.000000 0.093795 0.985468
0.090590 0.094837 0.986509
0.230093 0.096062 0.987734
0.369081 0.097282 0.988955
0.503895 0.098466 0.990138
0.637995 0.099644 0.991316
0.766557 0.100772 0.992445
0.893430 0.101887 0.993559
1.000000 0.102869 0.994541
0.000000 0.234672 0.989544
0.094667 0.235713 0.990586
0.234170 0.236938 0.991811
0.373157 0.238159 0.993031
0.507972 0.239342 0.994215
0.642072 0.240520 0.995393
0.770634 0.241649 0.996521
0.897507 0.242763 0.997635
1.000000 0.243745 0.998617
0.000000 0.375027 0.993606
0.098729 0.376068 0.994648
0.238231 0.377293 0.995872
0.377219 0.378514 0.997093
0.512033 0.379697 0.998277
0.646133 0.380875 0.999454
0.774695 0.382004 1.000000
0.901569 0.383118 1.000000
1.000000 0.384100 1.000000
0.000000 0.511167 0.997545
0.102668 0.512209 0.998587
0.242171 0.513434 0.999812
0.381158 0.514654 1.000000
0.515973 0.515838 1.000000
0.650073 0.517015 1.000000
0.778635 0.518144 1.000000
0.905508 0.519258 1.000000
1.000000 0.520240 1.000000
0.000000 0.646585 1.000000
0.106587 0.647627 1.000000
0.246090 0.648852 1.000000
0.385077 0.650072 1.000000
0.519892 0.651256 1.000000
0.653992 0.652433 1.000000
0.782553 0.653562 1.000000
0.909427 0.654676 1.000000
1.000000 0.655658 1.000000
0.000000 0.776410 1.000000
0.110344 0.777451 1.000000
0.249846 0.778676 1.000000
0.388834 0.779897 1.000000
0.523649 0.781080 1.000000
0.657748 0.782258 1.000000
0.786310 0.783387 1.000000
0.913184 0.784501 1.000000
1.000000 0.785483 1.000000
0.000000 0.904529 1.000000
0.114051 0.905570 1.000000
0.253554 0.906795 1.000000
0.392541 0.908016 1.000000
0.527356 0.909200 1.000000
0.661456 0.910377 1.000000
0.790018 0.911506 1.000000
0.916891 0.912620 1.000000
1.000000 0.913602 1.000000
0.000000 1.000000 1.000000
0.117319 1.000000 1.000000
0.256822 1.000000 1.000000
0.395810 1.000000 1.000000
0.530624 1.000000 1.000000
0.664724 1.000000 1.000000
0.793286 1.000000 1.000000
0.920159 1.000000 1.000000
1.000000 1.000000 1.000000
