assets/ricoh/Ricoh_GR3_PS_Filter/LUT/GR3_High_Contrast_BW.cube
TITLE "Ricoh GR III High Contrast B&W"
LUT_3D_SIZE 5
DOMAIN_MIN 0.000000 0.000000 0.000000
DOMAIN_MAX 1.000000 1.000000 1.000000
0.000000 0.000000 0.000000
0.000000 0.000000 0.000000
0.011001 0.011001 0.011001
0.090320 0.090320 0.090320
0.137172 0.137172 0.137172
0.052950 0.052950 0.052950
0.105015 0.105015 0.105015
0.186151 0.186151 0.186151
0.265470 0.265470 0.265470
0.312322 0.312322 0.312322
0.325895 0.325895 0.325895
0.377960 0.377960 0.377960
0.459096 0.459096 0.459096
0.538415 0.538415 0.538415
0.585267 0.585267 0.585267
0.592730 0.592730 0.592730
0.644795 0.644795 0.644795
0.725931 0.725931 0.725931
0.805250 0.805250 0.805250
0.852102 0.852102 0.852102
0.750344 0.750344 0.750344
0.802409 0.802409 0.802409
0.883545 0.883545 0.883545
0.962864 0.962864 0.962864
1.000000 1.000000 1.000000
0.000000 0.000000 0.000000
0.000000 0.000000 0.000000
0.028682 0.028682 0.028682
0.108001 0.108001 0.108001
0.154854 0.154854 0.154854
0.070632 0.070632 0.070632
0.122697 0.122697 0.122697
0.203833 0.203833 0.203833
0.283152 0.283152 0.283152
0.330004 0.330004 0.330004
0.343577 0.343577 0.343577
0.395642 0.395642 0.395642
0.476778 0.476778 0.476778
0.556097 0.556097 0.556097
0.602949 0.602949 0.602949
0.610412 0.610412 0.610412
0.662477 0.662477 0.662477
0.743612 0.743612 0.743612
0.822931 0.822931 0.822931
0.869784 0.869784 0.869784
0.768026 0.768026 0.768026
0.820091 0.820091 0.820091
0.901226 0.901226 0.901226
0.980545 0.980545 0.980545
1.000000 1.000000 1.000000
0.000000 0.000000 0.000000
0.000000 0.000000 0.000000
0.056236 0.056236 0.056236
0.135555 0.135555 0.135555
0.182408 0.182408 0.182408
0.098186 0.098186 0.098186
0.150251 0.150251 0.150251
0.231387 0.231387 0.231387
0.310706 0.310706 0.310706
0.357558 0.357558 0.357558
0.371131 0.371131 0.371131
0.423196 0.423196 0.423196
0.504332 0.504332 0.504332
0.583651 0.583651 0.583651
0.630503 0.630503 0.630503
0.637966 0.637966 0.637966
0.690031 0.690031 0.690031
0.771166 0.771166 0.771166
0.850485 0.850485 0.850485
0.897338 0.897338 0.897338
0.795580 0.795580 0.795580
0.847645 0.847645 0.847645
0.928780 0.928780 0.928780
1.000000 1.000000 1.000000
1.000000 1.000000 1.000000
0.000000 0.000000 0.000000
0.002038 0.002038 0.002038
0.083173 0.083173 0.083173
0.162493 0.162493 0.162493
0.209345 0.209345 0.209345
0.125123 0.125123 0.125123
0.177188 0.177188 0.177188
0.258324 0.258324 0.258324
0.337643 0.337643 0.337643
0.384495 0.384495 0.384495
0.398068 0.398068 0.398068
0.450133 0.450133 0.450133
0.531269 0.531269 0.531269
0.610588 0.610588 0.610588
0.657440 0.657440 0.657440
0.664903 0.664903 0.664903
0.716968 0.716968 0.716968
0.798103 0.798103 0.798103
0.877423 0.877423 0.877423
0.924275 0.924275 0.924275
0.822517 0.822517 0.822517
0.874582 0.874582 0.874582
0.955717 0.955717 0.955717
1.000000 1.000000 1.000000
1.000000 1.000000 1.000000
0.000000 0.000000 0.000000
0.017949 0.017949 0.017949
0.099085 0.099085 0.099085
0.178404 0.178404 0.178404
0.225256 0.225256 0.225256
0.141034 0.141034 0.141034
0.193099 0.193099 0.193099
0.274235 0.274235 0.274235
0.353554 0.353554 0.353554
0.400406 0.400406 0.400406
0.413979 0.413979 0.413979
0.466044 0.466044 0.466044
0.547180 0.547180 0.547180
0.626499 0.626499 0.626499
0.673351 0.673351 0.673351
0.680814 0.680814 0.680814
0.732879 0.732879 0.732879
0.814015 0.814015 0.814015
0.893334 0.893334 0.893334
0.940186 0.940186 0.940186
0.838428 0.838428 0.838428
0.890493 0.890493 0.890493
0.971629 0.971629 0.971629
1.000000 1.000000 1.000000
1.000000 1.000000 1.000000
