assets/ricoh/Ricoh_GR3_PS_Filter/LUT/GR3_Positive_Film.cube
TITLE "Ricoh GR III Positive Film"
LUT_3D_SIZE 5
DOMAIN_MIN 0.000000 0.000000 0.000000
DOMAIN_MAX 1.000000 1.000000 1.000000
0.000000 0.000000 0.000000
0.152092 0.000000 0.000000
0.471553 0.000000 0.000000
0.758420 0.000000 0.000000
0.961188 0.000000 0.000000
0.000000 0.166914 0.000000
0.164269 0.170698 0.000000
0.483730 0.175730 0.000000
0.770597 0.180248 0.000000
0.973365 0.183441 0.000000
0.000000 0.487110 0.000000
0.180625 0.490893 0.000000
0.500087 0.495925 0.000000
0.786954 0.500443 0.000000
0.989722 0.503637 0.000000
0.000000 0.777827 0.000000
0.195475 0.781611 0.000000
0.514937 0.786643 0.000000
0.801804 0.791161 0.000000
1.000000 0.794354 0.000000
0.000000 0.985177 0.000000
0.206067 0.988961 0.000000
0.525529 0.993992 0.001968
0.812396 0.998511 0.006486
1.000000 1.000000 0.009680
0.000000 0.000000 0.159432
0.153282 0.000000 0.163216
0.472744 0.000000 0.168248
0.759611 0.000000 0.172766
0.962379 0.000000 0.175959
0.000000 0.168105 0.171609
0.165459 0.171889 0.175393
0.484921 0.176920 0.180425
0.771788 0.181438 0.184943
0.974556 0.184632 0.188136
0.000000 0.488300 0.187966
0.181815 0.492084 0.191749
0.501277 0.497115 0.196781
0.788144 0.501634 0.201299
0.990912 0.504827 0.204493
0.000000 0.779018 0.202816
0.196666 0.782802 0.206600
0.516128 0.787833 0.211632
0.802995 0.792351 0.216150
1.000000 0.795545 0.219343
0.000000 0.986367 0.213408
0.207258 0.990151 0.217192
0.526720 0.995183 0.222223
0.813587 0.999701 0.226742
1.000000 1.000000 0.229935
0.000000 0.000000 0.457209
0.154892 0.000000 0.460993
0.474353 0.000000 0.466024
0.761220 0.000000 0.470542
0.963988 0.000000 0.473736
0.000000 0.169714 0.469386
0.167069 0.173498 0.473170
0.486530 0.178530 0.478201
0.773397 0.183048 0.482719
0.976165 0.186241 0.485913
0.000000 0.489910 0.485742
0.183425 0.493693 0.489526
0.502887 0.498725 0.494557
0.789754 0.503243 0.499076
0.992522 0.506437 0.502269
0.000000 0.780627 0.500593
0.198275 0.784411 0.504376
0.517737 0.789443 0.509408
0.804604 0.793961 0.513926
1.000000 0.797154 0.517120
0.000000 0.987977 0.511184
0.208867 0.991761 0.514968
0.528329 0.996792 0.520000
0.815196 1.000000 0.524518
1.000000 1.000000 0.527712
0.000000 0.000000 0.729466
0.156363 0.000000 0.733250
0.475825 0.000000 0.738282
0.762692 0.000000 0.742800
0.965460 0.000000 0.745994
0.000000 0.171186 0.741643
0.168540 0.174970 0.745427
0.488002 0.180001 0.750459
0.774869 0.184519 0.754977
0.977637 0.187713 0.758171
0.000000 0.491381 0.758000
0.184896 0.495165 0.761784
0.504358 0.500196 0.766815
0.791225 0.504715 0.771333
0.993993 0.507908 0.774527
0.000000 0.782099 0.772850
0.199747 0.785883 0.776634
0.519209 0.790914 0.781666
0.806076 0.795432 0.786184
1.000000 0.798626 0.789377
0.000000 0.989448 0.783442
0.210339 0.993232 0.787226
0.529801 0.998264 0.792258
0.816668 1.000000 0.796776
1.000000 1.000000 0.799969
0.000000 0.000000 0.924742
0.157419 0.000000 0.928526
0.476880 0.000000 0.933557
0.763747 0.000000 0.938075
0.966515 0.000000 0.941269
0.000000 0.172241 0.936919
0.169596 0.176025 0.940703
0.489057 0.181057 0.945734
0.775924 0.185575 0.950252
0.978692 0.188768 0.953446
0.000000 0.492437 0.953275
0.185952 0.496220 0.957059
0.505414 0.501252 0.962091
0.792281 0.505770 0.966609
0.995049 0.508964 0.969802
0.000000 0.783154 0.968126
0.200802 0.786938 0.971910
0.520264 0.791970 0.976941
0.807131 0.796488 0.981459
1.000000 0.799681 0.984653
0.000000 0.990504 0.978718
0.211394 0.994288 0.982501
0.530856 0.999319 0.987533
0.817723 1.000000 0.992051
1.000000 1.000000 0.995245
