assets/ricoh/Ricoh_GR3_PS_Filter/LUT/GR3_Negative_Film.cube
TITLE "Ricoh GR III Negative Film"
LUT_3D_SIZE 33
DOMAIN_MIN 0.000000 0.000000 0.000000
DOMAIN_MAX 1.000000 1.000000 1.000000
0.080766 0.087469 0.090145
0.099784 0.088005 0.090681
0.118787 0.088541 0.091216
0.137778 0.089076 0.091751
0.156754 0.089610 0.092286
0.183154 0.090354 0.093030
0.209645 0.091100 0.093776
0.236110 0.091846 0.094522
0.262549 0.092591 0.095267
0.288960 0.093335 0.096011
0.315346 0.094078 0.096754
0.342974 0.094857 0.097533
0.372068 0.095676 0.098352
0.401129 0.096495 0.099171
0.430158 0.097313 0.099989
0.459155 0.098130 0.100806
0.488120 0.098946 0.101622
0.514556 0.099691 0.102367
0.537731 0.100344 0.103020
0.560885 0.100996 0.103672
0.584018 0.101648 0.104324
0.607130 0.102299 0.104975
0.630221 0.102950 0.105625
0.653292 0.103600 0.106275
0.675336 0.104221 0.106897
0.696842 0.104827 0.107502
0.718330 0.105432 0.108108
0.739799 0.106037 0.108713
0.761250 0.106641 0.109317
0.782848 0.107250 0.109926
0.805461 0.107887 0.110563
0.828054 0.108524 0.111199
0.850627 0.109159 0.111835
0.082507 0.107060 0.091886
0.101525 0.107596 0.092422
0.120528 0.108131 0.092957
0.139519 0.108666 0.093492
0.158495 0.109201 0.094027
0.184895 0.109945 0.094771
0.211386 0.110691 0.095517
0.237851 0.111437 0.096263
0.264289 0.112182 0.097007
0.290701 0.112926 0.097752
0.317087 0.113669 0.098495
0.344714 0.114448 0.099273
0.373809 0.115267 0.100093
0.402870 0.116086 0.100912
0.431899 0.116904 0.101730
0.460896 0.117721 0.102547
0.489860 0.118537 0.103363
0.516297 0.119282 0.104108
0.539471 0.119935 0.104761
0.562625 0.120587 0.105413
0.585758 0.121239 0.106065
0.608871 0.121890 0.106716
0.631962 0.122541 0.107366
0.655033 0.123191 0.108016
0.677077 0.123812 0.108637
0.698583 0.124418 0.109243
0.720070 0.125023 0.109849
0.741540 0.125628 0.110454
0.762991 0.126232 0.111058
0.784588 0.126841 0.111666
0.807202 0.127478 0.112304
0.829795 0.128114 0.112940
0.852368 0.128750 0.113576
0.084248 0.126655 0.093627
0.103266 0.127191 0.094163
0.122270 0.127727 0.094698
0.141260 0.128262 0.095233
0.160236 0.128796 0.095768
0.186636 0.129540 0.096512
0.213127 0.130286 0.097258
0.239592 0.131032 0.098004
0.266031 0.131777 0.098749
0.292443 0.132521 0.099493
0.318828 0.133264 0.100236
0.346456 0.134043 0.101015
0.375550 0.134863 0.101834
0.404611 0.135681 0.102653
0.433641 0.136499 0.103471
0.462637 0.137316 0.104288
0.491602 0.138132 0.105104
0.518038 0.138877 0.105849
0.541213 0.139530 0.106502
0.564367 0.140182 0.107154
0.587500 0.140834 0.107806
0.610612 0.141485 0.108457
0.633703 0.142136 0.109108
0.656774 0.142786 0.109758
0.678818 0.143407 0.110379
0.700324 0.144013 0.110985
0.721812 0.144618 0.111590
0.743281 0.145223 0.112195
0.764732 0.145827 0.112799
0.786330 0.146436 0.113408
0.808943 0.147073 0.114045
0.831536 0.147710 0.114681
0.854109 0.148346 0.115317
0.085990 0.146255 0.095369
0.105007 0.146791 0.095905
0.124011 0.147326 0.096440
0.143001 0.147861 0.096975
0.161978 0.148396 0.097510
0.188378 0.149140 0.098253
0.214869 0.149886 0.099000
0.241334 0.150632 0.099745
0.267772 0.151377 0.100490
0.294184 0.152121 0.101235
0.320569 0.152864 0.101978
0.348197 0.153642 0.102756
0.377291 0.154462 0.103576
0.406353 0.155281 0.104395
0.435382 0.156099 0.105213
0.464379 0.156916 0.106030
0.493343 0.157732 0.106846
0.519780 0.158477 0.107590
0.542954 0.159130 0.108243
0.566108 0.159782 0.108896
0.589241 0.160434 0.109547
0.612354 0.161085 0.110199
0.635445 0.161735 0.110849
0.658515 0.162385 0.111499
0.680560 0.163006 0.112120
0.702066 0.163612 0.112726
0.723553 0.164218 0.113332
0.745023 0.164823 0.113936
0.766474 0.165427 0.114541
0.788071 0.166036 0.115149
0.810685 0.166673 0.115786
0.833278 0.167309 0.116423
0.855850 0.167945 0.117059
0.087732 0.165859 0.097111
0.106749 0.166395 0.097647
0.125753 0.166930 0.098182
0.144743 0.167465 0.098717
0.163720 0.168000 0.099252
0.190120 0.168744 0.099996
0.216611 0.169490 0.100742
0.243076 0.170236 0.101488
0.269514 0.170980 0.102232
0.295926 0.171725 0.102977
0.322311 0.172468 0.103720
0.349939 0.173246 0.104498
0.379033 0.174066 0.105318
0.408095 0.174885 0.106137
0.437124 0.175703 0.106955
0.466121 0.176520 0.107772
0.495085 0.177336 0.108588
0.521522 0.178081 0.109332
0.544696 0.178733 0.109985
0.567850 0.179386 0.110638
0.590983 0.180038 0.111290
0.614096 0.180689 0.111941
0.637187 0.181339 0.112591
0.660257 0.181989 0.113241
0.682302 0.182610 0.113862
0.703808 0.183216 0.114468
0.725295 0.183822 0.115074
0.746765 0.184427 0.115678
0.768216 0.185031 0.116283
0.789813 0.185639 0.116891
0.812427 0.186277 0.117528
0.835020 0.186913 0.118165
0.857592 0.187549 0.118801
0.090158 0.193162 0.099537
0.109176 0.193697 0.100073
0.128179 0.194233 0.100608
0.147170 0.194768 0.101143
0.166146 0.195303 0.101678
0.192546 0.196046 0.102422
0.219037 0.196793 0.103168
0.245502 0.197538 0.103914
0.271941 0.198283 0.104659
0.298352 0.199027 0.105403
0.324738 0.199771 0.106146
0.352366 0.200549 0.106924
0.381460 0.201369 0.107744
0.410521 0.202188 0.108563
0.439550 0.203005 0.109381
0.468547 0.203822 0.110198
0.497511 0.204638 0.111014
0.523948 0.205383 0.111759
0.547123 0.206036 0.112412
0.570276 0.206689 0.113064
0.593409 0.207340 0.113716
0.616522 0.207991 0.114367
0.639613 0.208642 0.115017
0.662684 0.209292 0.115667
0.684728 0.209913 0.116288
0.706234 0.210519 0.116894
0.727721 0.211124 0.117500
0.749191 0.211729 0.118105
0.770642 0.212334 0.118709
0.792240 0.212942 0.119318
0.814853 0.213579 0.119955
0.837446 0.214216 0.120591
0.860019 0.214852 0.121227
0.092596 0.220595 0.101975
0.111613 0.221131 0.102511
0.130617 0.221667 0.103046
0.149607 0.222202 0.103581
0.168584 0.222736 0.104116
0.194983 0.223480 0.104859
0.221475 0.224226 0.105606
0.247940 0.224972 0.106351
0.274378 0.225717 0.107096
0.300790 0.226461 0.107840
0.327175 0.227204 0.108584
0.354803 0.227983 0.109362
0.383897 0.228803 0.110182
0.412959 0.229621 0.111001
0.441988 0.230439 0.111819
0.470985 0.231256 0.112636
0.499949 0.232072 0.113452
0.526386 0.232817 0.114196
0.549560 0.233470 0.114849
0.572714 0.234122 0.115502
0.595847 0.234774 0.116153
0.618959 0.235425 0.116805
0.642051 0.236076 0.117455
0.665121 0.236726 0.118105
0.687166 0.237347 0.118726
0.708672 0.237953 0.119332
0.730159 0.238558 0.119938
0.751629 0.239163 0.120542
0.773080 0.239767 0.121147
0.794677 0.240376 0.121755
0.817291 0.241013 0.122392
0.839884 0.241650 0.123029
0.862456 0.242286 0.123665
0.095035 0.248038 0.104413
0.114052 0.248574 0.104949
0.133056 0.249109 0.105485
0.152046 0.249644 0.106020
0.171023 0.250179 0.106554
0.197422 0.250922 0.107298
0.223914 0.251669 0.108044
0.250379 0.252414 0.108790
0.276817 0.253159 0.109535
0.303229 0.253903 0.110279
0.329614 0.254647 0.111022
0.357242 0.255425 0.111801
0.386336 0.256245 0.112620
0.415398 0.257064 0.113439
0.444427 0.257882 0.114257
0.473423 0.258699 0.115074
0.502388 0.259515 0.115890
0.528824 0.260259 0.116635
0.551999 0.260912 0.117288
0.575153 0.261565 0.117940
0.598286 0.262216 0.118592
0.621398 0.262868 0.119243
0.644489 0.263518 0.119894
0.667560 0.264168 0.120544
0.689605 0.264789 0.121165
0.711110 0.265395 0.121771
0.732598 0.266001 0.122376
0.754067 0.266605 0.122981
0.775518 0.267210 0.123585
0.797116 0.267818 0.124194
0.819729 0.268455 0.124831
0.842322 0.269092 0.125467
0.864895 0.269728 0.126103
0.097474 0.275489 0.106853
0.116491 0.276024 0.107388
0.135495 0.276560 0.107924
0.154485 0.277095 0.108459
0.173462 0.277629 0.108994
0.199861 0.278373 0.109737
0.226353 0.279120 0.110484
0.252818 0.279865 0.111229
0.279256 0.280610 0.111974
0.305668 0.281354 0.112718
0.332053 0.282098 0.113462
0.359681 0.282876 0.114240
0.388775 0.283696 0.115060
0.417837 0.284514 0.115879
0.446866 0.285332 0.116696
0.475863 0.286149 0.117513
0.504827 0.286965 0.118329
0.531263 0.287710 0.119074
0.554438 0.288363 0.119727
0.577592 0.289015 0.120380
0.600725 0.289667 0.121031
0.623837 0.290318 0.121682
0.646929 0.290969 0.122333
0.669999 0.291619 0.122983
0.692044 0.292240 0.123604
0.713550 0.292846 0.124210
0.735037 0.293451 0.124815
0.756506 0.294056 0.125420
0.777958 0.294661 0.126025
0.799555 0.295269 0.126633
0.822168 0.295906 0.127270
0.844762 0.296543 0.127907
0.867334 0.297179 0.128543
0.099914 0.302948 0.109293
0.118931 0.303484 0.109828
0.137935 0.304019 0.110364
0.156925 0.304554 0.110899
0.175902 0.305089 0.111434
0.202301 0.305833 0.112177
0.228793 0.306579 0.112924
0.255258 0.307325 0.113669
0.281696 0.308069 0.114414
0.308108 0.308814 0.115158
0.334493 0.309557 0.115902
0.362121 0.310335 0.116680
0.391215 0.311155 0.117500
0.420277 0.311974 0.118319
0.449306 0.312792 0.119137
0.478303 0.313609 0.119953
0.507267 0.314425 0.120770
0.533703 0.315169 0.121514
0.556878 0.315822 0.122167
0.580032 0.316475 0.122820
0.603165 0.317126 0.123471
0.626277 0.317778 0.124123
0.649369 0.318428 0.124773
0.672439 0.319078 0.125423
0.694484 0.319699 0.126044
0.715990 0.320305 0.126650
0.737477 0.320911 0.127255
0.758946 0.321515 0.127860
0.780398 0.322120 0.128465
0.801995 0.322728 0.129073
0.824609 0.323365 0.129710
0.847202 0.324002 0.130347
0.869774 0.324638 0.130983
0.102355 0.330416 0.111734
0.121372 0.330951 0.112269
0.140376 0.331487 0.112805
0.159366 0.332022 0.113340
0.178343 0.332557 0.113874
0.204742 0.333300 0.114618
0.231234 0.334047 0.115365
0.257699 0.334792 0.116110
0.284137 0.335537 0.116855
0.310549 0.336281 0.117599
0.336934 0.337025 0.118343
0.364562 0.337803 0.119121
0.393656 0.338623 0.119941
0.422718 0.339442 0.120759
0.451747 0.340259 0.121577
0.480744 0.341076 0.122394
0.509708 0.341892 0.123210
0.536144 0.342637 0.123955
0.559319 0.343290 0.124608
0.582473 0.343943 0.125260
0.605606 0.344594 0.125912
0.628718 0.345245 0.126563
0.651810 0.345896 0.127214
0.674880 0.346546 0.127864
0.696925 0.347167 0.128485
0.718430 0.347773 0.129091
0.739918 0.348378 0.129696
0.761387 0.348983 0.130301
0.782838 0.349588 0.130906
0.804436 0.350196 0.131514
0.827049 0.350833 0.132151
0.849642 0.351470 0.132788
0.872215 0.352106 0.133424
0.104914 0.359216 0.114293
0.123931 0.359752 0.114829
0.142935 0.360287 0.115364
0.161925 0.360822 0.115899
0.180902 0.361357 0.116434
0.207301 0.362101 0.117177
0.233793 0.362847 0.117924
0.260258 0.363593 0.118669
0.286696 0.364337 0.119414
0.313108 0.365082 0.120158
0.339493 0.365825 0.120902
0.367121 0.366603 0.121680
0.396215 0.367423 0.122500
0.425277 0.368242 0.123319
0.454306 0.369060 0.124137
0.483303 0.369877 0.124953
0.512267 0.370693 0.125770
0.538704 0.371438 0.126514
0.561878 0.372090 0.127167
0.585032 0.372743 0.127820
0.608165 0.373395 0.128471
0.631277 0.374046 0.129123
0.654369 0.374696 0.129773
0.677439 0.375346 0.130423
0.699484 0.375967 0.131044
0.720990 0.376573 0.131650
0.742477 0.377179 0.132255
0.763946 0.377784 0.132860
0.785398 0.378388 0.133465
0.806995 0.378996 0.134073
0.829609 0.379633 0.134710
0.852202 0.380270 0.135347
0.874774 0.380906 0.135983
0.107613 0.389588 0.116992
0.126630 0.390123 0.117527
0.145634 0.390659 0.118063
0.164624 0.391194 0.118598
0.183601 0.391728 0.119132
0.210000 0.392472 0.119876
0.236492 0.393219 0.120623
0.262957 0.393964 0.121368
0.289395 0.394709 0.122113
0.315807 0.395453 0.122857
0.342192 0.396197 0.123601
0.369820 0.396975 0.124379
0.398914 0.397795 0.125199
0.427976 0.398613 0.126018
0.457005 0.399431 0.126835
0.486002 0.400248 0.127652
0.514966 0.401064 0.128468
0.541402 0.401809 0.129213
0.564577 0.402462 0.129866
0.587731 0.403114 0.130518
0.610864 0.403766 0.131170
0.633976 0.404417 0.131821
0.657068 0.405068 0.132472
0.680138 0.405718 0.133122
0.702183 0.406339 0.133743
0.723689 0.406945 0.134349
0.745176 0.407550 0.134954
0.766645 0.408155 0.135559
0.788096 0.408760 0.136164
0.809694 0.409368 0.136772
0.832307 0.410005 0.137409
0.854900 0.410642 0.138046
0.877473 0.411278 0.138682
0.110313 0.419970 0.119691
0.129330 0.420505 0.120227
0.148334 0.421041 0.120763
0.167324 0.421576 0.121298
0.186301 0.422110 0.121832
0.212700 0.422854 0.122576
0.239192 0.423601 0.123322
0.265657 0.424346 0.124068
0.292095 0.425091 0.124813
0.318507 0.425835 0.125557
0.344892 0.426579 0.126300
0.372520 0.427357 0.127079
0.401614 0.428177 0.127899
0.430676 0.428995 0.128717
0.459705 0.429813 0.129535
0.488701 0.430630 0.130352
0.517666 0.431446 0.131168
0.544102 0.432191 0.131913
0.567277 0.432844 0.132566
0.590431 0.433496 0.133218
0.613564 0.434148 0.133870
0.636676 0.434799 0.134521
0.659767 0.435450 0.135172
0.682838 0.436100 0.135822
0.704883 0.436721 0.136443
0.726388 0.437327 0.137049
0.747876 0.437932 0.137654
0.769345 0.438537 0.138259
0.790796 0.439142 0.138863
0.812394 0.439750 0.139472
0.835007 0.440387 0.140109
0.857600 0.441024 0.140746
0.880173 0.441660 0.141381
0.113013 0.450362 0.122392
0.132031 0.450898 0.122928
0.151034 0.451433 0.123463
0.170025 0.451968 0.123998
0.189001 0.452503 0.124533
0.215401 0.453247 0.125277
0.241892 0.453993 0.126023
0.268357 0.454739 0.126769
0.294796 0.455484 0.127514
0.321207 0.456228 0.128258
0.347593 0.456971 0.129001
0.375221 0.457749 0.129780
0.404315 0.458569 0.130599
0.433376 0.459388 0.131418
0.462405 0.460206 0.132236
0.491402 0.461023 0.133053
0.520367 0.461839 0.133869
0.546803 0.462584 0.134614
0.569978 0.463237 0.135267
0.593131 0.463889 0.135919
0.616265 0.464541 0.136571
0.639377 0.465192 0.137222
0.662468 0.465842 0.137872
0.685539 0.466492 0.138522
0.707583 0.467113 0.139144
0.729089 0.467719 0.139749
0.750576 0.468325 0.140355
0.772046 0.468930 0.140960
0.793497 0.469534 0.141564
0.815095 0.470142 0.142173
0.837708 0.470780 0.142810
0.860301 0.471416 0.143446
0.882874 0.472052 0.144082
0.115715 0.480765 0.125094
0.134732 0.481301 0.125629
0.153736 0.481836 0.126165
0.172726 0.482371 0.126700
0.191703 0.482906 0.127235
0.218102 0.483649 0.127978
0.244594 0.484396 0.128725
0.271059 0.485141 0.129470
0.297497 0.485886 0.130215
0.323909 0.486630 0.130959
0.350294 0.487374 0.131703
0.377922 0.488152 0.132481
0.407016 0.488972 0.133301
0.436078 0.489791 0.134120
0.465107 0.490609 0.134937
0.494104 0.491426 0.135754
0.523068 0.492242 0.136570
0.549504 0.492986 0.137315
0.572679 0.493639 0.137968
0.595833 0.494292 0.138621
0.618966 0.494943 0.139272
0.642078 0.495595 0.139923
0.665170 0.496245 0.140574
0.688240 0.496895 0.141224
0.710285 0.497516 0.141845
0.731791 0.498122 0.142451
0.753278 0.498728 0.143056
0.774747 0.499332 0.143661
0.796199 0.499937 0.144266
0.817796 0.500545 0.144874
0.840409 0.501182 0.145511
0.863003 0.501819 0.146148
0.885575 0.502455 0.146784
0.118417 0.511178 0.127796
0.137435 0.511714 0.128332
0.156439 0.512249 0.128867
0.175429 0.512784 0.129402
0.194405 0.513319 0.129937
0.220805 0.514063 0.130681
0.247296 0.514809 0.131427
0.273761 0.515555 0.132173
0.300200 0.516299 0.132918
0.326612 0.517044 0.133662
0.352997 0.517787 0.134405
0.380625 0.518565 0.135184
0.409719 0.519385 0.136003
0.438780 0.520204 0.136822
0.467810 0.521022 0.137640
0.496806 0.521839 0.138457
0.525771 0.522655 0.139273
0.552207 0.523400 0.140018
0.575382 0.524052 0.140671
0.598536 0.524705 0.141323
0.621669 0.525357 0.141975
0.644781 0.526008 0.142626
0.667872 0.526658 0.143277
0.690943 0.527308 0.143927
0.712987 0.527929 0.144548
0.734493 0.528535 0.145154
0.755981 0.529141 0.145759
0.777450 0.529746 0.146364
0.798901 0.530350 0.146968
0.820499 0.530958 0.147577
0.843112 0.531596 0.148214
0.865705 0.532232 0.148850
0.888278 0.532868 0.149486
0.120888 0.538975 0.130266
0.139905 0.539511 0.130802
0.158909 0.540047 0.131338
0.177899 0.540582 0.131873
0.196876 0.541116 0.132407
0.223275 0.541860 0.133151
0.249767 0.542607 0.133897
0.276231 0.543352 0.134643
0.302670 0.544097 0.135388
0.329082 0.544841 0.136132
0.355467 0.545585 0.136875
0.383095 0.546363 0.137654
0.412189 0.547183 0.138473
0.441251 0.548001 0.139292
0.470280 0.548819 0.140110
0.499276 0.549636 0.140927
0.528241 0.550452 0.141743
0.554677 0.551197 0.142488
0.577852 0.551850 0.143141
0.601006 0.552502 0.143793
0.624139 0.553154 0.144445
0.647251 0.553805 0.145096
0.670342 0.554456 0.145747
0.693413 0.555106 0.146397
0.715458 0.555727 0.147018
0.736963 0.556333 0.147624
0.758451 0.556938 0.148229
0.779920 0.557543 0.148834
0.801371 0.558148 0.149438
0.822969 0.558756 0.150047
0.845582 0.559393 0.150684
0.868175 0.560030 0.151320
0.890748 0.560666 0.151956
0.123056 0.563374 0.132434
0.142073 0.563910 0.132970
0.161077 0.564445 0.133506
0.180067 0.564980 0.134041
0.199044 0.565515 0.134575
0.225443 0.566259 0.135319
0.251935 0.567005 0.136065
0.278400 0.567751 0.136811
0.304838 0.568496 0.137556
0.331250 0.569240 0.138300
0.357635 0.569983 0.139043
0.385263 0.570762 0.139822
0.414357 0.571581 0.140642
0.443419 0.572400 0.141460
0.472448 0.573218 0.142278
0.501445 0.574035 0.143095
0.530409 0.574851 0.143911
0.556845 0.575596 0.144656
0.580020 0.576249 0.145309
0.603174 0.576901 0.145961
0.626307 0.577553 0.146613
0.649419 0.578204 0.147264
0.672510 0.578855 0.147915
0.695581 0.579505 0.148565
0.717626 0.580126 0.149186
0.739131 0.580732 0.149792
0.760619 0.581337 0.150397
0.782088 0.581942 0.151002
0.803539 0.582546 0.151606
0.825137 0.583155 0.152215
0.847750 0.583792 0.152852
0.870343 0.584428 0.153489
0.892916 0.585064 0.154125
0.125224 0.587779 0.134603
0.144242 0.588315 0.135139
0.163246 0.588851 0.135674
0.182236 0.589386 0.136209
0.201212 0.589920 0.136744
0.227612 0.590664 0.137488
0.254103 0.591410 0.138234
0.280568 0.592156 0.138980
0.307007 0.592901 0.139725
0.333418 0.593645 0.140469
0.359804 0.594389 0.141212
0.387432 0.595167 0.141991
0.416526 0.595987 0.142810
0.445587 0.596805 0.143629
0.474616 0.597623 0.144447
0.503613 0.598440 0.145264
0.532578 0.599256 0.146080
0.559014 0.600001 0.146825
0.582189 0.600654 0.147478
0.605343 0.601306 0.148130
0.628476 0.601958 0.148782
0.651588 0.602609 0.149433
0.674679 0.603260 0.150083
0.697750 0.603910 0.150733
0.719794 0.604531 0.151355
0.741300 0.605137 0.151960
0.762788 0.605742 0.152566
0.784257 0.606347 0.153171
0.805708 0.606951 0.153775
0.827306 0.607560 0.154384
0.849919 0.608197 0.155021
0.872512 0.608834 0.155657
0.895085 0.609470 0.156293
0.127394 0.612191 0.136772
0.146411 0.612727 0.137308
0.165415 0.613263 0.137844
0.184405 0.613798 0.138379
0.203382 0.614332 0.138913
0.229781 0.615076 0.139657
0.256273 0.615822 0.140403
0.282738 0.616568 0.141149
0.309176 0.617313 0.141894
0.335588 0.618057 0.142638
0.361973 0.618800 0.143381
0.389601 0.619579 0.144160
0.418695 0.620399 0.144980
0.447757 0.621217 0.145798
0.476786 0.622035 0.146616
0.505783 0.622852 0.147433
0.534747 0.623668 0.148249
0.561183 0.624413 0.148994
0.584358 0.625066 0.149647
0.607512 0.625718 0.150299
0.630645 0.626370 0.150951
0.653757 0.627021 0.151602
0.676848 0.627672 0.152253
0.699919 0.628322 0.152903
0.721964 0.628943 0.153524
0.743469 0.629549 0.154130
0.764957 0.630154 0.154735
0.786426 0.630759 0.155340
0.807877 0.631363 0.155944
0.829475 0.631972 0.156553
0.852088 0.632609 0.157190
0.874681 0.633246 0.157827
0.897254 0.633882 0.158462
0.129563 0.636610 0.138942
0.148581 0.637146 0.139478
0.167585 0.637681 0.140013
0.186575 0.638216 0.140548
0.205551 0.638751 0.141083
0.231951 0.639495 0.141827
0.258442 0.640241 0.142573
0.284907 0.640987 0.143319
0.311346 0.641732 0.144064
0.337758 0.642476 0.144808
0.364143 0.643219 0.145551
0.391771 0.643998 0.146330
0.420865 0.644817 0.147149
0.449926 0.645636 0.147968
0.478956 0.646454 0.148786
0.507952 0.647271 0.149603
0.536917 0.648087 0.150419
0.563353 0.648832 0.151164
0.586528 0.649485 0.151817
0.609682 0.650137 0.152469
0.632815 0.650789 0.153121
0.655927 0.651440 0.153772
0.679018 0.652090 0.154423
0.702089 0.652740 0.155073
0.724134 0.653362 0.155694
0.745639 0.653967 0.156300
0.767127 0.654573 0.156905
0.788596 0.655178 0.157510
0.810047 0.655782 0.158114
0.831645 0.656391 0.158723
0.854258 0.657028 0.159360
0.876851 0.657664 0.159996
0.899424 0.658300 0.160632
0.131734 0.661035 0.141113
0.150751 0.661571 0.141648
0.169755 0.662107 0.142184
0.188745 0.662642 0.142719
0.207722 0.663176 0.143254
0.234121 0.663920 0.143997
0.260613 0.664666 0.144744
0.287078 0.665412 0.145489
0.313516 0.666157 0.146234
0.339928 0.666901 0.146978
0.366313 0.667644 0.147722
0.393941 0.668423 0.148500
0.423035 0.669243 0.149320
0.452097 0.670061 0.150139
0.481126 0.670879 0.150956
0.510123 0.671696 0.151773
0.539087 0.672512 0.152589
0.565523 0.673257 0.153334
0.588698 0.673910 0.153987
0.611852 0.674562 0.154640
0.634985 0.675214 0.155291
0.658097 0.675865 0.155943
0.681189 0.676516 0.156593
0.704259 0.677166 0.157243
0.726304 0.677787 0.157864
0.747810 0.678393 0.158470
0.769297 0.678998 0.159075
0.790766 0.679603 0.159680
0.812218 0.680207 0.160285
0.833815 0.680816 0.160893
0.856429 0.681453 0.161530
0.879022 0.682090 0.162167
0.901594 0.682726 0.162803
0.133905 0.685467 0.143284
0.152922 0.686003 0.143820
0.171926 0.686539 0.144355
0.190916 0.687074 0.144890
0.209893 0.687608 0.145425
0.236292 0.688352 0.146168
0.262784 0.689098 0.146915
0.289249 0.689844 0.147660
0.315687 0.690589 0.148405
0.342099 0.691333 0.149149
0.368484 0.692076 0.149893
0.396112 0.692855 0.150671
0.425206 0.693675 0.151491
0.454268 0.694493 0.152310
0.483297 0.695311 0.153128
0.512294 0.696128 0.153944
0.541258 0.696944 0.154761
0.567695 0.697689 0.155505
0.590869 0.698342 0.156158
0.614023 0.698994 0.156811
0.637156 0.699646 0.157462
0.660268 0.700297 0.158114
0.683360 0.700948 0.158764
0.706430 0.701598 0.159414
0.728475 0.702219 0.160035
0.749981 0.702825 0.160641
0.771468 0.703430 0.161247
0.792937 0.704035 0.161851
0.814389 0.704639 0.162456
0.835986 0.705248 0.163064
0.858600 0.705885 0.163701
0.881193 0.706522 0.164338
0.903765 0.707158 0.164974
0.135982 0.708840 0.145361
0.154999 0.709376 0.145896
0.174003 0.709911 0.146432
0.192993 0.710446 0.146967
0.211970 0.710981 0.147502
0.238369 0.711725 0.148245
0.264861 0.712471 0.148992
0.291326 0.713217 0.149737
0.317764 0.713962 0.150482
0.344176 0.714706 0.151226
0.370561 0.715449 0.151970
0.398189 0.716227 0.152748
0.427283 0.717047 0.153568
0.456345 0.717866 0.154387
0.485374 0.718684 0.155204
0.514371 0.719501 0.156021
0.543335 0.720317 0.156837
0.569771 0.721062 0.157582
0.592946 0.721715 0.158235
0.616100 0.722367 0.158888
0.639233 0.723019 0.159539
0.662345 0.723670 0.160190
0.685437 0.724320 0.160841
0.708507 0.724970 0.161491
0.730552 0.725591 0.162112
0.752058 0.726197 0.162718
0.773545 0.726803 0.163323
0.795014 0.727408 0.163928
0.816466 0.728012 0.164533
0.838063 0.728620 0.165141
0.860676 0.729258 0.165778
0.883270 0.729894 0.166415
0.905842 0.730530 0.167051
0.138010 0.731666 0.147389
0.157028 0.732202 0.147925
0.176031 0.732738 0.148460
0.195022 0.733273 0.148995
0.213998 0.733807 0.149530
0.240398 0.734551 0.150274
0.266889 0.735297 0.151020
0.293354 0.736043 0.151766
0.319793 0.736788 0.152511
0.346204 0.737532 0.153255
0.372590 0.738275 0.153998
0.400218 0.739054 0.154776
0.429312 0.739874 0.155596
0.458373 0.740692 0.156415
0.487402 0.741510 0.157233
0.516399 0.742327 0.158050
0.545363 0.743143 0.158866
0.571800 0.743888 0.159611
0.594975 0.744541 0.160264
0.618128 0.745193 0.160916
0.641262 0.745845 0.161568
0.664374 0.746496 0.162219
0.687465 0.747147 0.162869
0.710536 0.747797 0.163519
0.732580 0.748418 0.164140
0.754086 0.749024 0.164746
0.775573 0.749629 0.165352
0.797043 0.750234 0.165957
0.818494 0.750838 0.166561
0.840092 0.751447 0.167170
0.862705 0.752084 0.167807
0.885298 0.752721 0.168443
0.907871 0.753357 0.169079
0.140039 0.754499 0.149418
0.159057 0.755034 0.149954
0.178060 0.755570 0.150489
0.197051 0.756105 0.151024
0.216027 0.756640 0.151559
0.242427 0.757383 0.152303
0.268918 0.758130 0.153049
0.295383 0.758875 0.153795
0.321821 0.759620 0.154539
0.348233 0.760364 0.155284
0.374619 0.761108 0.156027
0.402246 0.761886 0.156805
0.431340 0.762706 0.157625
0.460402 0.763525 0.158444
0.489431 0.764342 0.159262
0.518428 0.765159 0.160079
0.547392 0.765975 0.160895
0.573829 0.766720 0.161640
0.597003 0.767373 0.162292
0.620157 0.768026 0.162945
0.643290 0.768677 0.163597
0.666403 0.769328 0.164248
0.689494 0.769979 0.164898
0.712564 0.770629 0.165548
0.734609 0.771250 0.166169
0.756115 0.771856 0.166775
