assets/ricoh/Ricoh_GR3_PS_Filter/LUT/GR3_Bleach_Bypass.cube
TITLE "Ricoh GR III Bleach Bypass"
LUT_3D_SIZE 5
DOMAIN_MIN 0.000000 0.000000 0.000000
DOMAIN_MAX 1.000000 1.000000 1.000000
0.000000 0.000000 0.000000
0.034307 0.000000 0.000000
0.308005 0.000000 0.000000
0.545715 0.000000 0.000000
0.706544 0.000000 0.000000
0.000000 0.087343 0.000000
0.106991 0.109263 0.000000
0.380689 0.143240 0.000000
0.618399 0.172749 0.023435
0.779228 0.192714 0.043400
0.043336 0.437101 0.050952
0.219914 0.459021 0.072872
0.493612 0.492998 0.106849
0.731322 0.522507 0.136358
0.892151 0.542472 0.156323
0.141671 0.741676 0.149287
0.318249 0.763596 0.171207
0.591947 0.797573 0.205184
0.829657 0.827082 0.234693
0.990486 0.847047 0.254658
0.208340 0.948172 0.215956
0.384919 0.970092 0.237877
0.658617 1.000000 0.271853
0.896327 1.000000 0.301362
1.000000 1.000000 0.321327
0.000000 0.000000 0.023371
0.041564 0.000000 0.045291
0.315262 0.000000 0.079268
0.552972 0.000000 0.108777
0.713801 0.000000 0.128742
0.000000 0.094600 0.096055
0.114248 0.116520 0.117976
0.387946 0.150497 0.151952
0.625656 0.180006 0.181461
0.786485 0.199971 0.201426
0.050593 0.444358 0.208978
0.227171 0.466278 0.230899
0.500869 0.500255 0.264875
0.738579 0.529764 0.294384
0.899408 0.549729 0.314349
0.148928 0.748933 0.307314
0.325507 0.770853 0.329234
0.599204 0.804830 0.363210
0.836914 0.834339 0.392719
0.997743 0.854304 0.412684
0.215597 0.955429 0.373983
0.392176 0.977349 0.395903
0.665874 1.000000 0.429880
0.903584 1.000000 0.459389
1.000000 1.000000 0.479354
0.000000 0.000000 0.269759
0.052879 0.000000 0.291679
0.326577 0.000000 0.325655
0.564287 0.000000 0.355164
0.725116 0.000000 0.375130
0.000000 0.105915 0.342443
0.125563 0.127835 0.364363
0.399261 0.161812 0.398340
0.636971 0.191321 0.427849
0.797800 0.211286 0.447814
0.061908 0.455673 0.455366
0.238486 0.477593 0.477286
0.512184 0.511570 0.511263
0.749894 0.541079 0.540772
0.910723 0.561044 0.560737
0.160243 0.760248 0.553701
0.336821 0.782168 0.575621
0.610519 0.816144 0.609598
0.848229 0.845653 0.639107
1.000000 0.865619 0.659072
0.226912 0.966744 0.620370
0.403491 0.988664 0.642291
0.677189 1.000000 0.676267
0.914898 1.000000 0.705776
1.000000 1.000000 0.725741
0.000000 0.000000 0.485185
0.062772 0.000000 0.507105
0.336470 0.000000 0.541082
0.574180 0.000000 0.570591
0.735009 0.000000 0.590556
0.000000 0.115808 0.557869
0.135456 0.137728 0.579790
0.409154 0.171705 0.613766
0.646864 0.201214 0.643275
0.807693 0.221179 0.663240
0.071801 0.465566 0.670792
0.248379 0.487486 0.692713
0.522077 0.521463 0.726689
0.759787 0.550972 0.756198
0.920616 0.570937 0.776163
0.170136 0.770141 0.769127
0.346714 0.792061 0.791048
0.620412 0.826037 0.825024
0.858122 0.855546 0.854533
1.000000 0.875512 0.874498
0.236805 0.976637 0.835797
0.413384 0.998557 0.857717
0.687082 1.000000 0.891693
0.924791 1.000000 0.921203
1.000000 1.000000 0.941168
0.000000 0.000000 0.631700
0.069500 0.000000 0.653620
0.343198 0.000000 0.687597
0.580908 0.000000 0.717106
0.741737 0.002781 0.737071
0.000000 0.122536 0.704384
0.142185 0.144456 0.726304
0.415883 0.178433 0.760281
0.653592 0.207942 0.789790
0.814421 0.227907 0.809755
0.078529 0.472294 0.817307
0.255108 0.494214 0.839227
0.528805 0.528191 0.873204
0.766515 0.557700 0.902713
0.927344 0.577665 0.922678
0.176864 0.776869 0.915642
0.353443 0.798789 0.937562
0.627141 0.832766 0.971539
0.864851 0.862275 1.000000
1.000000 0.882240 1.000000
0.243534 0.983365 0.982312
0.420112 1.000000 1.000000
0.693810 1.000000 1.000000
0.931520 1.000000 1.000000
1.000000 1.000000 1.000000
