assets/ricoh/Ricoh_GR3_PS_Filter/LUT/GR3_Vivid_Street.cube
TITLE "Ricoh GR III Vivid Street"
LUT_3D_SIZE 33
DOMAIN_MIN 0.000000 0.000000 0.000000
DOMAIN_MAX 1.000000 1.000000 1.000000
0.000000 0.000000 0.000000
0.000000 0.000000 0.000000
0.000000 0.000000 0.000000
0.000000 0.000000 0.000000
0.000000 0.000000 0.000000
0.024818 0.000000 0.000000
0.070589 0.000000 0.000000
0.116300 0.000000 0.000000
0.161950 0.000000 0.000000
0.207539 0.000000 0.000000
0.255006 0.000000 0.000000
0.302478 0.000000 0.000000
0.349884 0.000000 0.000000
0.397224 0.000000 0.000000
0.444498 0.000000 0.000000
0.491706 0.000000 0.000000
0.538848 0.000000 0.000000
0.580412 0.000000 0.000000
0.621556 0.000000 0.000000
0.662649 0.000000 0.000000
0.703692 0.000000 0.000000
0.744684 0.000000 0.000000
0.785625 0.000000 0.000000
0.826517 0.000000 0.000000
0.867357 0.000000 0.000000
0.897673 0.000000 0.000000
0.926874 0.000000 0.000000
0.956049 0.000000 0.000000
0.985198 0.000000 0.000000
1.000000 0.000000 0.000000
1.000000 0.000000 0.000000
1.000000 0.000000 0.000000
1.000000 0.000000 0.000000
0.000000 0.000000 0.000000
0.000000 0.000000 0.000000
0.000000 0.000000 0.000000
0.000000 0.000000 0.000000
0.000000 0.000000 0.000000
0.023841 0.000000 0.000000
0.069612 0.000000 0.000000
0.115323 0.000000 0.000000
0.160973 0.000000 0.000000
0.206563 0.000000 0.000000
0.254030 0.000000 0.000000
0.301502 0.000000 0.000000
0.348908 0.000000 0.000000
0.396248 0.000000 0.000000
0.443522 0.000000 0.000000
0.490729 0.000000 0.000000
0.537871 0.000000 0.000000
0.579435 0.000000 0.000000
0.620579 0.000000 0.000000
0.661672 0.000000 0.000000
0.702715 0.000000 0.000000
0.743707 0.000000 0.000000
0.784649 0.000000 0.000000
0.825540 0.000000 0.000000
0.866380 0.000000 0.000000
0.896696 0.000000 0.000000
0.925897 0.000000 0.000000
0.955072 0.000000 0.000000
0.984221 0.000000 0.000000
1.000000 0.000000 0.000000
1.000000 0.000000 0.000000
1.000000 0.000000 0.000000
1.000000 0.000000 0.000000
0.000000 0.000000 0.000000
0.000000 0.000000 0.000000
0.000000 0.000000 0.000000
0.000000 0.000000 0.000000
0.000000 0.000000 0.000000
0.022864 0.000000 0.000000
0.068635 0.000000 0.000000
0.114346 0.000000 0.000000
0.159996 0.000000 0.000000
0.205586 0.000000 0.000000
0.253053 0.000000 0.000000
0.300525 0.000000 0.000000
0.347931 0.000000 0.000000
0.395271 0.000000 0.000000
0.442545 0.000000 0.000000
0.489752 0.000000 0.000000
0.536894 0.000000 0.000000
0.578458 0.000000 0.000000
0.619602 0.000000 0.000000
0.660695 0.000000 0.000000
0.701738 0.000000 0.000000
0.742730 0.000000 0.000000
0.783672 0.000000 0.000000
0.824563 0.000000 0.000000
0.865403 0.000000 0.000000
0.895719 0.000000 0.000000
0.924920 0.000000 0.000000
0.954095 0.000000 0.000000
0.983244 0.000000 0.000000
1.000000 0.000000 0.000000
1.000000 0.000000 0.000000
1.000000 0.000000 0.000000
1.000000 0.000000 0.000000
0.000000 0.000000 0.000000
0.000000 0.000000 0.000000
0.000000 0.000000 0.000000
0.000000 0.000000 0.000000
0.000000 0.000000 0.000000
0.021887 0.000000 0.000000
0.067658 0.000000 0.000000
0.113369 0.000000 0.000000
0.159019 0.000000 0.000000
0.204608 0.000000 0.000000
0.252075 0.000000 0.000000
0.299547 0.000000 0.000000
0.346953 0.000000 0.000000
0.394293 0.000000 0.000000
0.441567 0.000000 0.000000
0.488775 0.000000 0.000000
0.535917 0.000000 0.000000
0.577481 0.000000 0.000000
0.618625 0.000000 0.000000
0.659718 0.000000 0.000000
0.700761 0.000000 0.000000
0.741753 0.000000 0.000000
0.782694 0.000000 0.000000
0.823586 0.000000 0.000000
0.864426 0.000000 0.000000
0.894742 0.000000 0.000000
0.923943 0.000000 0.000000
0.953118 0.000000 0.000000
0.982267 0.000000 0.000000
1.000000 0.000000 0.000000
1.000000 0.000000 0.000000
1.000000 0.000000 0.000000
1.000000 0.000000 0.000000
0.000000 0.000000 0.000000
0.000000 0.000000 0.000000
0.000000 0.000000 0.000000
0.000000 0.000000 0.000000
0.000000 0.000000 0.000000
0.020104 0.000000 0.000000
0.065875 0.000000 0.000000
0.111586 0.000000 0.000000
0.157236 0.000000 0.000000
0.202825 0.000000 0.000000
0.250292 0.000000 0.000000
0.297764 0.000000 0.000000
0.345170 0.000000 0.000000
0.392510 0.000000 0.000000
0.439784 0.000000 0.000000
0.486992 0.000000 0.000000
0.534134 0.000000 0.000000
0.575698 0.000000 0.000000
0.616842 0.000000 0.000000
0.657935 0.000000 0.000000
0.698978 0.000000 0.000000
0.739970 0.000000 0.000000
0.780911 0.000000 0.000000
0.821802 0.000000 0.000000
0.862643 0.000000 0.000000
0.892959 0.000000 0.000000
0.922160 0.000000 0.000000
0.951335 0.000000 0.000000
0.980484 0.000000 0.000000
1.000000 0.000000 0.000000
1.000000 0.000000 0.000000
1.000000 0.000000 0.000000
1.000000 0.000000 0.000000
0.000000 0.032326 0.000000
0.000000 0.032020 0.000000
0.000000 0.031715 0.000000
0.000000 0.031410 0.000000
0.000000 0.030854 0.000000
0.018310 0.030295 0.000000
0.064081 0.029738 0.000000
0.109792 0.029181 0.000000
0.155442 0.028625 0.000000
0.201032 0.028070 0.000000
0.248499 0.027492 0.000000
0.295971 0.026913 0.000000
0.343377 0.026336 0.000000
0.390717 0.025759 0.000000
0.437990 0.025183 0.000000
0.485198 0.024608 0.000000
0.532340 0.024034 0.000000
0.573904 0.023528 0.000000
0.615048 0.023027 0.000000
0.656141 0.022526 0.000000
0.697184 0.022026 0.000000
0.738176 0.021527 0.000000
0.779118 0.021028 0.000000
0.820009 0.020530 0.000000
0.860849 0.020033 0.000000
0.891165 0.019664 0.000000
0.920366 0.019308 0.000000
0.949541 0.018952 0.000000
0.978690 0.018597 0.000000
1.000000 0.018243 0.000000
1.000000 0.017900 0.000000
1.000000 0.017577 0.000000
1.000000 0.017254 0.000000
0.000000 0.074867 0.000000
0.000000 0.074561 0.000000
0.000000 0.074256 0.000000
0.000000 0.073951 0.000000
0.000000 0.073395 0.000000
0.016515 0.072836 0.000000
0.062286 0.072279 0.000000
0.107997 0.071722 0.000000
0.153647 0.071166 0.000000
0.199237 0.070611 0.000000
0.246704 0.070032 0.000000
0.294176 0.069454 0.000000
0.341582 0.068877 0.000000
0.388922 0.068300 0.000000
0.436196 0.067724 0.000000
0.483403 0.067149 0.000000
0.530545 0.066575 0.000000
0.572109 0.066069 0.000000
0.613253 0.065568 0.000000
0.654346 0.065067 0.000000
0.695389 0.064567 0.000000
0.736381 0.064068 0.000000
0.777323 0.063569 0.000000
0.818214 0.063071 0.000000
0.859054 0.062574 0.000000
0.889370 0.062204 0.000000
0.918571 0.061849 0.000000
0.947746 0.061493 0.000000
0.976895 0.061138 0.000000
1.000000 0.060784 0.000000
1.000000 0.060441 0.000000
1.000000 0.060118 0.000000
1.000000 0.059795 0.000000
0.000000 0.117434 0.000000
0.000000 0.117128 0.000000
0.000000 0.116823 0.000000
0.000000 0.116518 0.000000
0.000000 0.115962 0.000000
0.014719 0.115403 0.000000
0.060490 0.114846 0.000000
0.106201 0.114289 0.000000
0.151851 0.113733 0.000000
0.197441 0.113178 0.000000
0.244908 0.112599 0.000000
0.292380 0.112021 0.000000
0.339786 0.111444 0.000000
0.387126 0.110867 0.000000
0.434400 0.110291 0.000000
0.481607 0.109716 0.000000
0.528749 0.109142 0.000000
0.570313 0.108636 0.000000
0.611457 0.108135 0.000000
0.652550 0.107634 0.000000
0.693593 0.107134 0.000000
0.734585 0.106635 0.000000
0.775527 0.106136 0.000000
0.816418 0.105638 0.000000
0.857258 0.105141 0.000000
0.887575 0.104771 0.000000
0.916775 0.104416 0.000000
0.945950 0.104060 0.000000
0.975099 0.103705 0.000000
1.000000 0.103351 0.000000
1.000000 0.103008 0.000000
1.000000 0.102685 0.000000
1.000000 0.102362 0.000000
0.000000 0.160027 0.000000
0.000000 0.159721 0.000000
0.000000 0.159416 0.000000
0.000000 0.159111 0.000000
0.000000 0.158555 0.000000
0.012922 0.157997 0.000000
0.058693 0.157439 0.000000
0.104404 0.156882 0.000000
0.150054 0.156326 0.000000
0.195644 0.155771 0.000000
0.243111 0.155193 0.000000
0.290583 0.154614 0.000000
0.337989 0.154037 0.000000
0.385329 0.153460 0.000000
0.432603 0.152885 0.000000
0.479810 0.152310 0.000000
0.526952 0.151735 0.000000
0.568516 0.151229 0.000000
0.609660 0.150728 0.000000
0.650753 0.150227 0.000000
0.691796 0.149727 0.000000
0.732788 0.149228 0.000000
0.773730 0.148729 0.000000
0.814621 0.148231 0.000000
0.855461 0.147734 0.000000
0.885777 0.147365 0.000000
0.914978 0.147009 0.000000
0.944153 0.146654 0.000000
0.973302 0.146299 0.000000
1.000000 0.145944 0.000000
1.000000 0.145601 0.000000
1.000000 0.145278 0.000000
1.000000 0.144955 0.000000
0.000000 0.202646 0.000000
0.000000 0.202341 0.000000
0.000000 0.202035 0.000000
0.000000 0.201730 0.000000
0.000000 0.201174 0.000000
0.011124 0.200616 0.000000
0.056895 0.200058 0.000000
0.102606 0.199502 0.000000
0.148256 0.198946 0.000000
0.193846 0.198390 0.000000
0.241313 0.197812 0.000000
0.288785 0.197234 0.000000
0.336191 0.196656 0.000000
0.383531 0.196080 0.000000
0.430804 0.195504 0.000000
0.478012 0.194929 0.000000
0.525154 0.194355 0.000000
0.566718 0.193848 0.000000
0.607862 0.193347 0.000000
0.648955 0.192847 0.000000
0.689998 0.192347 0.000000
0.730990 0.191847 0.000000
0.771932 0.191349 0.000000
0.812823 0.190851 0.000000
0.853663 0.190353 0.000000
0.883979 0.189984 0.000000
0.913180 0.189628 0.000000
0.942355 0.189273 0.000000
0.971504 0.188918 0.000000
1.000000 0.188563 0.000000
1.000000 0.188221 0.000000
1.000000 0.187898 0.000000
1.000000 0.187575 0.000000
0.000000 0.247109 0.000000
0.000000 0.246803 0.000000
0.000000 0.246498 0.000000
0.000000 0.246193 0.000000
0.000000 0.245637 0.000000
0.009248 0.245079 0.000000
0.055019 0.244521 0.000000
0.100730 0.243964 0.000000
0.146380 0.243408 0.000000
0.191970 0.242853 0.000000
0.239437 0.242275 0.000000
0.286909 0.241696 0.000000
0.334315 0.241119 0.000000
0.381655 0.240542 0.000000
0.428928 0.239967 0.000000
0.476136 0.239392 0.000000
0.523278 0.238817 0.000000
0.564842 0.238311 0.000000
0.605986 0.237810 0.000000
0.647079 0.237309 0.000000
0.688122 0.236809 0.000000
0.729114 0.236310 0.000000
0.770056 0.235811 0.000000
0.810947 0.235313 0.000000
0.851787 0.234816 0.000000
0.882103 0.234447 0.000000
0.911304 0.234091 0.000000
0.940479 0.233736 0.000000
0.969628 0.233381 0.000000
0.998751 0.233026 0.000000
1.000000 0.232683 0.000000
1.000000 0.232360 0.000000
1.000000 0.232037 0.000000
0.000000 0.291667 0.000000
0.000000 0.291361 0.000000
0.000000 0.291056 0.000000
0.000000 0.290750 0.000000
0.000000 0.290194 0.000000
0.007368 0.289636 0.000000
0.053139 0.289079 0.000000
0.098850 0.288522 0.000000
0.144500 0.287966 0.000000
0.190090 0.287410 0.000000
0.237557 0.286832 0.000000
0.285029 0.286254 0.000000
0.332435 0.285677 0.000000
0.379775 0.285100 0.000000
0.427049 0.284524 0.000000
0.474256 0.283949 0.000000
0.521398 0.283375 0.000000
0.562962 0.282869 0.000000
0.604106 0.282368 0.000000
0.645199 0.281867 0.000000
0.686242 0.281367 0.000000
0.727234 0.280868 0.000000
0.768176 0.280369 0.000000
0.809067 0.279871 0.000000
0.849907 0.279374 0.000000
0.880223 0.279004 0.000000
0.909424 0.278649 0.000000
0.938599 0.278293 0.000000
0.967748 0.277938 0.000000
0.996871 0.277583 0.000000
1.000000 0.277241 0.000000
1.000000 0.276918 0.000000
1.000000 0.276595 0.000000
0.000000 0.336253 0.000000
0.000000 0.335947 0.000000
0.000000 0.335642 0.000000
0.000000 0.335337 0.000000
0.000000 0.334781 0.000000
0.005487 0.334222 0.000000
0.051258 0.333665 0.000000
0.096969 0.333108 0.000000
0.142619 0.332552 0.000000
0.188209 0.331997 0.000000
0.235676 0.331418 0.000000
0.283148 0.330840 0.000000
0.330554 0.330263 0.000000
0.377894 0.329686 0.000000
0.425167 0.329110 0.000000
0.472375 0.328535 0.000000
0.519517 0.327961 0.000000
0.561081 0.327455 0.000000
0.602225 0.326954 0.000000
0.643318 0.326453 0.000000
0.684361 0.325953 0.000000
0.725353 0.325454 0.000000
0.766295 0.324955 0.000000
0.807186 0.324457 0.000000
0.848026 0.323960 0.000000
0.878342 0.323590 0.000000
0.907543 0.323235 0.000000
0.936718 0.322879 0.000000
0.965867 0.322524 0.000000
0.994990 0.322170 0.000000
1.000000 0.321827 0.000000
1.000000 0.321504 0.000000
1.000000 0.321181 0.000000
0.000000 0.380867 0.000000
0.000000 0.380562 0.000000
0.000000 0.380256 0.000000
0.000000 0.379951 0.000000
0.000000 0.379395 0.000000
0.003605 0.378837 0.000000
0.049376 0.378279 0.000000
0.095087 0.377723 0.000000
0.140737 0.377167 0.000000
0.186326 0.376611 0.000000
0.233793 0.376033 0.000000
0.281265 0.375455 0.000000
0.328671 0.374877 0.000000
0.376011 0.374301 0.000000
0.423285 0.373725 0.000000
0.470493 0.373150 0.000000
0.517635 0.372576 0.000000
0.559199 0.372069 0.000000
0.600342 0.371568 0.000000
0.641436 0.371068 0.000000
0.682479 0.370568 0.000000
0.723471 0.370069 0.000000
0.764412 0.369570 0.000000
0.805303 0.369072 0.000000
0.846144 0.368574 0.000000
0.876460 0.368205 0.000000
0.905661 0.367849 0.000000
0.934836 0.367494 0.000000
0.963985 0.367139 0.000000
0.993108 0.366784 0.000000
1.000000 0.366442 0.000000
1.000000 0.366119 0.000000
1.000000 0.365796 0.000000
0.000000 0.425511 0.000000
0.000000 0.425205 0.000000
0.000000 0.424899 0.000000
0.000000 0.424594 0.000000
0.000000 0.424038 0.000000
0.001721 0.423480 0.000000
0.047492 0.422922 0.000000
0.093203 0.422366 0.000000
0.138853 0.421810 0.000000
0.184443 0.421254 0.000000
0.231910 0.420676 0.000000
0.279382 0.420098 0.000000
0.326788 0.419521 0.000000
0.374128 0.418944 0.000000
0.421402 0.418368 0.000000
0.468609 0.417793 0.000000
0.515751 0.417219 0.000000
0.557315 0.416713 0.000000
0.598459 0.416211 0.000000
0.639552 0.415711 0.000000
0.680595 0.415211 0.000000
0.721587 0.414712 0.000000
0.762529 0.414213 0.000000
0.803420 0.413715 0.000000
0.844260 0.413217 0.000000
0.874576 0.412848 0.000000
0.903777 0.412492 0.000000
0.932952 0.412137 0.000000
0.962101 0.411782 0.000000
0.991224 0.411427 0.000000
1.000000 0.411085 0.000000
1.000000 0.410762 0.000000
1.000000 0.410439 0.000000
0.000000 0.470182 0.000000
0.000000 0.469877 0.000000
0.000000 0.469571 0.000000
0.000000 0.469266 0.000000
0.000000 0.468710 0.000000
0.000000 0.468152 0.000000
0.045608 0.467594 0.000000
0.091318 0.467037 0.000000
0.136968 0.466481 0.000000
0.182558 0.465926 0.000000
0.230025 0.465348 0.000000
0.277497 0.464770 0.000000
0.324903 0.464192 0.000000
0.372243 0.463616 0.000000
0.419517 0.463040 0.000000
0.466725 0.462465 0.000000
0.513866 0.461890 0.000000
0.555430 0.461384 0.000000
0.596574 0.460883 0.000000
0.637668 0.460383 0.000000
0.678710 0.459883 0.000000
0.719702 0.459383 0.000000
0.760644 0.458885 0.000000
0.801535 0.458387 0.000000
0.842376 0.457889 0.000000
0.872692 0.457520 0.000000
0.901893 0.457164 0.000000
0.931067 0.456809 0.000000
0.960216 0.456454 0.000000
0.989339 0.456099 0.000000
1.000000 0.455756 0.000000
1.000000 0.455433 0.000000
1.000000 0.455111 0.000000
0.000000 0.514882 0.000000
0.000000 0.514577 0.000000
0.000000 0.514271 0.000000
0.000000 0.513966 0.000000
0.000000 0.513410 0.000000
0.000000 0.512852 0.000000
0.043722 0.512294 0.000000
0.089432 0.511737 0.000000
0.135082 0.511181 0.000000
0.180672 0.510626 0.000000
0.228139 0.510048 0.000000
0.275611 0.509470 0.000000
0.323017 0.508892 0.000000
0.370357 0.508316 0.000000
0.417631 0.507740 0.000000
0.464839 0.507165 0.000000
0.511980 0.506591 0.000000
0.553544 0.506084 0.000000
0.594688 0.505583 0.000000
0.635782 0.505083 0.000000
0.676824 0.504583 0.000000
0.717816 0.504083 0.000000
0.758758 0.503585 0.000000
0.799649 0.503087 0.000000
0.840490 0.502589 0.000000
0.870806 0.502220 0.000000
0.900007 0.501864 0.000000
0.929182 0.501509 0.000000
0.958330 0.501154 0.000000
0.987453 0.500799 0.000000
1.000000 0.500457 0.000000
1.000000 0.500134 0.000000
1.000000 0.499811 0.000000
0.000000 0.554369 0.000000
0.000000 0.554064 0.000000
0.000000 0.553758 0.000000
0.000000 0.553453 0.000000
0.000000 0.552897 0.000000
0.000000 0.552339 0.000000
0.042056 0.551781 0.000000
0.087766 0.551224 0.000000
0.133416 0.550668 0.000000
0.179006 0.550113 0.000000
0.226473 0.549535 0.000000
0.273945 0.548957 0.000000
0.321351 0.548379 0.000000
0.368691 0.547803 0.000000
0.415965 0.547227 0.000000
0.463173 0.546652 0.000000
0.510314 0.546078 0.000000
0.551878 0.545571 0.000000
0.593022 0.545070 0.000000
0.634116 0.544570 0.000000
0.675158 0.544070 0.000000
0.716150 0.543570 0.000000
0.757092 0.543072 0.000000
0.797983 0.542574 0.000000
0.838824 0.542076 0.000000
0.869140 0.541707 0.000000
0.898341 0.541351 0.000000
0.927516 0.540996 0.000000
0.956664 0.540641 0.000000
0.985787 0.540286 0.000000
1.000000 0.539944 0.000000
1.000000 0.539620 0.000000
1.000000 0.539298 0.000000
0.000000 0.593527 0.000000
0.000000 0.593222 0.000000
0.000000 0.592916 0.000000
0.000000 0.592611 0.000000
0.000000 0.592055 0.000000
0.000000 0.591497 0.000000
0.040404 0.590939 0.000000
0.086114 0.590382 0.000000
0.131764 0.589826 0.000000
0.177354 0.589271 0.000000
0.224821 0.588693 0.000000
0.272293 0.588115 0.000000
0.319699 0.587537 0.000000
0.367039 0.586961 0.000000
0.414313 0.586385 0.000000
0.461521 0.585810 0.000000
0.508662 0.585236 0.000000
0.550226 0.584729 0.000000
0.591370 0.584228 0.000000
0.632463 0.583728 0.000000
0.673506 0.583228 0.000000
0.714498 0.582728 0.000000
0.755440 0.582230 0.000000
0.796331 0.581732 0.000000
0.837172 0.581234 0.000000
0.867488 0.580865 0.000000
0.896689 0.580509 0.000000
0.925863 0.580154 0.000000
0.955012 0.579799 0.000000
0.984135 0.579444 0.000000
1.000000 0.579102 0.000000
1.000000 0.578779 0.000000
1.000000 0.578456 0.000000
0.000000 0.632707 0.000000
0.000000 0.632402 0.000000
0.000000 0.632096 0.000000
0.000000 0.631791 0.000000
0.000000 0.631235 0.000000
0.000000 0.630677 0.000000
0.038750 0.630119 0.000000
0.084461 0.629562 0.000000
0.130111 0.629006 0.000000
0.175701 0.628451 0.000000
0.223168 0.627873 0.000000
0.270640 0.627295 0.000000
0.318046 0.626717 0.000000
0.365386 0.626140 0.000000
0.412660 0.625565 0.000000
0.459868 0.624990 0.000000
0.507009 0.624415 0.000000
0.548573 0.623909 0.000000
0.589717 0.623408 0.000000
0.630810 0.622907 0.000000
0.671853 0.622408 0.000000
0.712845 0.621908 0.000000
0.753787 0.621410 0.000000
0.794678 0.620911 0.000000
0.835518 0.620414 0.000000
0.865835 0.620045 0.000000
0.895035 0.619689 0.000000
0.924210 0.619334 0.000000
0.953359 0.618979 0.000000
0.982482 0.618624 0.000000
1.000000 0.618281 0.000000
1.000000 0.617958 0.000000
1.000000 0.617636 0.000000
0.000000 0.671909 0.000000
0.000000 0.671603 0.000000
0.000000 0.671298 0.000000
0.000000 0.670993 0.000000
0.000000 0.670437 0.000000
0.000000 0.669878 0.000000
0.037097 0.669321 0.000000
0.082807 0.668764 0.000000
0.128457 0.668208 0.000000
0.174047 0.667653 0.000000
0.221514 0.667074 0.000000
0.268986 0.666496 0.000000
0.316392 0.665919 0.000000
0.363732 0.665342 0.000000
0.411006 0.664766 0.000000
0.458214 0.664191 0.000000
0.505355 0.663617 0.000000
0.546919 0.663111 0.000000
0.588063 0.662610 0.000000
0.629156 0.662109 0.000000
0.670199 0.661609 0.000000
0.711191 0.661110 0.000000
0.752133 0.660611 0.000000
0.793024 0.660113 0.000000
0.833865 0.659616 0.000000
0.864181 0.659246 0.000000
0.893382 0.658891 0.000000
0.922556 0.658535 0.000000
0.951705 0.658180 0.000000
0.980828 0.657826 0.000000
1.000000 0.657483 0.000000
1.000000 0.657160 0.000000
1.000000 0.656837 0.000000
0.000000 0.711132 0.000000
0.000000 0.710827 0.000000
0.000000 0.710521 0.000000
0.000000 0.710216 0.000000
0.000000 0.709660 0.000000
0.000000 0.709102 0.000000
0.035442 0.708544 0.000000
0.081152 0.707987 0.000000
0.126802 0.707431 0.000000
0.172392 0.706876 0.000000
0.219859 0.706298 0.000000
0.267331 0.705720 0.000000
0.314737 0.705142 0.000000
0.362077 0.704566 0.000000
0.409351 0.703990 0.000000
0.456559 0.703415 0.000000
0.503700 0.702841 0.000000
0.545264 0.702334 0.000000
0.586408 0.701833 0.000000
0.627502 0.701333 0.000000
0.668544 0.700833 0.000000
0.709536 0.700333 0.000000
0.750478 0.699835 0.000000
0.791369 0.699337 0.000000
0.832210 0.698839 0.000000
0.862526 0.698470 0.000000
0.891727 0.698114 0.000000
0.920902 0.697759 0.000000
0.950050 0.697404 0.000000
0.979173 0.697049 0.000000
1.000000 0.696707 0.000000
1.000000 0.696384 0.000000
1.000000 0.696061 0.000000
0.000000 0.750378 0.000000
0.000000 0.750072 0.000000
0.000000 0.749767 0.000000
0.000000 0.749461 0.000000
0.000000 0.748905 0.000000
0.000000 0.748347 0.000000
0.033786 0.747790 0.000000
0.079497 0.747233 0.000000
0.125147 0.746677 0.000000
0.170736 0.746121 0.000000
0.218203 0.745543 0.000000
0.265675 0.744965 0.000000
0.313081 0.744388 0.000000
0.360421 0.743811 0.000000
0.407695 0.743235 0.000000
0.454903 0.742660 0.000000
0.502045 0.742086 0.000000
0.543609 0.741580 0.000000
0.584752 0.741079 0.000000
0.625846 0.740578 0.000000
0.666889 0.740078 0.000000
0.707881 0.739579 0.000000
0.748822 0.739080 0.000000
0.789713 0.738582 0.000000
0.830554 0.738085 0.000000
0.860870 0.737715 0.000000
0.890071 0.737360 0.000000
0.919246 0.737004 0.000000
0.948395 0.736649 0.000000
0.977518 0.736294 0.000000
1.000000 0.735952 0.000000
1.000000 0.735629 0.000000
1.000000 0.735306 0.000000
0.000000 0.789645 0.000000
0.000000 0.789339 0.000000
0.000000 0.789034 0.000000
0.000000 0.788729 0.000000
0.000000 0.788173 0.000000
0.000000 0.787614 0.000000
0.032129 0.787057 0.000000
0.077840 0.786500 0.000000
0.123490 0.785944 0.000000
0.169079 0.785389 0.000000
0.216547 0.784810 0.000000
0.264019 0.784232 0.000000
0.311425 0.783655 0.000000
0.358764 0.783078 0.000000
0.406038 0.782502 0.000000
0.453246 0.781927 0.000000
0.500388 0.781353 0.000000
0.541952 0.780847 0.000000
0.583096 0.780346 0.000000
0.624189 0.779845 0.000000
0.665232 0.779345 0.000000
0.706224 0.778846 0.000000
0.747166 0.778347 0.000000
0.788057 0.777849 0.000000
0.828897 0.777352 0.000000
0.859213 0.776982 0.000000
0.888414 0.776627 0.000000
0.917589 0.776271 0.000000
0.946738 0.775916 0.000000
0.975861 0.775562 0.000000
1.000000 0.775219 0.000000
1.000000 0.774896 0.000000
1.000000 0.774573 0.000000
0.000000 0.828934 0.000000
0.000000 0.828628 0.000000
0.000000 0.828323 0.000000
0.000000 0.828018 0.000000
0.000000 0.827462 0.000000
0.000000 0.826903 0.000000
0.030471 0.826346 0.000000
0.076182 0.825789 0.000000
0.121832 0.825233 0.000000
0.167422 0.824678 0.000000
0.214889 0.824099 0.000000
0.262361 0.823521 0.000000
0.309767 0.822944 0.000000
0.357107 0.822367 0.000000
0.404381 0.821791 0.000000
0.451589 0.821216 0.000000
0.498730 0.820642 0.000000
0.540294 0.820136 0.000000
0.581438 0.819635 0.000000
0.622531 0.819134 0.000000
0.663574 0.818634 0.000000
0.704566 0.818135 0.000000
0.745508 0.817636 0.000000
0.786399 0.817138 0.000000
0.827239 0.816641 0.000000
0.857556 0.816271 0.000000
0.886756 0.815916 0.000000
0.915931 0.815560 0.000000
0.945080 0.815205 0.000000
0.974203 0.814851 0.000000
1.000000 0.814508 0.000000
1.000000 0.814185 0.000000
1.000000 0.813862 0.000000
0.000000 0.858144 0.000000
0.000000 0.857838 0.000000
0.000000 0.857533 0.000000
0.000000 0.857228 0.000000
0.000000 0.856672 0.000000
0.000000 0.856113 0.000000
0.029239 0.855556 0.000000
0.074950 0.854999 0.000000
0.120600 0.854443 0.000000
0.166189 0.853888 0.000000
0.213657 0.853310 0.000000
0.261129 0.852731 0.000000
0.308534 0.852154 0.000000
0.355874 0.851577 0.000000
0.403148 0.851001 0.000000
0.450356 0.850426 0.000000
0.497498 0.849852 0.000000
0.539062 0.849346 0.000000
0.580206 0.848845 0.000000
0.621299 0.848344 0.000000
0.662342 0.847844 0.000000
0.703334 0.847345 0.000000
0.744276 0.846846 0.000000
0.785167 0.846348 0.000000
0.826007 0.845851 0.000000
0.856323 0.845482 0.000000
0.885524 0.845126 0.000000
0.914699 0.844770 0.000000
0.943848 0.844415 0.000000
0.972971 0.844061 0.000000
1.000000 0.843718 0.000000
1.000000 0.843395 0.000000
1.000000 0.843072 0.000000
0.000000 0.886316 0.000000
0.000000 0.886011 0.000000
0.000000 0.885705 0.000000
0.000000 0.885400 0.000000
0.000000 0.884844 0.000000
0.000000 0.884286 0.000000
0.028050 0.883728 0.000000
0.073761 0.883171 0.000000
0.119411 0.882615 0.000000
0.165001 0.882060 0.000000
0.212468 0.881482 0.000000
0.259940 0.880904 0.000000
0.307346 0.880326 0.000000
0.354686 0.879750 0.000000
0.401960 0.879174 0.000000
0.449167 0.878599 0.000000
0.496309 0.878025 0.000000
0.537873 0.877518 0.000000
0.579017 0.877017 0.000000
0.620110 0.876517 0.000000
0.661153 0.876017 0.000000
0.702145 0.875517 0.000000
0.743087 0.875019 0.000000
0.783978 0.874521 0.000000
0.824818 0.874023 0.000000
0.855135 0.873654 0.000000
