assets/ricoh/Ricoh_GR3_PS_Filter/LUT/GR3_High_Contrast_BW.cube
TITLE "Ricoh GR III High Contrast B&W"
LUT_3D_SIZE 9
DOMAIN_MIN 0.000000 0.000000 0.000000
DOMAIN_MAX 1.000000 1.000000 1.000000
0.000000 0.000000 0.000000
0.000000 0.000000 0.000000
0.000000 0.000000 0.000000
0.000000 0.000000 0.000000
0.011001 0.011001 0.011001
0.053264 0.053264 0.053264
0.090320 0.090320 0.090320
0.114636 0.114636 0.114636
0.137172 0.137172 0.137172
0.000000 0.000000 0.000000
0.000000 0.000000 0.000000
0.000000 0.000000 0.000000
0.033790 0.033790 0.033790
0.074399 0.074399 0.074399
0.116663 0.116663 0.116663
0.153718 0.153718 0.153718
0.178034 0.178034 0.178034
0.200570 0.200570 0.200570
0.052950 0.052950 0.052950
0.071796 0.071796 0.071796
0.105015 0.105015 0.105015
0.145542 0.145542 0.145542
0.186151 0.186151 0.186151
0.228415 0.228415 0.228415
0.265470 0.265470 0.265470
0.289786 0.289786 0.289786
0.312322 0.312322 0.312322
0.189285 0.189285 0.189285
0.208131 0.208131 0.208131
0.241350 0.241350 0.241350
0.281877 0.281877 0.281877
0.322486 0.322486 0.322486
0.364750 0.364750 0.364750
0.401805 0.401805 0.401805
0.426121 0.426121 0.426121
0.448657 0.448657 0.448657
0.325895 0.325895 0.325895
0.344741 0.344741 0.344741
0.377960 0.377960 0.377960
0.418487 0.418487 0.418487
0.459096 0.459096 0.459096
0.501360 0.501360 0.501360
0.538415 0.538415 0.538415
0.562731 0.562731 0.562731
0.585267 0.585267 0.585267
0.468073 0.468073 0.468073
0.486919 0.486919 0.486919
0.520138 0.520138 0.520138
0.560665 0.560665 0.560665
0.601274 0.601274 0.601274
0.643538 0.643538 0.643538
0.680593 0.680593 0.680593
0.704909 0.704909 0.704909
0.727445 0.727445 0.727445
0.592730 0.592730 0.592730
0.611576 0.611576 0.611576
0.644795 0.644795 0.644795
0.685322 0.685322 0.685322
0.725931 0.725931 0.725931
0.768194 0.768194 0.768194
0.805250 0.805250 0.805250
0.829566 0.829566 0.829566
0.852102 0.852102 0.852102
0.674531 0.674531 0.674531
0.693377 0.693377 0.693377
0.726596 0.726596 0.726596
0.767123 0.767123 0.767123
0.807732 0.807732 0.807732
0.849995 0.849995 0.849995
0.887051 0.887051 0.887051
0.911367 0.911367 0.911367
0.933903 0.933903 0.933903
0.750344 0.750344 0.750344
0.769190 0.769190 0.769190
0.802409 0.802409 0.802409
0.842936 0.842936 0.842936
0.883545 0.883545 0.883545
0.925808 0.925808 0.925808
0.962864 0.962864 0.962864
0.987180 0.987180 0.987180
1.000000 1.000000 1.000000
0.000000 0.000000 0.000000
0.000000 0.000000 0.000000
0.000000 0.000000 0.000000
0.000000 0.000000 0.000000
0.017401 0.017401 0.017401
0.059664 0.059664 0.059664
0.096720 0.096720 0.096720
0.121036 0.121036 0.121036
0.143572 0.143572 0.143572
0.000000 0.000000 0.000000
0.000000 0.000000 0.000000
0.000000 0.000000 0.000000
0.040191 0.040191 0.040191
0.080799 0.080799 0.080799
0.123063 0.123063 0.123063
0.160118 0.160118 0.160118
0.184434 0.184434 0.184434
0.206971 0.206971 0.206971
0.059350 0.059350 0.059350
0.078196 0.078196 0.078196
0.111416 0.111416 0.111416
0.151942 0.151942 0.151942
0.192551 0.192551 0.192551
0.234815 0.234815 0.234815
0.271870 0.271870 0.271870
0.296186 0.296186 0.296186
0.318722 0.318722 0.318722
0.195685 0.195685 0.195685
0.214531 0.214531 0.214531
0.247751 0.247751 0.247751
0.288277 0.288277 0.288277
0.328886 0.328886 0.328886
0.371150 0.371150 0.371150
0.408205 0.408205 0.408205
0.432521 0.432521 0.432521
0.455057 0.455057 0.455057
0.332295 0.332295 0.332295
0.351141 0.351141 0.351141
0.384361 0.384361 0.384361
0.424887 0.424887 0.424887
0.465496 0.465496 0.465496
0.507760 0.507760 0.507760
0.544815 0.544815 0.544815
0.569131 0.569131 0.569131
0.591667 0.591667 0.591667
0.474473 0.474473 0.474473
0.493319 0.493319 0.493319
0.526539 0.526539 0.526539
0.567065 0.567065 0.567065
0.607674 0.607674 0.607674
0.649938 0.649938 0.649938
0.686993 0.686993 0.686993
0.711309 0.711309 0.711309
0.733845 0.733845 0.733845
0.599130 0.599130 0.599130
0.617976 0.617976 0.617976
0.651195 0.651195 0.651195
0.691722 0.691722 0.691722
0.732331 0.732331 0.732331
0.774595 0.774595 0.774595
0.811650 0.811650 0.811650
0.835966 0.835966 0.835966
0.858502 0.858502 0.858502
0.680931 0.680931 0.680931
0.699777 0.699777 0.699777
0.732996 0.732996 0.732996
0.773523 0.773523 0.773523
0.814132 0.814132 0.814132
0.856396 0.856396 0.856396
0.893451 0.893451 0.893451
0.917767 0.917767 0.917767
0.940303 0.940303 0.940303
0.756744 0.756744 0.756744
0.775590 0.775590 0.775590
0.808809 0.808809 0.808809
0.849336 0.849336 0.849336
0.889945 0.889945 0.889945
0.932208 0.932208 0.932208
0.969264 0.969264 0.969264
0.993580 0.993580 0.993580
1.000000 1.000000 1.000000
0.000000 0.000000 0.000000
0.000000 0.000000 0.000000
0.000000 0.000000 0.000000
0.000000 0.000000 0.000000
0.028682 0.028682 0.028682
0.070946 0.070946 0.070946
0.108001 0.108001 0.108001
0.132317 0.132317 0.132317
0.154854 0.154854 0.154854
0.000000 0.000000 0.000000
0.000000 0.000000 0.000000
0.010945 0.010945 0.010945
0.051472 0.051472 0.051472
0.092081 0.092081 0.092081
0.134344 0.134344 0.134344
0.171400 0.171400 0.171400
0.195716 0.195716 0.195716
0.218252 0.218252 0.218252
0.070632 0.070632 0.070632
0.089478 0.089478 0.089478
0.122697 0.122697 0.122697
0.163224 0.163224 0.163224
0.203833 0.203833 0.203833
0.246096 0.246096 0.246096
0.283152 0.283152 0.283152
0.307468 0.307468 0.307468
0.330004 0.330004 0.330004
0.206967 0.206967 0.206967
0.225813 0.225813 0.225813
0.259032 0.259032 0.259032
0.299559 0.299559 0.299559
0.340168 0.340168 0.340168
0.382431 0.382431 0.382431
0.419487 0.419487 0.419487
0.443803 0.443803 0.443803
0.466339 0.466339 0.466339
0.343577 0.343577 0.343577
0.362423 0.362423 0.362423
0.395642 0.395642 0.395642
0.436169 0.436169 0.436169
0.476778 0.476778 0.476778
0.519041 0.519041 0.519041
0.556097 0.556097 0.556097
0.580413 0.580413 0.580413
0.602949 0.602949 0.602949
0.485755 0.485755 0.485755
0.504601 0.504601 0.504601
0.537820 0.537820 0.537820
0.578347 0.578347 0.578347
0.618955 0.618955 0.618955
0.661219 0.661219 0.661219
0.698275 0.698275 0.698275
0.722591 0.722591 0.722591
0.745127 0.745127 0.745127
0.610412 0.610412 0.610412
0.629257 0.629257 0.629257
0.662477 0.662477 0.662477
0.703004 0.703004 0.703004
0.743612 0.743612 0.743612
0.785876 0.785876 0.785876
0.822931 0.822931 0.822931
0.847247 0.847247 0.847247
0.869784 0.869784 0.869784
0.692213 0.692213 0.692213
0.711058 0.711058 0.711058
0.744278 0.744278 0.744278
0.784805 0.784805 0.784805
0.825413 0.825413 0.825413
0.867677 0.867677 0.867677
0.904732 0.904732 0.904732
0.929048 0.929048 0.929048
0.951585 0.951585 0.951585
0.768026 0.768026 0.768026
0.786871 0.786871 0.786871
0.820091 0.820091 0.820091
0.860618 0.860618 0.860618
0.901226 0.901226 0.901226
0.943490 0.943490 0.943490
0.980545 0.980545 0.980545
1.000000 1.000000 1.000000
1.000000 1.000000 1.000000
0.000000 0.000000 0.000000
0.000000 0.000000 0.000000
0.000000 0.000000 0.000000
0.001837 0.001837 0.001837
0.042445 0.042445 0.042445
0.084709 0.084709 0.084709
0.121764 0.121764 0.121764
0.146081 0.146081 0.146081
0.168617 0.168617 0.168617
0.000000 0.000000 0.000000
0.000000 0.000000 0.000000
0.024708 0.024708 0.024708
0.065235 0.065235 0.065235
0.105844 0.105844 0.105844
0.148107 0.148107 0.148107
0.185163 0.185163 0.185163
0.209479 0.209479 0.209479
0.232015 0.232015 0.232015
0.084395 0.084395 0.084395
0.103241 0.103241 0.103241
0.136460 0.136460 0.136460
0.176987 0.176987 0.176987
0.217596 0.217596 0.217596
0.259859 0.259859 0.259859
0.296915 0.296915 0.296915
0.321231 0.321231 0.321231
0.343767 0.343767 0.343767
0.220730 0.220730 0.220730
0.239576 0.239576 0.239576
0.272795 0.272795 0.272795
0.313322 0.313322 0.313322
0.353931 0.353931 0.353931
0.396194 0.396194 0.396194
0.433250 0.433250 0.433250
0.457566 0.457566 0.457566
0.480102 0.480102 0.480102
0.357340 0.357340 0.357340
0.376186 0.376186 0.376186
0.409405 0.409405 0.409405
0.449932 0.449932 0.449932
0.490541 0.490541 0.490541
0.532804 0.532804 0.532804
0.569860 0.569860 0.569860
0.594176 0.594176 0.594176
0.616712 0.616712 0.616712
0.499518 0.499518 0.499518
0.518364 0.518364 0.518364
0.551583 0.551583 0.551583
0.592110 0.592110 0.592110
0.632719 0.632719 0.632719
0.674982 0.674982 0.674982
0.712038 0.712038 0.712038
0.736354 0.736354 0.736354
0.758890 0.758890 0.758890
0.624175 0.624175 0.624175
0.643021 0.643021 0.643021
0.676240 0.676240 0.676240
0.716767 0.716767 0.716767
0.757375 0.757375 0.757375
0.799639 0.799639 0.799639
0.836694 0.836694 0.836694
0.861011 0.861011 0.861011
0.883547 0.883547 0.883547
0.705976 0.705976 0.705976
0.724822 0.724822 0.724822
0.758041 0.758041 0.758041
0.798568 0.798568 0.798568
0.839176 0.839176 0.839176
0.881440 0.881440 0.881440
0.918495 0.918495 0.918495
0.942812 0.942812 0.942812
0.965348 0.965348 0.965348
0.781789 0.781789 0.781789
0.800634 0.800634 0.800634
0.833854 0.833854 0.833854
0.874381 0.874381 0.874381
0.914989 0.914989 0.914989
0.957253 0.957253 0.957253
0.994308 0.994308 0.994308
1.000000 1.000000 1.000000
1.000000 1.000000 1.000000
0.000000 0.000000 0.000000
0.000000 0.000000 0.000000
0.000000 0.000000 0.000000
0.015628 0.015628 0.015628
0.056236 0.056236 0.056236
0.098500 0.098500 0.098500
0.135555 0.135555 0.135555
0.159871 0.159871 0.159871
0.182408 0.182408 0.182408
0.000000 0.000000 0.000000
0.005280 0.005280 0.005280
0.038499 0.038499 0.038499
0.079026 0.079026 0.079026
0.119635 0.119635 0.119635
0.161898 0.161898 0.161898
0.198954 0.198954 0.198954
0.223270 0.223270 0.223270
0.245806 0.245806 0.245806
0.098186 0.098186 0.098186
0.117032 0.117032 0.117032
0.150251 0.150251 0.150251
0.190778 0.190778 0.190778
0.231387 0.231387 0.231387
0.273650 0.273650 0.273650
0.310706 0.310706 0.310706
0.335022 0.335022 0.335022
0.357558 0.357558 0.357558
0.234521 0.234521 0.234521
0.253367 0.253367 0.253367
0.286586 0.286586 0.286586
0.327113 0.327113 0.327113
0.367722 0.367722 0.367722
0.409985 0.409985 0.409985
0.447041 0.447041 0.447041
0.471357 0.471357 0.471357
0.493893 0.493893 0.493893
0.371131 0.371131 0.371131
0.389977 0.389977 0.389977
0.423196 0.423196 0.423196
0.463723 0.463723 0.463723
0.504332 0.504332 0.504332
0.546595 0.546595 0.546595
0.583651 0.583651 0.583651
0.607967 0.607967 0.607967
0.630503 0.630503 0.630503
0.513309 0.513309 0.513309
0.532155 0.532155 0.532155
0.565374 0.565374 0.565374
0.605901 0.605901 0.605901
0.646509 0.646509 0.646509
0.688773 0.688773 0.688773
0.725829 0.725829 0.725829
0.750145 0.750145 0.750145
0.772681 0.772681 0.772681
0.637966 0.637966 0.637966
0.656811 0.656811 0.656811
0.690031 0.690031 0.690031
0.730558 0.730558 0.730558
0.771166 0.771166 0.771166
0.813430 0.813430 0.813430
0.850485 0.850485 0.850485
0.874802 0.874802 0.874802
0.897338 0.897338 0.897338
0.719767 0.719767 0.719767
0.738612 0.738612 0.738612
0.771832 0.771832 0.771832
0.812359 0.812359 0.812359
0.852967 0.852967 0.852967
0.895231 0.895231 0.895231
0.932286 0.932286 0.932286
0.956603 0.956603 0.956603
0.979139 0.979139 0.979139
0.795580 0.795580 0.795580
0.814425 0.814425 0.814425
0.847645 0.847645 0.847645
0.888172 0.888172 0.888172
0.928780 0.928780 0.928780
0.971044 0.971044 0.971044
1.000000 1.000000 1.000000
1.000000 1.000000 1.000000
1.000000 1.000000 1.000000
0.000000 0.000000 0.000000
0.000000 0.000000 0.000000
0.000000 0.000000 0.000000
0.029981 0.029981 0.029981
0.070589 0.070589 0.070589
0.112853 0.112853 0.112853
0.149908 0.149908 0.149908
0.174224 0.174224 0.174224
0.196761 0.196761 0.196761
0.000787 0.000787 0.000787
0.019633 0.019633 0.019633
0.052852 0.052852 0.052852
0.093379 0.093379 0.093379
0.133988 0.133988 0.133988
0.176251 0.176251 0.176251
0.213307 0.213307 0.213307
0.237623 0.237623 0.237623
0.260159 0.260159 0.260159
0.112539 0.112539 0.112539
0.131385 0.131385 0.131385
0.164604 0.164604 0.164604
0.205131 0.205131 0.205131
0.245740 0.245740 0.245740
0.288003 0.288003 0.288003
0.325059 0.325059 0.325059
0.349375 0.349375 0.349375
0.371911 0.371911 0.371911
0.248874 0.248874 0.248874
0.267720 0.267720 0.267720
0.300939 0.300939 0.300939
0.341466 0.341466 0.341466
0.382075 0.382075 0.382075
0.424338 0.424338 0.424338
0.461394 0.461394 0.461394
0.485710 0.485710 0.485710
0.508246 0.508246 0.508246
0.385484 0.385484 0.385484
0.404330 0.404330 0.404330
0.437549 0.437549 0.437549
0.478076 0.478076 0.478076
0.518684 0.518684 0.518684
0.560948 0.560948 0.560948
0.598004 0.598004 0.598004
0.622320 0.622320 0.622320
0.644856 0.644856 0.644856
0.527662 0.527662 0.527662
0.546508 0.546508 0.546508
0.579727 0.579727 0.579727
0.620254 0.620254 0.620254
0.660862 0.660862 0.660862
0.703126 0.703126 0.703126
0.740182 0.740182 0.740182
0.764498 0.764498 0.764498
0.787034 0.787034 0.787034
0.652319 0.652319 0.652319
0.671164 0.671164 0.671164
0.704384 0.704384 0.704384
0.744911 0.744911 0.744911
0.785519 0.785519 0.785519
0.827783 0.827783 0.827783
0.864838 0.864838 0.864838
0.889154 0.889154 0.889154
0.911691 0.911691 0.911691
0.734120 0.734120 0.734120
0.752965 0.752965 0.752965
0.786185 0.786185 0.786185
0.826712 0.826712 0.826712
0.867320 0.867320 0.867320
0.909584 0.909584 0.909584
0.946639 0.946639 0.946639
0.970955 0.970955 0.970955
0.993492 0.993492 0.993492
0.809933 0.809933 0.809933
0.828778 0.828778 0.828778
0.861998 0.861998 0.861998
0.902525 0.902525 0.902525
0.943133 0.943133 0.943133
0.985397 0.985397 0.985397
1.000000 1.000000 1.000000
1.000000 1.000000 1.000000
1.000000 1.000000 1.000000
0.000000 0.000000 0.000000
0.000000 0.000000 0.000000
0.002038 0.002038 0.002038
0.042565 0.042565 0.042565
0.083173 0.083173 0.083173
0.125437 0.125437 0.125437
0.162493 0.162493 0.162493
0.186809 0.186809 0.186809
0.209345 0.209345 0.209345
0.013371 0.013371 0.013371
0.032217 0.032217 0.032217
0.065436 0.065436 0.065436
0.105963 0.105963 0.105963
0.146572 0.146572 0.146572
0.188836 0.188836 0.188836
0.225891 0.225891 0.225891
0.250207 0.250207 0.250207
0.272743 0.272743 0.272743
0.125123 0.125123 0.125123
0.143969 0.143969 0.143969
0.177188 0.177188 0.177188
0.217715 0.217715 0.217715
0.258324 0.258324 0.258324
0.300587 0.300587 0.300587
0.337643 0.337643 0.337643
0.361959 0.361959 0.361959
0.384495 0.384495 0.384495
0.261458 0.261458 0.261458
0.280304 0.280304 0.280304
0.313523 0.313523 0.313523
0.354050 0.354050 0.354050
0.394659 0.394659 0.394659
0.436922 0.436922 0.436922
0.473978 0.473978 0.473978
0.498294 0.498294 0.498294
0.520830 0.520830 0.520830
0.398068 0.398068 0.398068
0.416914 0.416914 0.416914
0.450133 0.450133 0.450133
0.490660 0.490660 0.490660
0.531269 0.531269 0.531269
0.573532 0.573532 0.573532
0.610588 0.610588 0.610588
0.634904 0.634904 0.634904
0.657440 0.657440 0.657440
0.540246 0.540246 0.540246
0.559092 0.559092 0.559092
0.592311 0.592311 0.592311
0.632838 0.632838 0.632838
0.673447 0.673447 0.673447
0.715710 0.715710 0.715710
0.752766 0.752766 0.752766
0.777082 0.777082 0.777082
0.799618 0.799618 0.799618
0.664903 0.664903 0.664903
0.683749 0.683749 0.683749
0.716968 0.716968 0.716968
0.757495 0.757495 0.757495
0.798103 0.798103 0.798103
0.840367 0.840367 0.840367
0.877423 0.877423 0.877423
0.901739 0.901739 0.901739
0.924275 0.924275 0.924275
0.746704 0.746704 0.746704
0.765550 0.765550 0.765550
0.798769 0.798769 0.798769
0.839296 0.839296 0.839296
0.879904 0.879904 0.879904
0.922168 0.922168 0.922168
0.959224 0.959224 0.959224
0.983540 0.983540 0.983540
1.000000 1.000000 1.000000
0.822517 0.822517 0.822517
0.841363 0.841363 0.841363
0.874582 0.874582 0.874582
0.915109 0.915109 0.915109
0.955717 0.955717 0.955717
0.997981 0.997981 0.997981
1.000000 1.000000 1.000000
1.000000 1.000000 1.000000
1.000000 1.000000 1.000000
0.000000 0.000000 0.000000
0.000000 0.000000 0.000000
0.010296 0.010296 0.010296
0.050823 0.050823 0.050823
0.091431 0.091431 0.091431
0.133695 0.133695 0.133695
0.170750 0.170750 0.170750
0.195067 0.195067 0.195067
0.217603 0.217603 0.217603
0.021629 0.021629 0.021629
0.040475 0.040475 0.040475
0.073694 0.073694 0.073694
0.114221 0.114221 0.114221
0.154830 0.154830 0.154830
0.197093 0.197093 0.197093
0.234149 0.234149 0.234149
0.258465 0.258465 0.258465
0.281001 0.281001 0.281001
0.133381 0.133381 0.133381
0.152227 0.152227 0.152227
0.185446 0.185446 0.185446
0.225973 0.225973 0.225973
0.266582 0.266582 0.266582
0.308845 0.308845 0.308845
0.345901 0.345901 0.345901
0.370217 0.370217 0.370217
0.392753 0.392753 0.392753
0.269716 0.269716 0.269716
0.288562 0.288562 0.288562
0.321781 0.321781 0.321781
0.362308 0.362308 0.362308
0.402917 0.402917 0.402917
0.445180 0.445180 0.445180
0.482236 0.482236 0.482236
0.506552 0.506552 0.506552
0.529088 0.529088 0.529088
0.406326 0.406326 0.406326
0.425172 0.425172 0.425172
0.458391 0.458391 0.458391
0.498918 0.498918 0.498918
0.539527 0.539527 0.539527
0.581790 0.581790 0.581790
0.618846 0.618846 0.618846
0.643162 0.643162 0.643162
0.665698 0.665698 0.665698
0.548504 0.548504 0.548504
0.567350 0.567350 0.567350
0.600569 0.600569 0.600569
0.641096 0.641096 0.641096
0.681704 0.681704 0.681704
0.723968 0.723968 0.723968
0.761024 0.761024 0.761024
0.785340 0.785340 0.785340
0.807876 0.807876 0.807876
0.673161 0.673161 0.673161
0.692006 0.692006 0.692006
0.725226 0.725226 0.725226
0.765753 0.765753 0.765753
0.806361 0.806361 0.806361
0.848625 0.848625 0.848625
0.885680 0.885680 0.885680
0.909997 0.909997 0.909997
0.932533 0.932533 0.932533
0.754962 0.754962 0.754962
0.773807 0.773807 0.773807
0.807027 0.807027 0.807027
0.847554 0.847554 0.847554
0.888162 0.888162 0.888162
0.930426 0.930426 0.930426
0.967481 0.967481 0.967481
0.991798 0.991798 0.991798
1.000000 1.000000 1.000000
0.830775 0.830775 0.830775
0.849620 0.849620 0.849620
0.882840 0.882840 0.882840
0.923367 0.923367 0.923367
0.963975 0.963975 0.963975
1.000000 1.000000 1.000000
1.000000 1.000000 1.000000
1.000000 1.000000 1.000000
1.000000 1.000000 1.000000
0.000000 0.000000 0.000000
0.000000 0.000000 0.000000
0.017949 0.017949 0.017949
0.058476 0.058476 0.058476
0.099085 0.099085 0.099085
0.141348 0.141348 0.141348
0.178404 0.178404 0.178404
0.202720 0.202720 0.202720
0.225256 0.225256 0.225256
0.029282 0.029282 0.029282
0.048128 0.048128 0.048128
0.081348 0.081348 0.081348
0.121874 0.121874 0.121874
0.162483 0.162483 0.162483
0.204747 0.204747 0.204747
0.241802 0.241802 0.241802
0.266118 0.266118 0.266118
0.288654 0.288654 0.288654
0.141034 0.141034 0.141034
0.159880 0.159880 0.159880
0.193099 0.193099 0.193099
0.233626 0.233626 0.233626
0.274235 0.274235 0.274235
0.316499 0.316499 0.316499
0.353554 0.353554 0.353554
0.377870 0.377870 0.377870
0.400406 0.400406 0.400406
0.277369 0.277369 0.277369
0.296215 0.296215 0.296215
0.329434 0.329434 0.329434
0.369961 0.369961 0.369961
0.410570 0.410570 0.410570
0.452834 0.452834 0.452834
0.489889 0.489889 0.489889
0.514205 0.514205 0.514205
0.536741 0.536741 0.536741
0.413979 0.413979 0.413979
0.432825 0.432825 0.432825
0.466044 0.466044 0.466044
0.506571 0.506571 0.506571
0.547180 0.547180 0.547180
0.589444 0.589444 0.589444
0.626499 0.626499 0.626499
0.650815 0.650815 0.650815
0.673351 0.673351 0.673351
0.556157 0.556157 0.556157
0.575003 0.575003 0.575003
0.608222 0.608222 0.608222
0.648749 0.648749 0.648749
0.689358 0.689358 0.689358
0.731622 0.731622 0.731622
0.768677 0.768677 0.768677
0.792993 0.792993 0.792993
0.815529 0.815529 0.815529
0.680814 0.680814 0.680814
0.699660 0.699660 0.699660
0.732879 0.732879 0.732879
0.773406 0.773406 0.773406
0.814015 0.814015 0.814015
0.856278 0.856278 0.856278
0.893334 0.893334 0.893334
0.917650 0.917650 0.917650
0.940186 0.940186 0.940186
0.762615 0.762615 0.762615
0.781461 0.781461 0.781461
0.814680 0.814680 0.814680
0.855207 0.855207 0.855207
0.895816 0.895816 0.895816
0.938079 0.938079 0.938079
0.975135 0.975135 0.975135
0.999451 0.999451 0.999451
1.000000 1.000000 1.000000
0.838428 0.838428 0.838428
0.857274 0.857274 0.857274
0.890493 0.890493 0.890493
0.931020 0.931020 0.931020
0.971629 0.971629 0.971629
1.000000 1.000000 1.000000
1.000000 1.000000 1.000000
1.000000 1.000000 1.000000
1.000000 1.000000 1.000000
