assets/ricoh/Ricoh_GR3_PS_Filter/LUT/GR3_Positive_Film.cube
TITLE "Ricoh GR III Positive Film"
LUT_3D_SIZE 33
DOMAIN_MIN 0.000000 0.000000 0.000000
DOMAIN_MAX 1.000000 1.000000 1.000000
0.000000 0.000000 0.000000
0.000000 0.000000 0.000000
0.000000 0.000000 0.000000
0.000000 0.000000 0.000000
0.014907 0.000000 0.000000
0.049247 0.000000 0.000000
0.083558 0.000000 0.000000
0.117839 0.000000 0.000000
0.152092 0.000000 0.000000
0.186315 0.000000 0.000000
0.226985 0.000000 0.000000
0.267851 0.000000 0.000000
0.308675 0.000000 0.000000
0.349457 0.000000 0.000000
0.390198 0.000000 0.000000
0.430896 0.000000 0.000000
0.471553 0.000000 0.000000
0.507973 0.000000 0.000000
0.544079 0.000000 0.000000
0.580152 0.000000 0.000000
0.616192 0.000000 0.000000
0.652199 0.000000 0.000000
0.688172 0.000000 0.000000
0.724113 0.000000 0.000000
0.758420 0.000000 0.000000
0.784101 0.000000 0.000000
0.809765 0.000000 0.000000
0.835412 0.000000 0.000000
0.861042 0.000000 0.000000
0.886655 0.000000 0.000000
0.911574 0.000000 0.000000
0.936389 0.000000 0.000000
0.961188 0.000000 0.000000
0.000000 0.000000 0.000000
0.000000 0.000000 0.000000
0.000000 0.000000 0.000000
0.000000 0.000000 0.000000
0.016182 0.000000 0.000000
0.050522 0.000000 0.000000
0.084833 0.000000 0.000000
0.119114 0.000000 0.000000
0.153366 0.000000 0.000000
0.187590 0.000000 0.000000
0.228260 0.000000 0.000000
0.269126 0.000000 0.000000
0.309950 0.000000 0.000000
0.350732 0.000000 0.000000
0.391472 0.000000 0.000000
0.432171 0.000000 0.000000
0.472828 0.000000 0.000000
0.509248 0.000000 0.000000
0.545354 0.000000 0.000000
0.581427 0.000000 0.000000
0.617467 0.000000 0.000000
0.653474 0.000000 0.000000
0.689447 0.000000 0.000000
0.725388 0.000000 0.000000
0.759695 0.000000 0.000000
0.785376 0.000000 0.000000
0.811040 0.000000 0.000000
0.836687 0.000000 0.000000
0.862317 0.000000 0.000000
0.887930 0.000000 0.000000
0.912849 0.000000 0.000000
0.937664 0.000000 0.000000
0.962463 0.000000 0.000000
0.000000 0.000000 0.000000
0.000000 0.000000 0.000000
0.000000 0.000000 0.000000
0.000000 0.000000 0.000000
0.017457 0.000000 0.000000
0.051797 0.000000 0.000000
0.086108 0.000000 0.000000
0.120389 0.000000 0.000000
0.154642 0.000000 0.000000
0.188865 0.000000 0.000000
0.229535 0.000000 0.000000
0.270401 0.000000 0.000000
0.311225 0.000000 0.000000
0.352007 0.000000 0.000000
0.392748 0.000000 0.000000
0.433446 0.000000 0.000000
0.474103 0.000000 0.000000
0.510523 0.000000 0.000000
0.546629 0.000000 0.000000
0.582702 0.000000 0.000000
0.618742 0.000000 0.000000
0.654749 0.000000 0.000000
0.690723 0.000000 0.000000
0.726663 0.000000 0.000000
0.760970 0.000000 0.000000
0.786651 0.000000 0.000000
0.812315 0.000000 0.000000
0.837962 0.000000 0.000000
0.863592 0.000000 0.000000
0.889205 0.000000 0.000000
0.914124 0.000000 0.000000
0.938939 0.000000 0.000000
0.963739 0.000000 0.000000
0.000000 0.003427 0.000000
0.000000 0.003825 0.000000
0.000000 0.004223 0.000000
0.000000 0.004620 0.000000
0.018733 0.005051 0.000000
0.053073 0.005591 0.000000
0.087383 0.006132 0.000000
0.121665 0.006672 0.000000
0.155917 0.007211 0.000000
0.190140 0.007750 0.000000
0.230811 0.008391 0.000000
0.271677 0.009034 0.000000
0.312501 0.009677 0.000000
0.353283 0.010320 0.000000
0.394023 0.010961 0.000000
0.434722 0.011602 0.000000
0.475379 0.012243 0.000000
0.511799 0.012816 0.000000
0.547905 0.013385 0.000000
0.583978 0.013953 0.000000
0.620018 0.014521 0.000000
0.656024 0.015088 0.000000
0.691998 0.015655 0.000000
0.727939 0.016221 0.000000
0.762246 0.016761 0.000000
0.787927 0.017165 0.000000
0.813591 0.017570 0.000000
0.839238 0.017974 0.000000
0.864868 0.018377 0.000000
0.890481 0.018781 0.000000
0.915399 0.019173 0.000000
0.940215 0.019564 0.000000
0.965014 0.019955 0.000000
0.000000 0.030543 0.000000
0.000000 0.030941 0.000000
0.000000 0.031338 0.000000
0.000000 0.031735 0.000000
0.020118 0.032166 0.000000
0.054458 0.032707 0.000000
0.088769 0.033248 0.000000
0.123050 0.033788 0.000000
0.157302 0.034327 0.000000
0.191526 0.034866 0.000000
0.232196 0.035507 0.000000
0.273062 0.036150 0.000000
0.313886 0.036793 0.000000
0.354668 0.037436 0.000000
0.395408 0.038077 0.000000
0.436107 0.038718 0.000000
0.476764 0.039359 0.000000
0.513184 0.039932 0.000000
0.549290 0.040501 0.000000
0.585363 0.041069 0.000000
0.621403 0.041637 0.000000
0.657410 0.042204 0.000000
0.693383 0.042770 0.000000
0.729324 0.043336 0.000000
0.763631 0.043877 0.000000
0.789312 0.044281 0.000000
0.814976 0.044685 0.000000
0.840623 0.045089 0.000000
0.866253 0.045493 0.000000
0.891866 0.045896 0.000000
0.916784 0.046289 0.000000
0.941600 0.046680 0.000000
0.966399 0.047070 0.000000
0.000000 0.064616 0.000000
0.000000 0.065014 0.000000
0.000000 0.065412 0.000000
0.000000 0.065809 0.000000
0.021859 0.066240 0.000000
0.056198 0.066781 0.000000
0.090509 0.067321 0.000000
0.124791 0.067861 0.000000
0.159043 0.068400 0.000000
0.193266 0.068939 0.000000
0.233936 0.069580 0.000000
0.274802 0.070224 0.000000
0.315626 0.070867 0.000000
0.356408 0.071509 0.000000
0.397149 0.072151 0.000000
0.437848 0.072792 0.000000
0.478505 0.073432 0.000000
0.514925 0.074006 0.000000
0.551031 0.074574 0.000000
0.587104 0.075142 0.000000
0.623143 0.075710 0.000000
0.659150 0.076277 0.000000
0.695124 0.076844 0.000000
0.731065 0.077410 0.000000
0.765372 0.077950 0.000000
0.791053 0.078355 0.000000
0.816716 0.078759 0.000000
0.842363 0.079163 0.000000
0.867994 0.079566 0.000000
0.893607 0.079970 0.000000
0.918525 0.080362 0.000000
0.943340 0.080753 0.000000
0.968140 0.081144 0.000000
0.000000 0.098703 0.000000
0.000000 0.099100 0.000000
0.000000 0.099498 0.000000
0.000000 0.099895 0.000000
0.023600 0.100326 0.000000
0.057940 0.100867 0.000000
0.092250 0.101407 0.000000
0.126532 0.101947 0.000000
0.160784 0.102487 0.000000
0.195007 0.103026 0.000000
0.235678 0.103666 0.000000
0.276543 0.104310 0.000000
0.317367 0.104953 0.000000
0.358150 0.105595 0.000000
0.398890 0.106237 0.000000
0.439589 0.106878 0.000000
0.480246 0.107518 0.000000
0.516666 0.108092 0.000000
0.552772 0.108660 0.000000
0.588845 0.109229 0.000000
0.624885 0.109796 0.000000
0.660891 0.110363 0.000000
0.696865 0.110930 0.000000
0.732806 0.111496 0.000000
0.767113 0.112036 0.000000
0.792794 0.112441 0.000000
0.818458 0.112845 0.000000
0.844105 0.113249 0.000000
0.869735 0.113653 0.000000
0.895348 0.114056 0.000000
0.920266 0.114449 0.000000
0.945082 0.114839 0.000000
0.969881 0.115230 0.000000
0.000000 0.132802 0.000000
0.000000 0.133200 0.000000
0.000000 0.133597 0.000000
0.000000 0.133994 0.000000
0.025342 0.134425 0.000000
0.059681 0.134966 0.000000
0.093992 0.135506 0.000000
0.128274 0.136046 0.000000
0.162526 0.136586 0.000000
0.196749 0.137125 0.000000
0.237420 0.137765 0.000000
0.278285 0.138409 0.000000
0.319109 0.139052 0.000000
0.359892 0.139694 0.000000
0.400632 0.140336 0.000000
0.441331 0.140977 0.000000
0.481988 0.141617 0.000000
0.518408 0.142191 0.000000
0.554514 0.142760 0.000000
0.590587 0.143328 0.000000
0.626626 0.143896 0.000000
0.662633 0.144463 0.000000
0.698607 0.145029 0.000000
0.734548 0.145595 0.000000
0.768855 0.146136 0.000000
0.794536 0.146540 0.000000
0.820200 0.146944 0.000000
0.845847 0.147348 0.000000
0.871477 0.147752 0.000000
0.897090 0.148155 0.000000
0.922008 0.148548 0.000000
0.946823 0.148939 0.000000
0.971623 0.149329 0.000000
0.000000 0.166914 0.000000
0.000000 0.167312 0.000000
0.000000 0.167709 0.000000
0.000000 0.168107 0.000000
0.027084 0.168537 0.000000
0.061424 0.169078 0.000000
0.095735 0.169619 0.000000
0.130016 0.170159 0.000000
0.164269 0.170698 0.000000
0.198492 0.171237 0.000000
0.239162 0.171878 0.000000
0.280028 0.172521 0.000000
0.320852 0.173164 0.000000
0.361634 0.173807 0.000000
0.402375 0.174448 0.000000
0.443073 0.175089 0.000000
0.483730 0.175730 0.000000
0.520150 0.176303 0.000000
0.556256 0.176872 0.000000
0.592329 0.177440 0.000000
0.628369 0.178008 0.000000
0.664376 0.178575 0.000000
0.700350 0.179141 0.000000
0.736290 0.179708 0.000000
0.770597 0.180248 0.000000
0.796278 0.180652 0.000000
0.821942 0.181057 0.000000
0.847589 0.181460 0.000000
0.873219 0.181864 0.000000
0.898832 0.182268 0.000000
0.923751 0.182660 0.000000
0.948566 0.183051 0.000000
0.973365 0.183441 0.000000
0.000000 0.201039 0.000000
0.000000 0.201437 0.000000
0.000000 0.201835 0.000000
0.001469 0.202232 0.000000
0.028827 0.202663 0.000000
0.063167 0.203203 0.000000
0.097478 0.203744 0.000000
0.131759 0.204284 0.000000
0.166012 0.204823 0.000000
0.200235 0.205362 0.000000
0.240905 0.206003 0.000000
0.281771 0.206647 0.000000
0.322595 0.207290 0.000000
0.363377 0.207932 0.000000
0.404118 0.208573 0.000000
0.444816 0.209215 0.000000
0.485473 0.209855 0.000000
0.521894 0.210428 0.000000
0.558000 0.210997 0.000000
0.594072 0.211565 0.000000
0.630112 0.212133 0.000000
0.666119 0.212700 0.000000
0.702093 0.213267 0.000000
0.738033 0.213833 0.000000
0.772340 0.214373 0.000000
0.798021 0.214778 0.000000
0.823685 0.215182 0.000000
0.849332 0.215586 0.000000
0.874962 0.215989 0.000000
0.900576 0.216393 0.000000
0.925494 0.216785 0.000000
0.950309 0.217176 0.000000
0.975109 0.217567 0.000000
0.000000 0.241648 0.000000
0.000000 0.242046 0.000000
0.000000 0.242443 0.000000
0.003544 0.242840 0.000000
0.030902 0.243271 0.000000
0.065242 0.243812 0.000000
0.099552 0.244353 0.000000
0.133834 0.244892 0.000000
0.168086 0.245432 0.000000
0.202309 0.245971 0.000000
0.242980 0.246612 0.000000
0.283845 0.247255 0.000000
0.324669 0.247898 0.000000
0.365452 0.248540 0.000000
0.406192 0.249182 0.000000
0.446891 0.249823 0.000000
0.487548 0.250464 0.000000
0.523968 0.251037 0.000000
0.560074 0.251606 0.000000
0.596147 0.252174 0.000000
0.632187 0.252742 0.000000
0.668193 0.253309 0.000000
0.704167 0.253875 0.000000
0.740108 0.254441 0.000000
0.774415 0.254982 0.000000
0.800096 0.255386 0.000000
0.825760 0.255790 0.000000
0.851407 0.256194 0.000000
0.877037 0.256598 0.000000
0.902650 0.257001 0.000000
0.927568 0.257394 0.000000
0.952384 0.257785 0.000000
0.977183 0.258175 0.000000
0.000000 0.282512 0.000000
0.000000 0.282910 0.000000
0.000000 0.283307 0.000000
0.005631 0.283704 0.000000
0.032989 0.284135 0.000000
0.067329 0.284676 0.000000
0.101640 0.285216 0.000000
0.135921 0.285756 0.000000
0.170174 0.286296 0.000000
0.204397 0.286835 0.000000
0.245067 0.287475 0.000000
0.285933 0.288119 0.000000
0.326757 0.288762 0.000000
0.367539 0.289404 0.000000
0.408280 0.290046 0.000000
0.448978 0.290687 0.000000
0.489635 0.291327 0.000000
0.526055 0.291901 0.000000
0.562161 0.292470 0.000000
0.598234 0.293038 0.000000
0.634274 0.293605 0.000000
0.670281 0.294173 0.000000
0.706255 0.294739 0.000000
0.742195 0.295305 0.000000
0.776502 0.295846 0.000000
0.802183 0.296250 0.000000
0.827847 0.296654 0.000000
0.853494 0.297058 0.000000
0.879124 0.297462 0.000000
0.904737 0.297865 0.000000
0.929656 0.298258 0.000000
0.954471 0.298649 0.000000
0.979270 0.299039 0.000000
0.000000 0.323394 0.000000
0.000000 0.323792 0.000000
0.000000 0.324189 0.000000
0.007719 0.324587 0.000000
0.035078 0.325018 0.000000
0.069417 0.325558 0.000000
0.103728 0.326099 0.000000
0.138010 0.326639 0.000000
0.172262 0.327178 0.000000
0.206485 0.327717 0.000000
0.247155 0.328358 0.000000
0.288021 0.329001 0.000000
0.328845 0.329644 0.000000
0.369627 0.330287 0.000000
0.410368 0.330928 0.000000
0.451067 0.331569 0.000000
0.491724 0.332210 0.000000
0.528144 0.332783 0.000000
0.564250 0.333352 0.000000
0.600323 0.333920 0.000000
0.636362 0.334488 0.000000
0.672369 0.335055 0.000000
0.708343 0.335622 0.000000
0.744284 0.336188 0.000000
0.778591 0.336728 0.000000
0.804272 0.337132 0.000000
0.829935 0.337537 0.000000
0.855582 0.337941 0.000000
0.881213 0.338344 0.000000
0.906826 0.338748 0.000000
0.931744 0.339140 0.000000
0.956559 0.339531 0.000000
0.981359 0.339922 0.000000
0.000000 0.364295 0.000000
0.000000 0.364693 0.000000
0.000000 0.365090 0.000000
0.009809 0.365488 0.000000
0.037167 0.365918 0.000000
0.071507 0.366459 0.000000
0.105817 0.367000 0.000000
0.140099 0.367540 0.000000
0.174351 0.368079 0.000000
0.208574 0.368618 0.000000
0.249245 0.369259 0.000000
0.290111 0.369902 0.000000
0.330935 0.370545 0.000000
0.371717 0.371188 0.000000
0.412457 0.371829 0.000000
0.453156 0.372470 0.000000
0.493813 0.373111 0.000000
0.530233 0.373684 0.000000
0.566339 0.374253 0.000000
0.602412 0.374821 0.000000
0.638452 0.375389 0.000000
0.674458 0.375956 0.000000
0.710432 0.376522 0.000000
0.746373 0.377089 0.000000
0.780680 0.377629 0.000000
0.806361 0.378033 0.000000
0.832025 0.378438 0.000000
0.857672 0.378842 0.000000
0.883302 0.379245 0.000000
0.908915 0.379649 0.000000
0.933833 0.380041 0.000000
0.958649 0.380432 0.000000
0.983448 0.380823 0.000000
0.000000 0.405215 0.000000
0.000000 0.405612 0.000000
0.000000 0.406010 0.000000
0.011899 0.406407 0.000000
0.039257 0.406838 0.000000
0.073597 0.407379 0.000000
0.107908 0.407919 0.000000
0.142189 0.408459 0.000000
0.176442 0.408999 0.000000
0.210665 0.409538 0.000000
0.251335 0.410178 0.000000
0.292201 0.410822 0.000000
0.333025 0.411465 0.000000
0.373807 0.412107 0.000000
0.414548 0.412749 0.000000
0.455246 0.413390 0.000000
0.495903 0.414030 0.000000
0.532323 0.414604 0.000000
0.568429 0.415173 0.000000
0.604502 0.415741 0.000000
0.640542 0.416308 0.000000
0.676549 0.416875 0.000000
0.712522 0.417442 0.000000
0.748463 0.418008 0.000000
0.782770 0.418548 0.000000
0.808451 0.418953 0.000000
0.834115 0.419357 0.000000
0.859762 0.419761 0.000000
0.885392 0.420165 0.000000
0.911005 0.420568 0.000000
0.935924 0.420961 0.000000
0.960739 0.421351 0.000000
0.985538 0.421742 0.000000
0.000000 0.446153 0.000000
0.000000 0.446551 0.000000
0.000000 0.446948 0.000000
0.013990 0.447345 0.000000
0.041348 0.447776 0.000000
0.075688 0.448317 0.000000
0.109999 0.448857 0.000000
0.144280 0.449397 0.000000
0.178533 0.449937 0.000000
0.212756 0.450476 0.000000
0.253426 0.451116 0.000000
0.294292 0.451760 0.000000
0.335116 0.452403 0.000000
0.375898 0.453045 0.000000
0.416639 0.453687 0.000000
0.457337 0.454328 0.000000
0.497994 0.454968 0.000000
0.534415 0.455542 0.000000
0.570520 0.456111 0.000000
0.606593 0.456679 0.000000
0.642633 0.457246 0.000000
0.678640 0.457813 0.000000
0.714614 0.458380 0.000000
0.750554 0.458946 0.000000
0.784861 0.459486 0.000000
0.810542 0.459891 0.000000
0.836206 0.460295 0.000000
0.861853 0.460699 0.000000
0.887483 0.461103 0.000000
0.913096 0.461506 0.000000
0.938015 0.461899 0.000000
0.962830 0.462290 0.000000
0.987630 0.462680 0.000000
0.000000 0.487110 0.000000
0.000000 0.487507 0.000000
0.000000 0.487905 0.000000
0.016082 0.488302 0.000000
0.043440 0.488733 0.000000
0.077780 0.489274 0.000000
0.112091 0.489814 0.000000
0.146373 0.490354 0.000000
0.180625 0.490893 0.000000
0.214848 0.491432 0.000000
0.255518 0.492073 0.000000
0.296384 0.492717 0.000000
0.337208 0.493360 0.000000
0.377990 0.494002 0.000000
0.418731 0.494644 0.000000
0.459430 0.495285 0.000000
0.500087 0.495925 0.000000
0.536507 0.496499 0.000000
0.572613 0.497067 0.000000
0.608686 0.497635 0.000000
0.644725 0.498203 0.000000
0.680732 0.498770 0.000000
0.716706 0.499337 0.000000
0.752647 0.499903 0.000000
0.786954 0.500443 0.000000
0.812635 0.500848 0.000000
0.838298 0.501252 0.000000
0.863945 0.501656 0.000000
0.889576 0.502059 0.000000
0.915189 0.502463 0.000000
0.940107 0.502855 0.000000
0.964922 0.503246 0.000000
0.989722 0.503637 0.000000
0.000000 0.523850 0.000000
0.000000 0.524247 0.000000
0.000000 0.524645 0.000000
0.017959 0.525042 0.000000
0.045317 0.525473 0.000000
0.079657 0.526014 0.000000
0.113968 0.526554 0.000000
0.148249 0.527094 0.000000
0.182502 0.527633 0.000000
0.216725 0.528172 0.000000
0.257395 0.528813 0.000000
0.298261 0.529457 0.000000
0.339085 0.530100 0.000000
0.379867 0.530742 0.000000
0.420608 0.531384 0.000000
0.461306 0.532025 0.000000
0.501963 0.532665 0.000000
0.538383 0.533239 0.000000
0.574489 0.533807 0.000000
0.610562 0.534375 0.000000
0.646602 0.534943 0.000000
0.682609 0.535510 0.000000
0.718583 0.536077 0.000000
0.754523 0.536643 0.000000
0.788830 0.537183 0.000000
0.814511 0.537588 0.000000
0.840175 0.537992 0.000000
0.865822 0.538396 0.000000
0.891452 0.538800 0.000000
0.917065 0.539203 0.000000
0.941984 0.539595 0.000000
0.966799 0.539986 0.000000
0.991599 0.540377 0.000000
0.000000 0.560321 0.000000
0.000000 0.560719 0.000000
0.000000 0.561116 0.000000
0.019822 0.561513 0.000000
0.047180 0.561944 0.000000
0.081520 0.562485 0.000000
0.115831 0.563025 0.000000
0.150112 0.563565 0.000000
0.184365 0.564105 0.000000
0.218588 0.564644 0.000000
0.259258 0.565284 0.000000
0.300124 0.565928 0.000000
0.340948 0.566571 0.000000
0.381730 0.567213 0.000000
0.422471 0.567855 0.000000
0.463169 0.568496 0.000000
0.503826 0.569136 0.000000
0.540247 0.569710 0.000000
0.576352 0.570279 0.000000
0.612425 0.570847 0.000000
0.648465 0.571414 0.000000
0.684472 0.571982 0.000000
0.720446 0.572548 0.000000
0.756386 0.573114 0.000000
0.790693 0.573655 0.000000
0.816374 0.574059 0.000000
0.842038 0.574463 0.000000
0.867685 0.574867 0.000000
0.893315 0.575271 0.000000
0.918928 0.575674 0.000000
0.943847 0.576067 0.000000
0.968662 0.576458 0.000000
0.993462 0.576848 0.000000
0.000000 0.596807 0.000000
0.000000 0.597205 0.000000
0.000000 0.597602 0.000000
0.021686 0.597999 0.000000
0.049044 0.598430 0.000000
0.083384 0.598971 0.000000
0.117695 0.599511 0.000000
0.151976 0.600051 0.000000
0.186229 0.600591 0.000000
0.220452 0.601130 0.000000
0.261122 0.601770 0.000000
0.301988 0.602414 0.000000
0.342812 0.603057 0.000000
0.383594 0.603699 0.000000
0.424335 0.604341 0.000000
0.465033 0.604982 0.000000
0.505690 0.605622 0.000000
0.542110 0.606196 0.000000
0.578216 0.606765 0.000000
0.614289 0.607333 0.000000
0.650329 0.607901 0.000000
0.686336 0.608468 0.000000
0.722309 0.609034 0.000000
0.758250 0.609600 0.000000
0.792557 0.610141 0.000000
0.818238 0.610545 0.000000
0.843902 0.610949 0.000000
0.869549 0.611353 0.000000
0.895179 0.611757 0.000000
0.920792 0.612160 0.000000
0.945711 0.612553 0.000000
0.970526 0.612944 0.000000
0.995325 0.613334 0.000000
0.000000 0.633308 0.000000
0.000000 0.633705 0.000000
0.000000 0.634103 0.000000
0.023551 0.634500 0.000000
0.050909 0.634931 0.000000
0.085249 0.635472 0.000000
0.119559 0.636012 0.000000
0.153841 0.636552 0.000000
0.188093 0.637092 0.000000
0.222316 0.637631 0.000000
0.262987 0.638271 0.000000
0.303852 0.638915 0.000000
0.344676 0.639558 0.000000
0.385459 0.640200 0.000000
0.426199 0.640842 0.000000
0.466898 0.641483 0.000000
0.507555 0.642123 0.000000
0.543975 0.642697 0.000000
0.580081 0.643266 0.000000
0.616154 0.643834 0.000000
0.652194 0.644401 0.000000
0.688200 0.644968 0.000000
0.724174 0.645535 0.000000
0.760115 0.646101 0.000000
0.794422 0.646641 0.000000
0.820103 0.647046 0.000000
0.845767 0.647450 0.000000
0.871414 0.647854 0.000000
0.897044 0.648258 0.000000
0.922657 0.648661 0.000000
0.947575 0.649054 0.000000
0.972390 0.649444 0.000000
0.997190 0.649835 0.000000
0.000000 0.669823 0.000000
0.000000 0.670221 0.000000
0.000198 0.670618 0.000000
0.025416 0.671016 0.000000
0.052774 0.671446 0.000000
0.087114 0.671987 0.000000
0.121424 0.672528 0.000000
0.155706 0.673068 0.000000
0.189958 0.673607 0.000000
0.224182 0.674146 0.000000
0.264852 0.674787 0.000000
0.305718 0.675430 0.000000
0.346542 0.676073 0.000000
0.387324 0.676716 0.000000
0.428064 0.677357 0.000000
0.468763 0.677998 0.000000
0.509420 0.678639 0.000000
0.545840 0.679212 0.000000
0.581946 0.679781 0.000000
0.618019 0.680349 0.000000
0.654059 0.680917 0.000000
0.690066 0.681484 0.000000
0.726039 0.682050 0.000000
0.761980 0.682617 0.000000
0.796287 0.683157 0.000000
0.821968 0.683561 0.000000
0.847632 0.683966 0.000000
0.873279 0.684369 0.000000
0.898909 0.684773 0.000000
0.924522 0.685177 0.000000
0.949440 0.685569 0.000000
0.974256 0.685960 0.000000
0.999055 0.686350 0.000000
0.000000 0.706353 0.000000
0.000000 0.706751 0.000000
0.002064 0.707149 0.000000
0.027282 0.707546 0.000000
0.054640 0.707977 0.000000
0.088980 0.708517 0.000000
0.123291 0.709058 0.000000
0.157572 0.709598 0.000000
0.191824 0.710137 0.000000
0.226048 0.710676 0.000000
0.266718 0.711317 0.000000
0.307584 0.711960 0.000000
0.348408 0.712603 0.000000
0.389190 0.713246 0.000000
0.429930 0.713887 0.000000
0.470629 0.714528 0.000000
0.511286 0.715169 0.000000
0.547706 0.715742 0.000000
0.583812 0.716311 0.000000
0.619885 0.716879 0.000000
0.655925 0.717447 0.000000
0.691932 0.718014 0.000000
0.727905 0.718581 0.000000
0.763846 0.719147 0.000000
0.798153 0.719687 0.000000
0.823834 0.720091 0.000000
0.849498 0.720496 0.000000
0.875145 0.720900 0.000000
0.900775 0.721303 0.000000
0.926388 0.721707 0.000000
0.951306 0.722099 0.000000
0.976122 0.722490 0.000000
1.000000 0.722881 0.000000
0.000000 0.742898 0.000000
0.000000 0.743296 0.000000
0.003931 0.743693 0.000000
0.029149 0.744091 0.000000
0.056507 0.744521 0.000000
0.090847 0.745062 0.000000
0.125157 0.745603 0.000000
0.159439 0.746143 0.000000
0.193691 0.746682 0.000000
0.227914 0.747221 0.000000
0.268585 0.747862 0.000000
0.309450 0.748505 0.000000
0.350274 0.749148 0.000000
0.391057 0.749791 0.000000
0.431797 0.750432 0.000000
0.472496 0.751073 0.000000
0.513153 0.751714 0.000000
0.549573 0.752287 0.000000
0.585679 0.752856 0.000000
0.621752 0.753424 0.000000
0.657792 0.753992 0.000000
0.693798 0.754559 0.000000
0.729772 0.755125 0.000000
0.765713 0.755692 0.000000
0.800020 0.756232 0.000000
0.825701 0.756636 0.000000
0.851365 0.757041 0.000000
0.877012 0.757444 0.000000
0.902642 0.757848 0.000000
0.928255 0.758252 0.000000
0.953173 0.758644 0.000000
0.977989 0.759035 0.000000
1.000000 0.759425 0.000000
0.000000 0.777827 0.000000
0.000000 0.778225 0.000000
0.005715 0.778622 0.000000
0.030933 0.779020 0.000000
0.058291 0.779450 0.000000
0.092631 0.779991 0.000000
0.126942 0.780532 0.000000
0.161223 0.781072 0.000000
0.195475 0.781611 0.000000
0.229699 0.782150 0.000000
0.270369 0.782791 0.000000
0.311235 0.783434 0.000000
0.352059 0.784077 0.000000
0.392841 0.784720 0.000000
0.433581 0.785361 0.000000
0.474280 0.786002 0.000000
0.514937 0.786643 0.000000
0.551357 0.787216 0.000000
0.587463 0.787785 0.000000
0.623536 0.788353 0.000000
0.659576 0.788921 0.000000
0.695583 0.789488 0.000000
0.731556 0.790054 0.000000
0.767497 0.790620 0.000000
0.801804 0.791161 0.000000
0.827485 0.791565 0.000000
0.853149 0.791970 0.000000
0.878796 0.792373 0.000000
0.904426 0.792777 0.000000
0.930039 0.793181 0.000000
0.954958 0.793573 0.000000
0.979773 0.793964 0.000000
1.000000 0.794354 0.000000
0.000000 0.804002 0.000000
0.000000 0.804400 0.000000
0.007052 0.804798 0.000000
0.032270 0.805195 0.000000
0.059628 0.805626 0.000000
0.093968 0.806167 0.000000
0.128279 0.806707 0.000000
0.162560 0.807247 0.000000
0.196813 0.807786 0.000000
0.231036 0.808325 0.000000
0.271706 0.808966 0.000000
0.312572 0.809610 0.000000
0.353396 0.810253 0.000000
0.394178 0.810895 0.000000
0.434919 0.811537 0.000000
0.475617 0.812178 0.000000
0.516274 0.812818 0.000000
0.552694 0.813392 0.000000
0.588800 0.813960 0.000000
0.624873 0.814528 0.000000
0.660913 0.815096 0.000000
0.696920 0.815663 0.000000
0.732893 0.816230 0.000000
0.768834 0.816796 0.000000
0.803141 0.817336 0.000000
0.828822 0.817741 0.000000
0.854486 0.818145 0.000000
0.880133 0.818549 0.000000
0.905763 0.818952 0.000000
0.931376 0.819356 0.000000
0.956295 0.819748 0.000000
0.981110 0.820139 0.000035
1.000000 0.820530 0.000425
0.000000 0.830185 0.000000
0.000000 0.830583 0.000000
0.008389 0.830980 0.000000
0.033608 0.831378 0.000000
0.060966 0.831808 0.000000
0.095305 0.832349 0.000000
0.129616 0.832890 0.000000
0.163898 0.833430 0.000000
0.198150 0.833969 0.000000
0.232373 0.834508 0.000000
0.273044 0.835149 0.000000
0.313909 0.835792 0.000000
0.354733 0.836435 0.000000
0.395516 0.837078 0.000000
0.436256 0.837719 0.000000
0.476955 0.838360 0.000000
0.517612 0.839001 0.000000
0.554032 0.839574 0.000000
0.590138 0.840143 0.000000
0.626211 0.840711 0.000000
0.662250 0.841279 0.000000
0.698257 0.841846 0.000000
0.734231 0.842412 0.000000
0.770172 0.842979 0.000000
0.804479 0.843519 0.000000
0.830160 0.843923 0.000000
