assets/ricoh/Ricoh_GR3_PS_Filter/LUT/GR3_Bleach_Bypass.cube
TITLE "Ricoh GR III Bleach Bypass"
LUT_3D_SIZE 33
DOMAIN_MIN 0.000000 0.000000 0.000000
DOMAIN_MAX 1.000000 1.000000 1.000000
0.000000 0.000000 0.000000
0.000000 0.000000 0.000000
0.000000 0.000000 0.000000
0.000000 0.000000 0.000000
0.000000 0.000000 0.000000
0.000000 0.000000 0.000000
0.000000 0.000000 0.000000
0.003993 0.000000 0.000000
0.034307 0.000000 0.000000
0.068790 0.000000 0.000000
0.103260 0.000000 0.000000
0.137718 0.000000 0.000000
0.172164 0.000000 0.000000
0.206598 0.000000 0.000000
0.241019 0.000000 0.000000
0.275428 0.000000 0.000000
0.308005 0.000000 0.000000
0.338248 0.000000 0.000000
0.368482 0.000000 0.000000
0.398706 0.000000 0.000000
0.428920 0.000000 0.000000
0.459126 0.000000 0.000000
0.489321 0.000000 0.000000
0.519507 0.000000 0.000000
0.545715 0.000000 0.000000
0.566154 0.000000 0.000000
0.586589 0.000000 0.000000
0.607019 0.000000 0.000000
0.627445 0.000000 0.000000
0.647866 0.000000 0.000000
0.667497 0.000000 0.000000
0.687022 0.000000 0.000000
0.706544 0.000000 0.000000
0.000000 0.000000 0.000000
0.000000 0.000000 0.000000
0.000000 0.000000 0.000000
0.000000 0.000000 0.000000
0.000000 0.000000 0.000000
0.000000 0.000000 0.000000
0.000000 0.000000 0.000000
0.008376 0.000000 0.000000
0.038690 0.000000 0.000000
0.073172 0.000000 0.000000
0.107643 0.000000 0.000000
0.142101 0.000000 0.000000
0.176547 0.000000 0.000000
0.210980 0.000000 0.000000
0.245402 0.000000 0.000000
0.279811 0.000000 0.000000
0.312388 0.000000 0.000000
0.342631 0.000000 0.000000
0.372864 0.000000 0.000000
0.403088 0.000000 0.000000
0.433303 0.000000 0.000000
0.463508 0.000000 0.000000
0.493704 0.000000 0.000000
0.523890 0.000000 0.000000
0.550098 0.000000 0.000000
0.570537 0.000000 0.000000
0.590971 0.000000 0.000000
0.611401 0.000000 0.000000
0.631827 0.000000 0.000000
0.652249 0.000000 0.000000
0.671879 0.000000 0.000000
0.691405 0.000000 0.000000
0.710927 0.000000 0.000000
0.000000 0.000000 0.000000
0.000000 0.000000 0.000000
0.000000 0.000000 0.000000
0.000000 0.000000 0.000000
0.000000 0.000000 0.000000
0.000000 0.000000 0.000000
0.000000 0.000000 0.000000
0.012759 0.000000 0.000000
0.043072 0.000000 0.000000
0.077555 0.000000 0.000000
0.112025 0.000000 0.000000
0.146484 0.000000 0.000000
0.180929 0.000000 0.000000
0.215363 0.000000 0.000000
0.249784 0.000000 0.000000
0.284193 0.000000 0.000000
0.316770 0.000000 0.000000
0.347013 0.000000 0.000000
0.377247 0.000000 0.000000
0.407471 0.000000 0.000000
0.437686 0.000000 0.000000
0.467891 0.000000 0.000000
0.498086 0.000000 0.000000
0.528273 0.000000 0.000000
0.554480 0.000000 0.000000
0.574919 0.000000 0.000000
0.595354 0.000000 0.000000
0.615784 0.000000 0.000000
0.636210 0.000000 0.000000
0.656631 0.000000 0.000000
0.676262 0.000000 0.000000
0.695788 0.000000 0.000000
0.715309 0.000000 0.000000
0.000000 0.000000 0.000000
0.000000 0.000000 0.000000
0.000000 0.000000 0.000000
0.000000 0.000000 0.000000
0.000000 0.000000 0.000000
0.000000 0.000000 0.000000
0.000000 0.000000 0.000000
0.020364 0.000000 0.000000
0.050678 0.000000 0.000000
0.085160 0.000000 0.000000
0.119631 0.000000 0.000000
0.154089 0.000000 0.000000
0.188535 0.000000 0.000000
0.222968 0.000000 0.000000
0.257389 0.000000 0.000000
0.291799 0.000000 0.000000
0.324375 0.000000 0.000000
0.354619 0.000000 0.000000
0.384852 0.000000 0.000000
0.415076 0.000000 0.000000
0.445291 0.000000 0.000000
0.475496 0.000000 0.000000
0.505692 0.000000 0.000000
0.535878 0.000000 0.000000
0.562085 0.000000 0.000000
0.582524 0.000864 0.000000
0.602959 0.003401 0.000000
0.623389 0.005937 0.000000
0.643815 0.008473 0.000000
0.664237 0.011008 0.000000
0.683867 0.013445 0.000000
0.703393 0.015869 0.000000
0.722914 0.018292 0.000000
0.000000 0.000000 0.000000
0.000000 0.000000 0.000000
0.000000 0.000000 0.000000
0.000000 0.000000 0.000000
0.000000 0.000000 0.000000
0.000000 0.000000 0.000000
0.004715 0.000000 0.000000
0.031320 0.000000 0.000000
0.061634 0.000000 0.000000
0.096117 0.000000 0.000000
0.130587 0.000000 0.000000
0.165045 0.000000 0.000000
0.199491 0.000000 0.000000
0.233925 0.000000 0.000000
0.268346 0.000000 0.000000
0.302755 0.000000 0.000000
0.335332 0.002754 0.000000
0.365575 0.006509 0.000000
0.395809 0.010262 0.000000
0.426033 0.014014 0.000000
0.456247 0.017765 0.000000
0.486453 0.021514 0.000000
0.516648 0.025263 0.000000
0.546834 0.029010 0.000000
0.573042 0.032263 0.000000
0.593481 0.034801 0.000000
0.613916 0.037337 0.000000
0.634346 0.039873 0.000000
0.654772 0.042409 0.000000
0.675193 0.044944 0.000000
0.694824 0.047381 0.000000
0.714349 0.049805 0.000000
0.733871 0.052228 0.000000
0.000000 0.000000 0.000000
0.000000 0.000000 0.000000
0.000000 0.000000 0.000000
0.000000 0.000000 0.000000
0.000000 0.000000 0.000000
0.000000 0.000000 0.000000
0.015671 0.000000 0.000000
0.042277 0.000000 0.000000
0.072591 0.002714 0.000000
0.107073 0.006995 0.000000
0.141544 0.011274 0.000000
0.176002 0.015551 0.000000
0.210448 0.019827 0.000000
0.244881 0.024102 0.000000
0.279303 0.028375 0.000000
0.313712 0.032646 0.000000
0.346289 0.036690 0.000000
0.376532 0.040445 0.000000
0.406765 0.044198 0.000000
0.436989 0.047950 0.000000
0.467204 0.051701 0.000000
0.497409 0.055450 0.000000
0.527605 0.059199 0.000000
0.557791 0.062946 0.000000
0.583999 0.066199 0.000000
0.604438 0.068737 0.000000
0.624872 0.071273 0.000000
0.645302 0.073810 0.000000
0.665728 0.076345 0.000000
0.686150 0.078880 0.001715
0.705780 0.081317 0.004152
0.725306 0.083741 0.006576
0.744828 0.086165 0.008999
0.000000 0.014730 0.000000
0.000000 0.016053 0.000000
0.000000 0.017375 0.000000
0.000000 0.019670 0.000000
0.000000 0.022976 0.000000
0.000015 0.026280 0.000000
0.026628 0.029584 0.000000
0.053234 0.032887 0.000000
0.083547 0.036650 0.000000
0.118030 0.040931 0.000000
0.152500 0.045210 0.000000
0.186959 0.049487 0.000000
0.221404 0.053763 0.000000
0.255838 0.058038 0.000000
0.290259 0.062311 0.000000
0.324668 0.066582 0.000000
0.357245 0.070626 0.000000
0.387488 0.074381 0.000000
0.417722 0.078134 0.000000
0.447946 0.081886 0.000000
0.478161 0.085637 0.000000
0.508366 0.089386 0.000000
0.538561 0.093135 0.000000
0.568748 0.096882 0.000000
0.594955 0.100135 0.000000
0.615394 0.102673 0.002528
0.635829 0.105209 0.005065
0.656259 0.107746 0.007601
0.676685 0.110281 0.010137
0.697107 0.112816 0.012672
0.716737 0.115253 0.015109
0.736263 0.117677 0.017532
0.755784 0.120101 0.019956
0.000000 0.048666 0.000000
0.000000 0.049989 0.000000
0.000000 0.051311 0.000000
0.000000 0.053606 0.000000
0.000000 0.056912 0.000000
0.010972 0.060216 0.000000
0.037585 0.063520 0.000000
0.064190 0.066823 0.000000
0.094504 0.070586 0.000000
0.128987 0.074867 0.000000
0.163457 0.079146 0.000000
0.197915 0.083423 0.000000
0.232361 0.087699 0.000000
0.266795 0.091974 0.000000
0.301216 0.096247 0.000000
0.335625 0.100519 0.000000
0.368202 0.104563 0.000000
0.398445 0.108317 0.000000
0.428679 0.112070 0.000000
0.458903 0.115822 0.000000
0.489117 0.119573 0.000000
0.519322 0.123322 0.000198
0.549518 0.127071 0.003947
0.579704 0.130818 0.007694
0.605912 0.134072 0.010947
0.626351 0.136609 0.013485
0.646785 0.139146 0.016021
0.667216 0.141682 0.018558
0.687642 0.144217 0.021093
0.708063 0.146753 0.023628
0.727694 0.149189 0.026065
0.747219 0.151613 0.028489
0.766741 0.154037 0.030912
0.000000 0.087343 0.000000
0.000000 0.088666 0.000000
0.000000 0.089989 0.000000
0.000000 0.092284 0.000000
0.000000 0.095589 0.000000
0.023459 0.098894 0.000000
0.050072 0.102197 0.000000
0.076678 0.105500 0.000000
0.106991 0.109263 0.000000
0.141474 0.113544 0.000000
0.175944 0.117823 0.000000
0.210402 0.122101 0.000000
0.244848 0.126377 0.000000
0.279282 0.130651 0.000000
0.313703 0.134924 0.000000
0.348112 0.139196 0.000000
0.380689 0.143240 0.000000
0.410932 0.146994 0.000000
0.441166 0.150747 0.001433
0.471390 0.154499 0.005185
0.501605 0.158250 0.008936
0.531810 0.162000 0.012686
0.562005 0.165748 0.016434
0.592192 0.169495 0.020181
0.618399 0.172749 0.023435
0.638838 0.175286 0.025972
0.659273 0.177823 0.028509
0.679703 0.180359 0.031045
0.700129 0.182895 0.033581
0.720550 0.185430 0.036116
0.740181 0.187867 0.038553
0.759707 0.190290 0.040976
0.779228 0.192714 0.043400
0.000000 0.131354 0.000000
0.000000 0.132677 0.000000
0.000000 0.133999 0.000000
0.000000 0.136294 0.000000
0.011048 0.139600 0.000000
0.037668 0.142904 0.000000
0.064281 0.146208 0.000000
0.090887 0.149511 0.000000
0.121201 0.153274 0.000000
0.155683 0.157555 0.000000
0.190154 0.161834 0.000000
0.224612 0.166111 0.000000
0.259058 0.170387 0.000000
0.293491 0.174662 0.000000
0.327913 0.178935 0.000000
0.362322 0.183207 0.004091
0.394899 0.187251 0.008135
0.425142 0.191005 0.011889
0.455375 0.194758 0.015643
0.485599 0.198510 0.019395
0.515814 0.202261 0.023145
0.546019 0.206010 0.026895
0.576215 0.209759 0.030643
0.606401 0.213506 0.034391
0.632609 0.216760 0.037644
0.653048 0.219297 0.040181
0.673482 0.221834 0.042718
0.693912 0.224370 0.045254
0.714338 0.226905 0.047790
0.734760 0.229441 0.050325
0.754390 0.231877 0.052762
0.773916 0.234301 0.055186
0.793437 0.236725 0.057609
0.000000 0.175365 0.000000
0.000000 0.176688 0.000000
0.000000 0.178010 0.000000
0.000000 0.180305 0.000000
0.025257 0.183611 0.000000
0.051878 0.186915 0.000000
0.078491 0.190219 0.000000
0.105096 0.193522 0.000000
0.135410 0.197285 0.000000
0.169893 0.201566 0.000000
0.204363 0.205845 0.000000
0.238821 0.210122 0.001205
0.273267 0.214398 0.005481
0.307701 0.218673 0.009756
0.342122 0.222946 0.014029
0.376531 0.227217 0.018300
0.409108 0.231261 0.022344
0.439351 0.235016 0.026099
0.469585 0.238769 0.029852
0.499809 0.242521 0.033604
0.530023 0.246272 0.037355
0.560228 0.250021 0.041104
0.590424 0.253770 0.044853
0.620610 0.257517 0.048600
0.646818 0.260770 0.051853
0.667257 0.263308 0.054391
0.687691 0.265844 0.056927
0.708122 0.268381 0.059464
0.728548 0.270916 0.061999
0.748969 0.273451 0.064534
0.768600 0.275888 0.066971
0.788125 0.278312 0.069395
0.807647 0.280736 0.071819
0.000000 0.219376 0.000000
0.000000 0.220698 0.000000
0.000000 0.222021 0.000000
0.012839 0.224316 0.000000
0.039467 0.227622 0.000000
0.066087 0.230926 0.000000
0.092700 0.234230 0.000000
0.119306 0.237533 0.000000
0.149619 0.241296 0.002577
0.184102 0.245576 0.006858
0.218572 0.249856 0.011137
0.253031 0.254133 0.015415
0.287476 0.258409 0.019691
0.321910 0.262684 0.023965
0.356331 0.266957 0.028238
0.390740 0.271228 0.032510
0.423317 0.275272 0.036554
0.453560 0.279027 0.040308
0.483794 0.282780 0.044061
0.514018 0.286532 0.047813
0.544233 0.290283 0.051564
0.574438 0.294032 0.055314
0.604633 0.297781 0.059062
0.634820 0.301528 0.062809
0.661027 0.304781 0.066063
0.681466 0.307319 0.068600
0.701901 0.309855 0.071137
0.722331 0.312392 0.073673
0.742757 0.314927 0.076209
0.763179 0.317462 0.078744
0.782809 0.319899 0.081181
0.802335 0.322323 0.083604
0.821856 0.324746 0.086028
0.000000 0.263386 0.000000
0.000000 0.264709 0.000000
0.008562 0.266032 0.000000
0.027049 0.268327 0.000000
0.053676 0.271632 0.003112
0.080296 0.274937 0.006417
0.106909 0.278241 0.009721
0.133515 0.281544 0.013024
0.163829 0.285307 0.016787
0.198311 0.289587 0.021067
0.232782 0.293866 0.025346
0.267240 0.298144 0.029624
0.301686 0.302420 0.033900
0.336119 0.306695 0.038175
0.370541 0.310968 0.042448
0.404950 0.315239 0.046719
0.437527 0.319283 0.050763
0.467770 0.323038 0.054517
0.498003 0.326791 0.058271
0.528227 0.330543 0.062023
0.558442 0.334293 0.065773
0.588647 0.338043 0.069523
0.618843 0.341792 0.073271
0.649029 0.345539 0.077019
0.675237 0.348792 0.080272
0.695676 0.351329 0.082809
0.716110 0.353866 0.085346
0.736540 0.356402 0.087882
0.756966 0.358938 0.090418
0.777388 0.361473 0.092953
0.797018 0.363910 0.095390
0.816544 0.366334 0.097814
0.836066 0.368757 0.100237
0.001460 0.307397 0.009076
0.012116 0.308720 0.010399
0.022771 0.310043 0.011721
0.041258 0.312338 0.014016
0.067886 0.315643 0.017322
0.094506 0.318948 0.020626
0.121119 0.322252 0.023930
0.147724 0.325554 0.027233
0.178038 0.329318 0.030996
0.212521 0.333598 0.035277
0.246991 0.337877 0.039556
0.281449 0.342155 0.043833
0.315895 0.346431 0.048109
0.350329 0.350705 0.052384
0.384750 0.354978 0.056657
0.419159 0.359250 0.060928
0.451736 0.363294 0.064972
0.481979 0.367048 0.068727
0.512213 0.370802 0.072480
0.542437 0.374554 0.076232
0.572651 0.378304 0.079983
0.602857 0.382054 0.083732
0.633052 0.385802 0.087481
0.663238 0.389550 0.091228
0.689446 0.392803 0.094481
0.709885 0.395340 0.097019
0.730320 0.397877 0.099555
0.750750 0.400413 0.102092
0.771176 0.402949 0.104627
0.791597 0.405484 0.107162
0.811228 0.407921 0.109599
0.830753 0.410345 0.112023
0.850275 0.412768 0.114447
0.015669 0.351408 0.023285
0.026325 0.352731 0.024608
0.036980 0.354054 0.025931
0.055467 0.356349 0.028226
0.082095 0.359654 0.031531
0.108715 0.362959 0.034836
0.135328 0.366263 0.038139
0.161934 0.369565 0.041442
0.192248 0.373328 0.045205
0.226730 0.377609 0.049486
0.261201 0.381888 0.053765
0.295659 0.386166 0.058043
0.330104 0.390442 0.062319
0.364538 0.394716 0.066593
0.398959 0.398989 0.070866
0.433368 0.403261 0.075138
0.465945 0.407305 0.079182
0.496188 0.411059 0.082936
0.526422 0.414812 0.086689
0.556646 0.418564 0.090441
0.586861 0.422315 0.094192
0.617066 0.426065 0.097942
0.647262 0.429813 0.101690
0.677448 0.433561 0.105437
0.703655 0.436814 0.108691
0.724094 0.439351 0.111228
0.744529 0.441888 0.113765
0.764959 0.444424 0.116301
0.785385 0.446960 0.118837
0.805807 0.449495 0.121372
0.825437 0.451932 0.123809
0.844963 0.454356 0.126233
0.864484 0.456779 0.128656
0.029878 0.395419 0.037494
0.040535 0.396742 0.038817
0.051190 0.398065 0.040140
0.069677 0.400360 0.042435
0.096304 0.403665 0.045740
0.122925 0.406970 0.049045
0.149537 0.410273 0.052349
0.176143 0.413576 0.055652
0.206457 0.417339 0.059415
0.240940 0.421620 0.063695
0.275410 0.425899 0.067974
0.309868 0.430177 0.072252
0.344314 0.434453 0.076528
0.378747 0.438727 0.080803
0.413169 0.443000 0.085076
0.447578 0.447272 0.089347
0.480155 0.451316 0.093391
0.510398 0.455070 0.097146
0.540631 0.458823 0.100899
0.570855 0.462575 0.104651
0.601070 0.466326 0.108401
0.631275 0.470076 0.112151
0.661471 0.473824 0.115900
0.691657 0.477571 0.119647
0.717865 0.480825 0.122900
0.738304 0.483362 0.125437
0.758738 0.485899 0.127974
0.779169 0.488435 0.130510
0.799594 0.490971 0.133046
0.820016 0.493506 0.135581
0.839646 0.495943 0.138018
0.859172 0.498367 0.140442
0.878694 0.500790 0.142865
0.043336 0.437101 0.050952
0.053992 0.438424 0.052275
0.064647 0.439747 0.053597
0.083134 0.442041 0.055892
0.109762 0.445347 0.059198
0.136382 0.448652 0.062503
0.162995 0.451955 0.065806
0.189601 0.455258 0.069109
0.219914 0.459021 0.072872
0.254397 0.463302 0.077153
0.288867 0.467581 0.081432
0.323325 0.471859 0.085709
0.357771 0.476135 0.089986
0.392205 0.480409 0.094260
0.426626 0.484682 0.098533
0.461035 0.488954 0.102805
0.493612 0.492998 0.106849
0.523855 0.496752 0.110603
0.554089 0.500505 0.114356
0.584313 0.504257 0.118108
0.614528 0.508008 0.121859
0.644733 0.511758 0.125609
0.674928 0.515506 0.129357
0.705115 0.519253 0.133104
0.731322 0.522507 0.136358
0.751761 0.525044 0.138895
0.772196 0.527581 0.141432
0.792626 0.530117 0.143968
0.813052 0.532653 0.146503
0.833473 0.535188 0.149039
0.853104 0.537625 0.151475
0.872629 0.540048 0.153899
0.892151 0.542472 0.156323
0.055833 0.475809 0.063449
0.066490 0.477132 0.064772
0.077145 0.478455 0.066095
0.095632 0.480750 0.068390
0.122259 0.484055 0.071695
0.148879 0.487360 0.075000
0.175492 0.490664 0.078304
0.202098 0.493966 0.081606
0.232412 0.497730 0.085370
0.266894 0.502010 0.089650
0.301365 0.506289 0.093929
0.335823 0.510567 0.098207
0.370269 0.514843 0.102483
0.404702 0.519117 0.106757
0.439124 0.523390 0.111030
0.473533 0.527662 0.115302
0.506110 0.531706 0.119346
0.536353 0.535460 0.123100
0.566586 0.539214 0.126854
0.596810 0.542966 0.130605
0.627025 0.546716 0.134356
0.657230 0.550466 0.138106
0.687426 0.554214 0.141854
0.717612 0.557962 0.145602
0.743820 0.561215 0.148855
0.764258 0.563752 0.151392
0.784693 0.566289 0.153929
0.805123 0.568825 0.156465
0.825549 0.571361 0.159001
0.845971 0.573896 0.161536
0.865601 0.576333 0.163973
0.885127 0.578757 0.166397
0.904648 0.581180 0.168820
0.068331 0.514518 0.075947
0.078987 0.515841 0.077270
0.089642 0.517163 0.078592
0.108129 0.519458 0.080887
0.134756 0.522764 0.084193
0.161377 0.526068 0.087497
0.187990 0.529372 0.090801
0.214595 0.532675 0.094104
0.244909 0.536438 0.097867
0.279392 0.540719 0.102148
0.313862 0.544998 0.106427
0.348320 0.549275 0.110704
0.382766 0.553551 0.114980
0.417200 0.557826 0.119255
0.451621 0.562099 0.123528
0.486030 0.566370 0.127799
0.518607 0.570414 0.131843
0.548850 0.574169 0.135598
0.579084 0.577922 0.139351
0.609308 0.581674 0.143103
0.639522 0.585425 0.146854
0.669727 0.589174 0.150603
0.699923 0.592923 0.154352
0.730109 0.596670 0.158099
0.756317 0.599923 0.161352
0.776756 0.602461 0.163890
0.797190 0.604997 0.166426
0.817621 0.607534 0.168963
0.838047 0.610069 0.171498
0.858468 0.612604 0.174033
0.878099 0.615041 0.176470
0.897624 0.617465 0.178894
0.917146 0.619889 0.181318
0.080828 0.553226 0.088444
0.091484 0.554549 0.089767
0.102139 0.555872 0.091090
0.120626 0.558167 0.093385
0.147254 0.561472 0.096690
0.173874 0.564777 0.099995
0.200487 0.568080 0.103298
0.227093 0.571383 0.106601
0.257407 0.575146 0.110364
0.291889 0.579427 0.114645
0.326359 0.583706 0.118924
0.360818 0.587984 0.123202
0.395263 0.592260 0.127478
0.429697 0.596534 0.131752
0.464118 0.600807 0.136025
0.498527 0.605079 0.140297
0.531104 0.609123 0.144341
0.561347 0.612877 0.148095
0.591581 0.616630 0.151848
0.621805 0.620382 0.155600
0.652020 0.624133 0.159351
0.682225 0.627883 0.163101
0.712421 0.631631 0.166849
0.742607 0.635378 0.170596
0.768814 0.638632 0.173850
0.789253 0.641169 0.176387
0.809688 0.643706 0.178924
0.830118 0.646242 0.181460
0.850544 0.648778 0.183996
0.870966 0.651313 0.186531
0.890596 0.653750 0.188968
0.910122 0.656173 0.191392
0.929643 0.658597 0.193815
0.093325 0.591934 0.100941
0.103982 0.593257 0.102264
0.114637 0.594580 0.103587
0.133124 0.596875 0.105882
0.159751 0.600180 0.109187
0.186372 0.603485 0.112492
0.212984 0.606789 0.115796
0.239590 0.610091 0.119099
0.269904 0.613855 0.122862
0.304387 0.618135 0.127142
0.338857 0.622414 0.131421
0.373315 0.626692 0.135699
0.407761 0.630968 0.139975
0.442194 0.635243 0.144250
0.476616 0.639516 0.148523
0.511025 0.643787 0.152794
0.543602 0.647831 0.156838
0.573845 0.651585 0.160593
0.604078 0.655339 0.164346
0.634302 0.659091 0.168098
0.664517 0.662841 0.171848
0.694722 0.666591 0.175598
0.724918 0.670339 0.179347
0.755104 0.674087 0.183094
0.781312 0.677340 0.186347
0.801751 0.679877 0.188884
0.822185 0.682414 0.191421
0.842615 0.684950 0.193957
0.863041 0.687486 0.196493
0.883463 0.690021 0.199028
0.903093 0.692458 0.201465
0.922619 0.694882 0.203889
0.942141 0.697305 0.206312
0.105823 0.630643 0.113439
0.116479 0.631966 0.114762
0.127134 0.633288 0.116084
0.145621 0.635583 0.118379
0.172249 0.638889 0.121685
0.198869 0.642193 0.124989
0.225482 0.645497 0.128293
0.252088 0.648800 0.131596
0.282401 0.652563 0.135359
0.316884 0.656844 0.139640
0.351354 0.661123 0.143919
0.385812 0.665400 0.148196
0.420258 0.669676 0.152472
0.454692 0.673951 0.156747
0.489113 0.678224 0.161020
0.523522 0.682495 0.165292
0.556099 0.686539 0.169336
0.586342 0.690294 0.173090
0.616576 0.694047 0.176843
0.646800 0.697799 0.180595
0.677014 0.701550 0.184346
0.707220 0.705299 0.188095
0.737415 0.709048 0.191844
0.767601 0.712795 0.195591
0.793809 0.716048 0.198845
0.814248 0.718586 0.201382
0.834683 0.721122 0.203919
0.855113 0.723659 0.206455
0.875539 0.726194 0.208990
0.895960 0.728729 0.211526
0.915591 0.731166 0.213962
0.935116 0.733590 0.216386
0.954638 0.736014 0.218810
0.118320 0.669351 0.125936
0.128976 0.670674 0.127259
0.139632 0.671997 0.128582
0.158118 0.674292 0.130877
0.184746 0.677597 0.134182
0.211366 0.680902 0.137487
0.237979 0.684205 0.140791
0.264585 0.687508 0.144093
0.294899 0.691271 0.147856
0.329381 0.695552 0.152137
0.363852 0.699831 0.156416
0.398310 0.704109 0.160694
0.432756 0.708385 0.164970
0.467189 0.712659 0.169244
0.501611 0.716932 0.173517
0.536020 0.721204 0.177789
0.568597 0.725248 0.181833
0.598840 0.729002 0.185587
0.629073 0.732755 0.189340
0.659297 0.736507 0.193092
0.689512 0.740258 0.196843
0.719717 0.744008 0.200593
0.749913 0.747756 0.204341
0.780099 0.751503 0.208089
0.806306 0.754757 0.211342
0.826745 0.757294 0.213879
0.847180 0.759831 0.216416
0.867610 0.762367 0.218952
0.888036 0.764903 0.221488
0.908458 0.767438 0.224023
0.928088 0.769875 0.226460
0.947614 0.772299 0.228884
0.967135 0.774722 0.231307
0.130818 0.708059 0.138434
0.141474 0.709382 0.139756
0.152129 0.710705 0.141079
0.170616 0.713000 0.143374
0.197243 0.716305 0.146680
0.223864 0.719610 0.149984
0.250477 0.722914 0.153288
0.277082 0.726217 0.156591
0.307396 0.729980 0.160354
0.341879 0.734260 0.164634
0.376349 0.738539 0.168914
0.410807 0.742817 0.173191
0.445253 0.747093 0.177467
0.479687 0.751368 0.181742
0.514108 0.755641 0.186015
0.548517 0.759912 0.190286
0.581094 0.763956 0.194330
0.611337 0.767710 0.198085
0.641571 0.771464 0.201838
0.671795 0.775216 0.205590
0.702009 0.778966 0.209341
0.732214 0.782716 0.213090
0.762410 0.786465 0.216839
0.792596 0.790212 0.220586
0.818804 0.793465 0.223839
0.839243 0.796002 0.226377
0.859677 0.798539 0.228913
0.880108 0.801075 0.231450
0.900534 0.803611 0.233985
0.920955 0.806146 0.236520
0.940586 0.808583 0.238957
0.960111 0.811007 0.241381
0.979633 0.813430 0.243804
0.141671 0.741676 0.149287
0.152327 0.742999 0.150610
0.162982 0.744321 0.151933
0.181469 0.746616 0.154228
0.208097 0.749922 0.157533
0.234717 0.753226 0.160838
0.261330 0.756530 0.164141
0.287936 0.759833 0.167444
0.318249 0.763596 0.171207
0.352732 0.767877 0.175488
0.387202 0.772156 0.179767
0.421661 0.776433 0.184045
0.456106 0.780709 0.188321
0.490540 0.784984 0.192595
0.524961 0.789257 0.196868
0.559370 0.793529 0.201140
0.591947 0.797573 0.205184
0.622190 0.801327 0.208938
0.652424 0.805080 0.212691
0.682648 0.808832 0.216443
0.712863 0.812583 0.220194
0.743068 0.816332 0.223944
0.773263 0.820081 0.227692
0.803450 0.823828 0.231439
0.829657 0.827082 0.234693
0.850096 0.829619 0.237230
0.870531 0.832156 0.239767
0.890961 0.834692 0.242303
0.911387 0.837227 0.244839
0.931808 0.839763 0.247374
0.951439 0.842199 0.249811
0.970965 0.844623 0.252234
0.990486 0.847047 0.254658
0.150138 0.767899 0.157754
0.160794 0.769222 0.159076
0.171449 0.770545 0.160399
0.189936 0.772840 0.162694
0.216563 0.776145 0.166000
0.243184 0.779450 0.169304
0.269797 0.782754 0.172608
0.296402 0.786056 0.175911
0.326716 0.789819 0.179674
0.361199 0.794100 0.183954
0.395669 0.798379 0.188233
0.430127 0.802657 0.192511
0.464573 0.806933 0.196787
0.499006 0.811207 0.201062
0.533428 0.815480 0.205335
0.567837 0.819752 0.209606
0.600414 0.823796 0.213650
0.630657 0.827550 0.217405
0.660890 0.831303 0.221158
0.691115 0.835055 0.224910
0.721329 0.838806 0.228661
0.751534 0.842556 0.232410
0.781730 0.846304 0.236159
0.811916 0.850052 0.239906
0.838124 0.853305 0.243159
0.858563 0.855842 0.245697
0.878997 0.858379 0.248233
0.899428 0.860915 0.250769
0.919853 0.863451 0.253305
0.940275 0.865986 0.255840
0.959905 0.868423 0.258277
0.979431 0.870847 0.260701
0.998953 0.873270 0.263124
0.158604 0.794123 0.166220
0.169260 0.795445 0.167543
0.179915 0.796768 0.168866
0.198402 0.799063 0.171160
0.225030 0.802369 0.174466
0.251650 0.805673 0.177771
0.278263 0.808977 0.181074
0.304869 0.812280 0.184377
0.335182 0.816043 0.188140
0.369665 0.820323 0.192421
0.404135 0.824602 0.196700
0.438593 0.828880 0.200978
0.473039 0.833156 0.205254
0.507473 0.837431 0.209528
0.541894 0.841704 0.213801
0.576303 0.845975 0.218073
0.608880 0.850019 0.222117
0.639123 0.853774 0.225871
0.669357 0.857527 0.229624
0.699581 0.861279 0.233376
0.729796 0.865030 0.237127
0.760001 0.868779 0.240877
0.790196 0.872528 0.244625
0.820383 0.876275 0.248372
0.846590 0.879528 0.251626
0.867029 0.882066 0.254163
