assets/ricoh/Ricoh_GR3_PS_Filter/LUT/GR3_Standard.cube
TITLE "Ricoh GR III Standard"
LUT_3D_SIZE 5
DOMAIN_MIN 0.000000 0.000000 0.000000
DOMAIN_MAX 1.000000 1.000000 1.000000
0.000000 0.000000 0.000000
0.223600 0.000000 0.000000
0.497402 0.000000 0.000000
0.760063 0.000000 0.000000
0.998781 0.000000 0.000000
0.000000 0.231645 0.000000
0.231144 0.233912 0.000000
0.504946 0.236316 0.000000
0.767607 0.238622 0.000000
1.000000 0.240718 0.000000
0.000000 0.508141 0.000000
0.239145 0.510407 0.000000
0.512947 0.512811 0.000000
0.775608 0.515118 0.000000
1.000000 0.517214 0.000000
0.000000 0.773383 0.000000
0.246820 0.775650 0.000000
0.520622 0.778054 0.000894
0.783284 0.780360 0.003200
1.000000 0.782457 0.005296
0.000000 1.000000 0.003199
0.253796 1.000000 0.005465
0.527598 1.000000 0.007870
0.790260 1.000000 0.010176
1.000000 1.000000 0.012272
0.000000 0.000000 0.224355
0.224354 0.000000 0.226622
0.498156 0.000000 0.229026
0.760817 0.000000 0.231332
0.999535 0.000000 0.233428
0.000000 0.232399 0.231899
0.231897 0.234666 0.234166
0.505700 0.237070 0.236570
0.768361 0.239376 0.238876
1.000000 0.241472 0.240972
0.000000 0.508895 0.239900
0.239899 0.511161 0.242167
0.513701 0.513565 0.244571
0.776362 0.515872 0.246877
1.000000 0.517968 0.248973
0.000000 0.774137 0.247576
0.247574 0.776404 0.249842
0.521376 0.778808 0.252247
0.784038 0.781114 0.254553
1.000000 0.783210 0.256649
0.000000 1.000000 0.254551
0.254550 1.000000 0.256818
0.528352 1.000000 0.259222
0.791014 1.000000 0.261529
1.000000 1.000000 0.263625
0.000000 0.000000 0.491469
0.225155 0.000000 0.493736
0.498957 0.000000 0.496140
0.761619 0.000000 0.498446
1.000000 0.000000 0.500542
0.000000 0.233200 0.499013
0.232699 0.235467 0.501280
0.506501 0.237871 0.503684
0.769162 0.240177 0.505990
1.000000 0.242273 0.508086
0.000000 0.509696 0.507014
0.240700 0.511962 0.509281
0.514502 0.514367 0.511685
0.777164 0.516673 0.513991
1.000000 0.518769 0.516087
0.000000 0.774938 0.514690
0.248375 0.777205 0.516956
0.522177 0.779609 0.519360
0.784839 0.781916 0.521667
1.000000 0.784012 0.523763
0.000000 1.000000 0.521665
0.255351 1.000000 0.523932
0.529153 1.000000 0.526336
0.791815 1.000000 0.528642
1.000000 1.000000 0.530739
0.000000 0.000000 0.748222
0.225925 0.000000 0.750488
0.499727 0.000000 0.752893
0.762389 0.000000 0.755199
1.000000 0.000000 0.757295
0.000000 0.233970 0.755766
0.233469 0.236237 0.758032
0.507271 0.238641 0.760436
0.769932 0.240947 0.762743
1.000000 0.243044 0.764839
0.000000 0.510466 0.763767
0.241470 0.512732 0.766033
0.515272 0.515137 0.768438
0.777934 0.517443 0.770744
1.000000 0.519539 0.772840
0.000000 0.775708 0.771442
0.249145 0.777975 0.773709
0.522947 0.780379 0.776113
0.785609 0.782686 0.778419
1.000000 0.784782 0.780515
0.000000 1.000000 0.778418
0.256121 1.000000 0.780685
0.529923 1.000000 0.783089
0.792585 1.000000 0.785395
1.000000 1.000000 0.787491
0.000000 0.000000 0.982000
0.226626 0.000000 0.984267
0.500428 0.000000 0.986671
0.763090 0.000000 0.988977
1.000000 0.000000 0.991074
0.000000 0.234672 0.989544
0.234170 0.236938 0.991811
0.507972 0.239342 0.994215
0.770634 0.241649 0.996521
1.000000 0.243745 0.998617
0.000000 0.511167 0.997545
0.242171 0.513434 0.999812
0.515973 0.515838 1.000000
0.778635 0.518144 1.000000
1.000000 0.520240 1.000000
0.000000 0.776410 1.000000
0.249846 0.778676 1.000000
0.523649 0.781080 1.000000
0.786310 0.783387 1.000000
1.000000 0.785483 1.000000
0.000000 1.000000 1.000000
0.256822 1.000000 1.000000
0.530624 1.000000 1.000000
0.793286 1.000000 1.000000
1.000000 1.000000 1.000000
