assets/ricoh/Ricoh_GR3_PS_Filter/LUT/GR3_High_Contrast_BW.cube
TITLE "Ricoh GR III High Contrast B&W"
LUT_3D_SIZE 33
DOMAIN_MIN 0.000000 0.000000 0.000000
DOMAIN_MAX 1.000000 1.000000 1.000000
0.000000 0.000000 0.000000
0.000000 0.000000 0.000000
0.000000 0.000000 0.000000
0.000000 0.000000 0.000000
0.000000 0.000000 0.000000
0.000000 0.000000 0.000000
0.000000 0.000000 0.000000
0.000000 0.000000 0.000000
0.000000 0.000000 0.000000
0.000000 0.000000 0.000000
0.000000 0.000000 0.000000
0.000000 0.000000 0.000000
0.000000 0.000000 0.000000
0.000000 0.000000 0.000000
0.000000 0.000000 0.000000
0.000787 0.000787 0.000787
0.011001 0.011001 0.011001
0.021567 0.021567 0.021567
0.032132 0.032132 0.032132
0.042698 0.042698 0.042698
0.053264 0.053264 0.053264
0.063830 0.063830 0.063830
0.074396 0.074396 0.074396
0.084241 0.084241 0.084241
0.090320 0.090320 0.090320
0.096399 0.096399 0.096399
0.102478 0.102478 0.102478
0.108557 0.108557 0.108557
0.114636 0.114636 0.114636
0.120402 0.120402 0.120402
0.125992 0.125992 0.125992
0.131582 0.131582 0.131582
0.137172 0.137172 0.137172
0.000000 0.000000 0.000000
0.000000 0.000000 0.000000
0.000000 0.000000 0.000000
0.000000 0.000000 0.000000
0.000000 0.000000 0.000000
0.000000 0.000000 0.000000
0.000000 0.000000 0.000000
0.000000 0.000000 0.000000
0.000000 0.000000 0.000000
0.000000 0.000000 0.000000
0.000000 0.000000 0.000000
0.000000 0.000000 0.000000
0.000000 0.000000 0.000000
0.000000 0.000000 0.000000
0.000000 0.000000 0.000000
0.008361 0.008361 0.008361
0.018575 0.018575 0.018575
0.029141 0.029141 0.029141
0.039707 0.039707 0.039707
0.050273 0.050273 0.050273
0.060839 0.060839 0.060839
0.071404 0.071404 0.071404
0.081970 0.081970 0.081970
0.091815 0.091815 0.091815
0.097894 0.097894 0.097894
0.103973 0.103973 0.103973
0.110052 0.110052 0.110052
0.116131 0.116131 0.116131
0.122210 0.122210 0.122210
0.127976 0.127976 0.127976
0.133566 0.133566 0.133566
0.139156 0.139156 0.139156
0.144746 0.144746 0.144746
0.000000 0.000000 0.000000
0.000000 0.000000 0.000000
0.000000 0.000000 0.000000
0.000000 0.000000 0.000000
0.000000 0.000000 0.000000
0.000000 0.000000 0.000000
0.000000 0.000000 0.000000
0.000000 0.000000 0.000000
0.000000 0.000000 0.000000
0.000000 0.000000 0.000000
0.000000 0.000000 0.000000
0.000000 0.000000 0.000000
0.000000 0.000000 0.000000
0.000000 0.000000 0.000000
0.005804 0.005804 0.005804
0.015935 0.015935 0.015935
0.026149 0.026149 0.026149
0.036715 0.036715 0.036715
0.047281 0.047281 0.047281
0.057847 0.057847 0.057847
0.068413 0.068413 0.068413
0.078979 0.078979 0.078979
0.089545 0.089545 0.089545
0.099389 0.099389 0.099389
0.105468 0.105468 0.105468
0.111547 0.111547 0.111547
0.117626 0.117626 0.117626
0.123705 0.123705 0.123705
0.129784 0.129784 0.129784
0.135551 0.135551 0.135551
0.141141 0.141141 0.141141
0.146730 0.146730 0.146730
0.152320 0.152320 0.152320
0.000000 0.000000 0.000000
0.000000 0.000000 0.000000
0.000000 0.000000 0.000000
0.000000 0.000000 0.000000
0.000000 0.000000 0.000000
0.000000 0.000000 0.000000
0.000000 0.000000 0.000000
0.000000 0.000000 0.000000
0.000000 0.000000 0.000000
0.000000 0.000000 0.000000
0.000000 0.000000 0.000000
0.000000 0.000000 0.000000
0.007205 0.007205 0.007205
0.017337 0.017337 0.017337
0.027469 0.027469 0.027469
0.037600 0.037600 0.037600
0.047814 0.047814 0.047814
0.058380 0.058380 0.058380
0.068946 0.068946 0.068946
0.079512 0.079512 0.079512
0.090077 0.090077 0.090077
0.100643 0.100643 0.100643
0.111209 0.111209 0.111209
0.121054 0.121054 0.121054
0.127133 0.127133 0.127133
0.133212 0.133212 0.133212
0.139291 0.139291 0.139291
0.145370 0.145370 0.145370
0.151449 0.151449 0.151449
0.157215 0.157215 0.157215
0.162805 0.162805 0.162805
0.168395 0.168395 0.168395
0.173985 0.173985 0.173985
0.000000 0.000000 0.000000
0.000000 0.000000 0.000000
0.000000 0.000000 0.000000
0.000000 0.000000 0.000000
0.000000 0.000000 0.000000
0.000000 0.000000 0.000000
0.000000 0.000000 0.000000
0.000000 0.000000 0.000000
0.000000 0.000000 0.000000
0.003395 0.003395 0.003395
0.013527 0.013527 0.013527
0.023659 0.023659 0.023659
0.033790 0.033790 0.033790
0.043922 0.043922 0.043922
0.054054 0.054054 0.054054
0.064186 0.064186 0.064186
0.074399 0.074399 0.074399
0.084965 0.084965 0.084965
0.095531 0.095531 0.095531
0.106097 0.106097 0.106097
0.116663 0.116663 0.116663
0.127229 0.127229 0.127229
0.137795 0.137795 0.137795
0.147639 0.147639 0.147639
0.153718 0.153718 0.153718
0.159797 0.159797 0.159797
0.165876 0.165876 0.165876
0.171955 0.171955 0.171955
0.178034 0.178034 0.178034
0.183801 0.183801 0.183801
0.189391 0.189391 0.189391
0.194981 0.194981 0.194981
0.200570 0.200570 0.200570
0.000000 0.000000 0.000000
0.000000 0.000000 0.000000
0.000000 0.000000 0.000000
0.000000 0.000000 0.000000
0.000000 0.000000 0.000000
0.000000 0.000000 0.000000
0.002435 0.002435 0.002435
0.010338 0.010338 0.010338
0.019849 0.019849 0.019849
0.029981 0.029981 0.029981
0.040112 0.040112 0.040112
0.050244 0.050244 0.050244
0.060376 0.060376 0.060376
0.070507 0.070507 0.070507
0.080639 0.080639 0.080639
0.090771 0.090771 0.090771
0.100984 0.100984 0.100984
0.111550 0.111550 0.111550
0.122116 0.122116 0.122116
0.132682 0.132682 0.132682
0.143248 0.143248 0.143248
0.153814 0.153814 0.153814
0.164380 0.164380 0.164380
0.174224 0.174224 0.174224
0.180304 0.180304 0.180304
0.186383 0.186383 0.186383
0.192462 0.192462 0.192462
0.198541 0.198541 0.198541
0.204620 0.204620 0.204620
0.210386 0.210386 0.210386
0.215976 0.215976 0.215976
0.221566 0.221566 0.221566
0.227156 0.227156 0.227156
0.000000 0.000000 0.000000
0.000000 0.000000 0.000000
0.000000 0.000000 0.000000
0.005312 0.005312 0.005312
0.013215 0.013215 0.013215
0.021118 0.021118 0.021118
0.029020 0.029020 0.029020
0.036923 0.036923 0.036923
0.046434 0.046434 0.046434
0.056566 0.056566 0.056566
0.066698 0.066698 0.066698
0.076829 0.076829 0.076829
0.086961 0.086961 0.086961
0.097093 0.097093 0.097093
0.107225 0.107225 0.107225
0.117356 0.117356 0.117356
0.127570 0.127570 0.127570
0.138136 0.138136 0.138136
0.148702 0.148702 0.148702
0.159268 0.159268 0.159268
0.169833 0.169833 0.169833
0.180399 0.180399 0.180399
0.190965 0.190965 0.190965
0.200810 0.200810 0.200810
0.206889 0.206889 0.206889
0.212968 0.212968 0.212968
0.219047 0.219047 0.219047
0.225126 0.225126 0.225126
0.231205 0.231205 0.231205
0.236971 0.236971 0.236971
0.242561 0.242561 0.242561
0.248151 0.248151 0.248151
0.253741 0.253741 0.253741
0.020954 0.020954 0.020954
0.023206 0.023206 0.023206
0.025457 0.025457 0.025457
0.031897 0.031897 0.031897
0.039800 0.039800 0.039800
0.047703 0.047703 0.047703
0.055606 0.055606 0.055606
0.063508 0.063508 0.063508
0.073020 0.073020 0.073020
0.083151 0.083151 0.083151
0.093283 0.093283 0.093283
0.103415 0.103415 0.103415
0.113546 0.113546 0.113546
0.123678 0.123678 0.123678
0.133810 0.133810 0.133810
0.143942 0.143942 0.143942
0.154155 0.154155 0.154155
0.164721 0.164721 0.164721
0.175287 0.175287 0.175287
0.185853 0.185853 0.185853
0.196419 0.196419 0.196419
0.206985 0.206985 0.206985
0.217551 0.217551 0.217551
0.227395 0.227395 0.227395
0.233474 0.233474 0.233474
0.239553 0.239553 0.239553
0.245632 0.245632 0.245632
0.251711 0.251711 0.251711
0.257790 0.257790 0.257790
0.263557 0.263557 0.263557
0.269147 0.269147 0.269147
0.274737 0.274737 0.274737
0.280326 0.280326 0.280326
0.052950 0.052950 0.052950
0.055202 0.055202 0.055202
0.057453 0.057453 0.057453
0.063893 0.063893 0.063893
0.071796 0.071796 0.071796
0.079699 0.079699 0.079699
0.087602 0.087602 0.087602
0.095504 0.095504 0.095504
0.105015 0.105015 0.105015
0.115147 0.115147 0.115147
0.125279 0.125279 0.125279
0.135411 0.135411 0.135411
0.145542 0.145542 0.145542
0.155674 0.155674 0.155674
0.165806 0.165806 0.165806
0.175938 0.175938 0.175938
0.186151 0.186151 0.186151
0.196717 0.196717 0.196717
0.207283 0.207283 0.207283
0.217849 0.217849 0.217849
0.228415 0.228415 0.228415
0.238981 0.238981 0.238981
0.249547 0.249547 0.249547
0.259391 0.259391 0.259391
0.265470 0.265470 0.265470
0.271549 0.271549 0.271549
0.277628 0.277628 0.277628
0.283707 0.283707 0.283707
0.289786 0.289786 0.289786
0.295553 0.295553 0.295553
0.301143 0.301143 0.301143
0.306732 0.306732 0.306732
0.312322 0.312322 0.312322
0.087034 0.087034 0.087034
0.089286 0.089286 0.089286
0.091537 0.091537 0.091537
0.097977 0.097977 0.097977
0.105880 0.105880 0.105880
0.113783 0.113783 0.113783
0.121685 0.121685 0.121685
0.129588 0.129588 0.129588
0.139099 0.139099 0.139099
0.149231 0.149231 0.149231
0.159363 0.159363 0.159363
0.169494 0.169494 0.169494
0.179626 0.179626 0.179626
0.189758 0.189758 0.189758
0.199890 0.199890 0.199890
0.210021 0.210021 0.210021
0.220235 0.220235 0.220235
0.230801 0.230801 0.230801
0.241367 0.241367 0.241367
0.251933 0.251933 0.251933
0.262498 0.262498 0.262498
0.273064 0.273064 0.273064
0.283630 0.283630 0.283630
0.293475 0.293475 0.293475
0.299554 0.299554 0.299554
0.305633 0.305633 0.305633
0.311712 0.311712 0.311712
0.317791 0.317791 0.317791
0.323870 0.323870 0.323870
0.329636 0.329636 0.329636
0.335226 0.335226 0.335226
0.340816 0.340816 0.340816
0.346406 0.346406 0.346406
0.121118 0.121118 0.121118
0.123369 0.123369 0.123369
0.125621 0.125621 0.125621
0.132061 0.132061 0.132061
0.139964 0.139964 0.139964
0.147866 0.147866 0.147866
0.155769 0.155769 0.155769
0.163672 0.163672 0.163672
0.173183 0.173183 0.173183
0.183315 0.183315 0.183315
0.193446 0.193446 0.193446
0.203578 0.203578 0.203578
0.213710 0.213710 0.213710
0.223842 0.223842 0.223842
0.233973 0.233973 0.233973
0.244105 0.244105 0.244105
0.254318 0.254318 0.254318
0.264884 0.264884 0.264884
0.275450 0.275450 0.275450
0.286016 0.286016 0.286016
0.296582 0.296582 0.296582
0.307148 0.307148 0.307148
0.317714 0.317714 0.317714
0.327559 0.327559 0.327559
0.333638 0.333638 0.333638
0.339717 0.339717 0.339717
0.345796 0.345796 0.345796
0.351875 0.351875 0.351875
0.357954 0.357954 0.357954
0.363720 0.363720 0.363720
0.369310 0.369310 0.369310
0.374900 0.374900 0.374900
0.380490 0.380490 0.380490
0.155202 0.155202 0.155202
0.157453 0.157453 0.157453
0.159705 0.159705 0.159705
0.166145 0.166145 0.166145
0.174047 0.174047 0.174047
0.181950 0.181950 0.181950
0.189853 0.189853 0.189853
0.197756 0.197756 0.197756
0.207267 0.207267 0.207267
0.217398 0.217398 0.217398
0.227530 0.227530 0.227530
0.237662 0.237662 0.237662
0.247794 0.247794 0.247794
0.257925 0.257925 0.257925
0.268057 0.268057 0.268057
0.278189 0.278189 0.278189
0.288402 0.288402 0.288402
0.298968 0.298968 0.298968
0.309534 0.309534 0.309534
0.320100 0.320100 0.320100
0.330666 0.330666 0.330666
0.341232 0.341232 0.341232
0.351798 0.351798 0.351798
0.361642 0.361642 0.361642
0.367721 0.367721 0.367721
0.373800 0.373800 0.373800
0.379879 0.379879 0.379879
0.385958 0.385958 0.385958
0.392038 0.392038 0.392038
0.397804 0.397804 0.397804
0.403394 0.403394 0.403394
0.408984 0.408984 0.408984
0.414574 0.414574 0.414574
0.189285 0.189285 0.189285
0.191537 0.191537 0.191537
0.193788 0.193788 0.193788
0.200228 0.200228 0.200228
0.208131 0.208131 0.208131
0.216034 0.216034 0.216034
0.223937 0.223937 0.223937
0.231839 0.231839 0.231839
0.241350 0.241350 0.241350
0.251482 0.251482 0.251482
0.261614 0.261614 0.261614
0.271746 0.271746 0.271746
0.281877 0.281877 0.281877
0.292009 0.292009 0.292009
0.302141 0.302141 0.302141
0.312273 0.312273 0.312273
0.322486 0.322486 0.322486
0.333052 0.333052 0.333052
0.343618 0.343618 0.343618
0.354184 0.354184 0.354184
0.364750 0.364750 0.364750
0.375316 0.375316 0.375316
0.385882 0.385882 0.385882
0.395726 0.395726 0.395726
0.401805 0.401805 0.401805
0.407884 0.407884 0.407884
0.413963 0.413963 0.413963
0.420042 0.420042 0.420042
0.426121 0.426121 0.426121
0.431888 0.431888 0.431888
0.437478 0.437478 0.437478
0.443067 0.443067 0.443067
0.448657 0.448657 0.448657
0.223369 0.223369 0.223369
0.225621 0.225621 0.225621
0.227872 0.227872 0.227872
0.234312 0.234312 0.234312
0.242215 0.242215 0.242215
0.250118 0.250118 0.250118
0.258020 0.258020 0.258020
0.265923 0.265923 0.265923
0.275434 0.275434 0.275434
0.285566 0.285566 0.285566
0.295698 0.295698 0.295698
0.305829 0.305829 0.305829
0.315961 0.315961 0.315961
0.326093 0.326093 0.326093
0.336225 0.336225 0.336225
0.346356 0.346356 0.346356
0.356570 0.356570 0.356570
0.367136 0.367136 0.367136
0.377702 0.377702 0.377702
0.388268 0.388268 0.388268
0.398833 0.398833 0.398833
0.409399 0.409399 0.409399
0.419965 0.419965 0.419965
0.429810 0.429810 0.429810
0.435889 0.435889 0.435889
0.441968 0.441968 0.441968
0.448047 0.448047 0.448047
0.454126 0.454126 0.454126
0.460205 0.460205 0.460205
0.465971 0.465971 0.465971
0.471561 0.471561 0.471561
0.477151 0.477151 0.477151
0.482741 0.482741 0.482741
0.257453 0.257453 0.257453
0.259704 0.259704 0.259704
0.261956 0.261956 0.261956
0.268396 0.268396 0.268396
0.276299 0.276299 0.276299
0.284201 0.284201 0.284201
0.292104 0.292104 0.292104
0.300007 0.300007 0.300007
0.309518 0.309518 0.309518
0.319650 0.319650 0.319650
0.329781 0.329781 0.329781
0.339913 0.339913 0.339913
0.350045 0.350045 0.350045
0.360177 0.360177 0.360177
0.370308 0.370308 0.370308
0.380440 0.380440 0.380440
0.390653 0.390653 0.390653
0.401219 0.401219 0.401219
0.411785 0.411785 0.411785
0.422351 0.422351 0.422351
0.432917 0.432917 0.432917
0.443483 0.443483 0.443483
0.454049 0.454049 0.454049
0.463894 0.463894 0.463894
0.469973 0.469973 0.469973
0.476052 0.476052 0.476052
0.482131 0.482131 0.482131
0.488210 0.488210 0.488210
0.494289 0.494289 0.494289
0.500055 0.500055 0.500055
0.505645 0.505645 0.505645
0.511235 0.511235 0.511235
0.516825 0.516825 0.516825
0.291537 0.291537 0.291537
0.293788 0.293788 0.293788
0.296040 0.296040 0.296040
0.302480 0.302480 0.302480
0.310382 0.310382 0.310382
0.318285 0.318285 0.318285
0.326188 0.326188 0.326188
0.334091 0.334091 0.334091
0.343602 0.343602 0.343602
0.353733 0.353733 0.353733
0.363865 0.363865 0.363865
0.373997 0.373997 0.373997
0.384129 0.384129 0.384129
0.394260 0.394260 0.394260
0.404392 0.404392 0.404392
0.414524 0.414524 0.414524
0.424737 0.424737 0.424737
0.435303 0.435303 0.435303
0.445869 0.445869 0.445869
0.456435 0.456435 0.456435
0.467001 0.467001 0.467001
0.477567 0.477567 0.477567
0.488133 0.488133 0.488133
0.497977 0.497977 0.497977
0.504056 0.504056 0.504056
0.510135 0.510135 0.510135
0.516214 0.516214 0.516214
0.522293 0.522293 0.522293
0.528373 0.528373 0.528373
0.534139 0.534139 0.534139
0.539729 0.539729 0.539729
0.545319 0.545319 0.545319
0.550909 0.550909 0.550909
0.325895 0.325895 0.325895
0.328147 0.328147 0.328147
0.330398 0.330398 0.330398
0.336838 0.336838 0.336838
0.344741 0.344741 0.344741
0.352644 0.352644 0.352644
0.360547 0.360547 0.360547
0.368449 0.368449 0.368449
0.377960 0.377960 0.377960
0.388092 0.388092 0.388092
0.398224 0.398224 0.398224
0.408356 0.408356 0.408356
0.418487 0.418487 0.418487
0.428619 0.428619 0.428619
0.438751 0.438751 0.438751
0.448882 0.448882 0.448882
0.459096 0.459096 0.459096
0.469662 0.469662 0.469662
0.480228 0.480228 0.480228
0.490794 0.490794 0.490794
0.501360 0.501360 0.501360
0.511926 0.511926 0.511926
0.522492 0.522492 0.522492
0.532336 0.532336 0.532336
0.538415 0.538415 0.538415
0.544494 0.544494 0.544494
0.550573 0.550573 0.550573
0.556652 0.556652 0.556652
0.562731 0.562731 0.562731
0.568498 0.568498 0.568498
0.574088 0.574088 0.574088
0.579677 0.579677 0.579677
0.585267 0.585267 0.585267
0.361440 0.361440 0.361440
0.363691 0.363691 0.363691
0.365943 0.365943 0.365943
0.372383 0.372383 0.372383
0.380286 0.380286 0.380286
0.388188 0.388188 0.388188
0.396091 0.396091 0.396091
0.403994 0.403994 0.403994
0.413505 0.413505 0.413505
0.423637 0.423637 0.423637
0.433768 0.433768 0.433768
0.443900 0.443900 0.443900
0.454032 0.454032 0.454032
0.464164 0.464164 0.464164
0.474295 0.474295 0.474295
0.484427 0.484427 0.484427
0.494640 0.494640 0.494640
0.505206 0.505206 0.505206
0.515772 0.515772 0.515772
0.526338 0.526338 0.526338
0.536904 0.536904 0.536904
0.547470 0.547470 0.547470
0.558036 0.558036 0.558036
0.567881 0.567881 0.567881
0.573960 0.573960 0.573960
0.580039 0.580039 0.580039
0.586118 0.586118 0.586118
0.592197 0.592197 0.592197
0.598276 0.598276 0.598276
0.604042 0.604042 0.604042
0.609632 0.609632 0.609632
0.615222 0.615222 0.615222
0.620812 0.620812 0.620812
0.396984 0.396984 0.396984
0.399236 0.399236 0.399236
0.401487 0.401487 0.401487
0.407927 0.407927 0.407927
0.415830 0.415830 0.415830
0.423733 0.423733 0.423733
0.431636 0.431636 0.431636
0.439538 0.439538 0.439538
0.449049 0.449049 0.449049
0.459181 0.459181 0.459181
0.469313 0.469313 0.469313
0.479445 0.479445 0.479445
0.489576 0.489576 0.489576
0.499708 0.499708 0.499708
0.509840 0.509840 0.509840
0.519971 0.519971 0.519971
0.530185 0.530185 0.530185
0.540751 0.540751 0.540751
0.551317 0.551317 0.551317
0.561883 0.561883 0.561883
0.572449 0.572449 0.572449
0.583015 0.583015 0.583015
0.593581 0.593581 0.593581
0.603425 0.603425 0.603425
0.609504 0.609504 0.609504
0.615583 0.615583 0.615583
0.621662 0.621662 0.621662
0.627741 0.627741 0.627741
0.633820 0.633820 0.633820
0.639587 0.639587 0.639587
0.645176 0.645176 0.645176
0.650766 0.650766 0.650766
0.656356 0.656356 0.656356
0.432529 0.432529 0.432529
0.434780 0.434780 0.434780
0.437032 0.437032 0.437032
0.443472 0.443472 0.443472
0.451375 0.451375 0.451375
0.459277 0.459277 0.459277
0.467180 0.467180 0.467180
0.475083 0.475083 0.475083
0.484594 0.484594 0.484594
0.494726 0.494726 0.494726
0.504857 0.504857 0.504857
0.514989 0.514989 0.514989
0.525121 0.525121 0.525121
0.535252 0.535252 0.535252
0.545384 0.545384 0.545384
0.555516 0.555516 0.555516
0.565729 0.565729 0.565729
0.576295 0.576295 0.576295
0.586861 0.586861 0.586861
0.597427 0.597427 0.597427
0.607993 0.607993 0.607993
0.618559 0.618559 0.618559
0.629125 0.629125 0.629125
0.638970 0.638970 0.638970
0.645049 0.645049 0.645049
0.651128 0.651128 0.651128
0.657207 0.657207 0.657207
0.663286 0.663286 0.663286
0.669365 0.669365 0.669365
0.675131 0.675131 0.675131
0.680721 0.680721 0.680721
0.686311 0.686311 0.686311
0.691901 0.691901 0.691901
0.468073 0.468073 0.468073
0.470325 0.470325 0.470325
0.472576 0.472576 0.472576
0.479016 0.479016 0.479016
0.486919 0.486919 0.486919
0.494822 0.494822 0.494822
0.502725 0.502725 0.502725
0.510627 0.510627 0.510627
0.520138 0.520138 0.520138
0.530270 0.530270 0.530270
0.540402 0.540402 0.540402
0.550534 0.550534 0.550534
0.560665 0.560665 0.560665
0.570797 0.570797 0.570797
0.580929 0.580929 0.580929
0.591060 0.591060 0.591060
0.601274 0.601274 0.601274
0.611840 0.611840 0.611840
0.622406 0.622406 0.622406
0.632972 0.632972 0.632972
0.643538 0.643538 0.643538
0.654104 0.654104 0.654104
0.664669 0.664669 0.664669
0.674514 0.674514 0.674514
0.680593 0.680593 0.680593
0.686672 0.686672 0.686672
0.692751 0.692751 0.692751
0.698830 0.698830 0.698830
0.704909 0.704909 0.704909
0.710676 0.710676 0.710676
0.716265 0.716265 0.716265
0.721855 0.721855 0.721855
0.727445 0.727445 0.727445
0.503618 0.503618 0.503618
0.505869 0.505869 0.505869
0.508121 0.508121 0.508121
0.514561 0.514561 0.514561
0.522464 0.522464 0.522464
0.530366 0.530366 0.530366
0.538269 0.538269 0.538269
0.546172 0.546172 0.546172
0.555683 0.555683 0.555683
0.565815 0.565815 0.565815
0.575946 0.575946 0.575946
0.586078 0.586078 0.586078
0.596210 0.596210 0.596210
0.606341 0.606341 0.606341
0.616473 0.616473 0.616473
0.626605 0.626605 0.626605
0.636818 0.636818 0.636818
0.647384 0.647384 0.647384
0.657950 0.657950 0.657950
0.668516 0.668516 0.668516
0.679082 0.679082 0.679082
0.689648 0.689648 0.689648
0.700214 0.700214 0.700214
0.710058 0.710058 0.710058
0.716138 0.716138 0.716138
0.722217 0.722217 0.722217
0.728296 0.728296 0.728296
0.734375 0.734375 0.734375
0.740454 0.740454 0.740454
0.746220 0.746220 0.746220
0.751810 0.751810 0.751810
0.757400 0.757400 0.757400
0.762990 0.762990 0.762990
0.539162 0.539162 0.539162
0.541414 0.541414 0.541414
0.543665 0.543665 0.543665
0.550105 0.550105 0.550105
0.558008 0.558008 0.558008
0.565911 0.565911 0.565911
0.573814 0.573814 0.573814
0.581716 0.581716 0.581716
0.591227 0.591227 0.591227
0.601359 0.601359 0.601359
0.611491 0.611491 0.611491
0.621623 0.621623 0.621623
0.631754 0.631754 0.631754
0.641886 0.641886 0.641886
0.652018 0.652018 0.652018
0.662149 0.662149 0.662149
0.672363 0.672363 0.672363
0.682929 0.682929 0.682929
0.693495 0.693495 0.693495
0.704061 0.704061 0.704061
0.714627 0.714627 0.714627
0.725193 0.725193 0.725193
0.735758 0.735758 0.735758
0.745603 0.745603 0.745603
0.751682 0.751682 0.751682
0.757761 0.757761 0.757761
0.763840 0.763840 0.763840
0.769919 0.769919 0.769919
0.775998 0.775998 0.775998
0.781764 0.781764 0.781764
0.787354 0.787354 0.787354
0.792944 0.792944 0.792944
0.798534 0.798534 0.798534
0.572280 0.572280 0.572280
0.574531 0.574531 0.574531
0.576783 0.576783 0.576783
0.583223 0.583223 0.583223
0.591126 0.591126 0.591126
0.599028 0.599028 0.599028
0.606931 0.606931 0.606931
0.614834 0.614834 0.614834
0.624345 0.624345 0.624345
0.634477 0.634477 0.634477
0.644608 0.644608 0.644608
0.654740 0.654740 0.654740
0.664872 0.664872 0.664872
0.675004 0.675004 0.675004
0.685135 0.685135 0.685135
0.695267 0.695267 0.695267
0.705480 0.705480 0.705480
0.716046 0.716046 0.716046
0.726612 0.726612 0.726612
0.737178 0.737178 0.737178
0.747744 0.747744 0.747744
0.758310 0.758310 0.758310
0.768876 0.768876 0.768876
0.778721 0.778721 0.778721
0.784800 0.784800 0.784800
0.790879 0.790879 0.790879
0.796958 0.796958 0.796958
0.803037 0.803037 0.803037
0.809116 0.809116 0.809116
0.814882 0.814882 0.814882
0.820472 0.820472 0.820472
0.826062 0.826062 0.826062
0.831652 0.831652 0.831652
0.592730 0.592730 0.592730
0.594982 0.594982 0.594982
0.597233 0.597233 0.597233
0.603673 0.603673 0.603673
0.611576 0.611576 0.611576
0.619479 0.619479 0.619479
0.627381 0.627381 0.627381
0.635284 0.635284 0.635284
0.644795 0.644795 0.644795
0.654927 0.654927 0.654927
0.665059 0.665059 0.665059
0.675190 0.675190 0.675190
0.685322 0.685322 0.685322
0.695454 0.695454 0.695454
0.705585 0.705585 0.705585
0.715717 0.715717 0.715717
0.725931 0.725931 0.725931
0.736497 0.736497 0.736497
0.747063 0.747063 0.747063
0.757628 0.757628 0.757628
0.768194 0.768194 0.768194
0.778760 0.778760 0.778760
0.789326 0.789326 0.789326
0.799171 0.799171 0.799171
0.805250 0.805250 0.805250
0.811329 0.811329 0.811329
0.817408 0.817408 0.817408
0.823487 0.823487 0.823487
0.829566 0.829566 0.829566
0.835332 0.835332 0.835332
0.840922 0.840922 0.840922
0.846512 0.846512 0.846512
0.852102 0.852102 0.852102
0.613180 0.613180 0.613180
0.615432 0.615432 0.615432
0.617683 0.617683 0.617683
0.624123 0.624123 0.624123
0.632026 0.632026 0.632026
0.639929 0.639929 0.639929
0.647832 0.647832 0.647832
0.655734 0.655734 0.655734
0.665245 0.665245 0.665245
0.675377 0.675377 0.675377
0.685509 0.685509 0.685509
0.695641 0.695641 0.695641
0.705772 0.705772 0.705772
0.715904 0.715904 0.715904
0.726036 0.726036 0.726036
0.736167 0.736167 0.736167
0.746381 0.746381 0.746381
0.756947 0.756947 0.756947
0.767513 0.767513 0.767513
0.778079 0.778079 0.778079
0.788645 0.788645 0.788645
0.799211 0.799211 0.799211
0.809777 0.809777 0.809777
0.819621 0.819621 0.819621
0.825700 0.825700 0.825700
0.831779 0.831779 0.831779
0.837858 0.837858 0.837858
0.843937 0.843937 0.843937
0.850016 0.850016 0.850016
0.855783 0.855783 0.855783
0.861372 0.861372 0.861372
0.866962 0.866962 0.866962
0.872552 0.872552 0.872552
0.633631 0.633631 0.633631
0.635882 0.635882 0.635882
0.638134 0.638134 0.638134
0.644574 0.644574 0.644574
0.652476 0.652476 0.652476
0.660379 0.660379 0.660379
0.668282 0.668282 0.668282
0.676185 0.676185 0.676185
0.685696 0.685696 0.685696
0.695827 0.695827 0.695827
0.705959 0.705959 0.705959
0.716091 0.716091 0.716091
0.726223 0.726223 0.726223
0.736354 0.736354 0.736354
0.746486 0.746486 0.746486
0.756618 0.756618 0.756618
0.766831 0.766831 0.766831
0.777397 0.777397 0.777397
0.787963 0.787963 0.787963
0.798529 0.798529 0.798529
0.809095 0.809095 0.809095
0.819661 0.819661 0.819661
0.830227 0.830227 0.830227
0.840071 0.840071 0.840071
0.846150 0.846150 0.846150
0.852229 0.852229 0.852229
