assets/ricoh/Ricoh_GR3_PS_Filter/LUT/GR3_Vivid_Street.cube
TITLE "Ricoh GR III Vivid Street"
LUT_3D_SIZE 9
DOMAIN_MIN 0.000000 0.000000 0.000000
DOMAIN_MAX 1.000000 1.000000 1.000000
0.000000 0.000000 0.000000
0.000000 0.000000 0.000000
0.161950 0.000000 0.000000
0.349884 0.000000 0.000000
0.538848 0.000000 0.000000
0.703692 0.000000 0.000000
0.867357 0.000000 0.000000
0.985198 0.000000 0.000000
1.000000 0.000000 0.000000
0.000000 0.000000 0.000000
0.000000 0.000000 0.000000
0.157236 0.000000 0.000000
0.345170 0.000000 0.000000
0.534134 0.000000 0.000000
0.698978 0.000000 0.000000
0.862643 0.000000 0.000000
0.980484 0.000000 0.000000
1.000000 0.000000 0.000000
0.000000 0.160027 0.000000
0.000000 0.158555 0.000000
0.150054 0.156326 0.000000
0.337989 0.154037 0.000000
0.526952 0.151735 0.000000
0.691796 0.149727 0.000000
0.855461 0.147734 0.000000
0.973302 0.146299 0.000000
1.000000 0.144955 0.000000
0.000000 0.336253 0.000000
0.000000 0.334781 0.000000
0.142619 0.332552 0.000000
0.330554 0.330263 0.000000
0.519517 0.327961 0.000000
0.684361 0.325953 0.000000
0.848026 0.323960 0.000000
0.965867 0.322524 0.000000
1.000000 0.321181 0.000000
0.000000 0.514882 0.000000
0.000000 0.513410 0.000000
0.135082 0.511181 0.000000
0.323017 0.508892 0.000000
0.511980 0.506591 0.000000
0.676824 0.504583 0.000000
0.840490 0.502589 0.000000
0.958330 0.501154 0.000000
1.000000 0.499811 0.000000
0.000000 0.671909 0.000000
0.000000 0.670437 0.000000
0.128457 0.668208 0.000000
0.316392 0.665919 0.000000
0.505355 0.663617 0.000000
0.670199 0.661609 0.000000
0.833865 0.659616 0.000000
0.951705 0.658180 0.000000
1.000000 0.656837 0.000000
0.000000 0.828934 0.000000
0.000000 0.827462 0.000000
0.121832 0.825233 0.000000
0.309767 0.822944 0.000000
0.498730 0.820642 0.000000
0.663574 0.818634 0.000000
0.827239 0.816641 0.000000
0.945080 0.815205 0.000000
1.000000 0.813862 0.000000
0.000000 0.942695 0.000000
0.000000 0.941222 0.000000
0.117033 0.938994 0.000000
0.304967 0.936705 0.000000
0.493931 0.934403 0.000000
0.658774 0.932395 0.000000
0.822440 0.930402 0.000000
0.940281 0.928966 0.000000
1.000000 0.927623 0.000000
0.000000 1.000000 0.000000
0.000000 1.000000 0.000000
0.112519 1.000000 0.000000
0.300453 1.000000 0.000000
0.489417 1.000000 0.000000
0.654261 1.000000 0.000000
0.817926 1.000000 0.000000
0.935767 1.000000 0.000000
1.000000 1.000000 0.000000
0.000000 0.000000 0.000000
0.000000 0.000000 0.000000
0.161479 0.000000 0.000000
0.349413 0.000000 0.000000
0.538377 0.000000 0.000000
0.703221 0.000000 0.000000
0.866886 0.000000 0.000000
0.984727 0.000000 0.000000
1.000000 0.000000 0.000000
0.000000 0.000000 0.000000
0.000000 0.000000 0.000000
0.156765 0.000000 0.000000
0.344699 0.000000 0.000000
0.533663 0.000000 0.000000
0.698506 0.000000 0.000000
0.862172 0.000000 0.000000
0.980013 0.000000 0.000000
1.000000 0.000000 0.000000
0.000000 0.159556 0.000000
0.000000 0.158084 0.000000
0.149583 0.155855 0.000000
0.337518 0.153566 0.000000
0.526481 0.151264 0.000000
0.691325 0.149256 0.000000
0.854990 0.147263 0.000000
0.972831 0.145827 0.000000
1.000000 0.144484 0.000000
0.000000 0.335782 0.000000
0.000000 0.334309 0.000000
0.142148 0.332081 0.000000
0.330082 0.329792 0.000000
0.519046 0.327490 0.000000
0.683890 0.325482 0.000000
0.847555 0.323488 0.000000
0.965396 0.322053 0.000000
1.000000 0.320710 0.000000
0.000000 0.514411 0.000000
0.000000 0.512939 0.000000
0.134611 0.510710 0.000000
0.322546 0.508421 0.000000
0.511509 0.506119 0.000000
0.676353 0.504112 0.000000
0.840018 0.502118 0.000000
0.957859 0.500683 0.000000
1.000000 0.499340 0.000000
0.000000 0.671438 0.000000
0.000000 0.669965 0.000000
0.127986 0.667737 0.000000
0.315921 0.665448 0.000000
0.504884 0.663146 0.000000
0.669728 0.661138 0.000000
0.833393 0.659145 0.000000
0.951234 0.657709 0.000000
1.000000 0.656366 0.000000
0.000000 0.828463 0.000000
0.000000 0.826990 0.000000
0.121361 0.824762 0.000000
0.309296 0.822473 0.000000
0.498259 0.820171 0.000000
0.663103 0.818163 0.000000
0.826768 0.816170 0.000000
0.944609 0.814734 0.000000
1.000000 0.813391 0.000000
0.000000 0.942224 0.000000
0.000000 0.940751 0.000000
0.116561 0.938523 0.000000
0.304496 0.936233 0.000000
0.493459 0.933932 0.000000
0.658303 0.931924 0.000000
0.821969 0.929930 0.000000
0.939809 0.928495 0.000000
1.000000 0.927152 0.000000
0.000000 1.000000 0.000000
0.000000 1.000000 0.000000
0.112048 1.000000 0.000000
0.299982 1.000000 0.000000
0.488946 1.000000 0.000000
0.653790 1.000000 0.000000
0.817455 1.000000 0.000000
0.935296 1.000000 0.000000
1.000000 1.000000 0.000000
0.000000 0.000000 0.174505
0.000000 0.000000 0.173032
0.160762 0.000000 0.170804
0.348697 0.000000 0.168514
0.537660 0.000000 0.166213
0.702504 0.000000 0.164205
0.866170 0.000000 0.162211
0.984010 0.000000 0.160776
1.000000 0.000000 0.159433
0.000000 0.000000 0.169790
0.000000 0.000000 0.168318
0.156048 0.000000 0.166090
0.343983 0.000000 0.163800
0.532946 0.000000 0.161499
0.697790 0.000000 0.159491
0.861455 0.000000 0.157497
0.979296 0.000000 0.156062
1.000000 0.000000 0.154719
0.000000 0.158840 0.162609
0.000000 0.157367 0.161137
0.148867 0.155139 0.158908
0.336801 0.152850 0.156619
0.525765 0.150548 0.154317
0.690609 0.148540 0.152309
0.854274 0.146546 0.150316
0.972115 0.145111 0.148880
1.000000 0.143768 0.147537
0.000000 0.335065 0.155174
0.000000 0.333593 0.153701
0.141432 0.331364 0.151473
0.329366 0.329075 0.149184
0.518330 0.326774 0.146882
0.683173 0.324766 0.144874
0.846839 0.322772 0.142881
0.964680 0.321337 0.141445
1.000000 0.319994 0.140102
0.000000 0.513695 0.147637
0.000000 0.512223 0.146165
0.133895 0.509994 0.143936
0.321830 0.507705 0.141647
0.510793 0.505403 0.139345
0.675637 0.503395 0.137338
0.839302 0.501402 0.135344
0.957143 0.499966 0.133909
1.000000 0.498623 0.132566
0.000000 0.670721 0.141012
0.000000 0.669249 0.139540
0.127270 0.667020 0.137311
0.315204 0.664731 0.135022
0.504168 0.662430 0.132720
0.669012 0.660422 0.130712
0.832677 0.658428 0.128719
0.950518 0.656993 0.127283
1.000000 0.655650 0.125940
0.000000 0.827746 0.134387
0.000000 0.826274 0.132915
0.120645 0.824045 0.130686
0.308579 0.821756 0.128397
0.497543 0.819455 0.126095
0.662387 0.817447 0.124087
0.826052 0.815453 0.122094
0.943893 0.814018 0.120658
1.000000 0.812675 0.119315
0.000000 0.941507 0.129587
0.000000 0.940035 0.128115
0.115845 0.937806 0.125886
0.303780 0.935517 0.123597
0.492743 0.933215 0.121296
0.657587 0.931208 0.119288
0.821252 0.929214 0.117294
0.939093 0.927779 0.115859
1.000000 0.926436 0.114516
0.000000 1.000000 0.125074
0.000000 1.000000 0.123601
0.111331 1.000000 0.121373
0.299266 1.000000 0.119083
0.488229 1.000000 0.116782
0.653073 1.000000 0.114774
0.816739 1.000000 0.112780
0.934579 1.000000 0.111345
1.000000 1.000000 0.110002
0.000000 0.000000 0.354783
0.000000 0.000000 0.353310
0.160023 0.000000 0.351082
0.347957 0.000000 0.348793
0.536921 0.000000 0.346491
0.701764 0.000000 0.344483
0.865430 0.000000 0.342489
0.983271 0.000000 0.341054
1.000000 0.000000 0.339711
0.000000 0.000000 0.350068
0.000000 0.000000 0.348596
0.155308 0.000000 0.346368
0.343243 0.000000 0.344078
0.532206 0.000000 0.341777
0.697050 0.000000 0.339769
0.860716 0.000000 0.337775
0.978556 0.000000 0.336340
1.000000 0.000000 0.334997
0.000000 0.158100 0.342887
0.000000 0.156627 0.341415
0.148127 0.154399 0.339186
0.336061 0.152110 0.336897
0.525025 0.149808 0.334595
0.689869 0.147800 0.332587
0.853534 0.145807 0.330594
0.971375 0.144371 0.329158
1.000000 0.143028 0.327815
0.000000 0.334326 0.335452
0.000000 0.332853 0.333979
0.140692 0.330625 0.331751
0.328626 0.328335 0.329462
0.517590 0.326034 0.327160
0.682434 0.324026 0.325152
0.846099 0.322032 0.323159
0.963940 0.320597 0.321723
1.000000 0.319254 0.320380
0.000000 0.512955 0.327915
0.000000 0.511483 0.326443
0.133155 0.509254 0.324214
0.321090 0.506965 0.321925
0.510053 0.504663 0.319623
0.674897 0.502655 0.317616
0.838562 0.500662 0.315622
0.956403 0.499227 0.314187
1.000000 0.497883 0.312844
0.000000 0.669982 0.321290
0.000000 0.668509 0.319818
0.126530 0.666281 0.317589
0.314465 0.663991 0.315300
0.503428 0.661690 0.312998
0.668272 0.659682 0.310990
0.831937 0.657688 0.308997
0.949778 0.656253 0.307562
1.000000 0.654910 0.306219
0.000000 0.827007 0.314665
0.000000 0.825534 0.313193
0.119905 0.823306 0.310964
0.307840 0.821017 0.308675
0.496803 0.818715 0.306373
0.661647 0.816707 0.304365
0.825312 0.814713 0.302372
0.943153 0.813278 0.300937
1.000000 0.811935 0.299593
0.000000 0.940767 0.309865
0.000000 0.939295 0.308393
0.115105 0.937066 0.306164
0.303040 0.934777 0.303875
0.492003 0.932476 0.301574
0.656847 0.930468 0.299566
0.820512 0.928474 0.297572
0.938353 0.927039 0.296137
1.000000 0.925696 0.294794
0.000000 1.000000 0.305352
0.000000 1.000000 0.303879
0.110592 1.000000 0.301651
0.298526 1.000000 0.299362
0.487490 1.000000 0.297060
0.652333 1.000000 0.295052
0.815999 1.000000 0.293058
0.933840 1.000000 0.291623
1.000000 1.000000 0.290280
0.000000 0.000000 0.537056
0.000000 0.000000 0.535583
0.159275 0.000000 0.533355
0.347209 0.000000 0.531066
0.536173 0.000000 0.528764
0.701016 0.000000 0.526756
0.864682 0.000000 0.524763
0.982523 0.000000 0.523327
1.000000 0.000000 0.521984
0.000000 0.000000 0.532342
0.000000 0.000000 0.530869
0.154560 0.000000 0.528641
0.342495 0.000000 0.526352
0.531459 0.000000 0.524050
0.696302 0.000000 0.522042
0.859968 0.000000 0.520048
0.977808 0.000000 0.518613
1.000000 0.000000 0.517270
0.000000 0.157352 0.525160
0.000000 0.155880 0.523688
0.147379 0.153651 0.521459
0.335313 0.151362 0.519170
0.524277 0.149060 0.516868
0.689121 0.147052 0.514860
0.852786 0.145059 0.512867
0.970627 0.143623 0.511432
1.000000 0.142280 0.510088
0.000000 0.333578 0.517725
0.000000 0.332105 0.516253
0.139944 0.329877 0.514024
0.327878 0.327587 0.511735
0.516842 0.325286 0.509433
0.681686 0.323278 0.507425
0.845351 0.321284 0.505432
0.963192 0.319849 0.503996
1.000000 0.318506 0.502653
0.000000 0.512207 0.510188
0.000000 0.510735 0.508716
0.132407 0.508506 0.506487
0.320342 0.506217 0.504198
0.509305 0.503915 0.501897
0.674149 0.501907 0.499889
0.837814 0.499914 0.497895
0.955655 0.498479 0.496460
1.000000 0.497135 0.495117
0.000000 0.669234 0.503563
0.000000 0.667761 0.502091
0.125782 0.665533 0.499862
0.313717 0.663244 0.497573
0.502680 0.660942 0.495271
0.667524 0.658934 0.493264
0.831189 0.656940 0.491270
0.949030 0.655505 0.489835
1.000000 0.654162 0.488492
0.000000 0.826259 0.496938
0.000000 0.824786 0.495466
0.119157 0.822558 0.493237
0.307092 0.820269 0.490948
0.496055 0.817967 0.488646
0.660899 0.815959 0.486639
0.824564 0.813965 0.484645
0.942405 0.812530 0.483210
1.000000 0.811187 0.481867
0.000000 0.940019 0.492138
0.000000 0.938547 0.490666
0.114357 0.936319 0.488438
0.302292 0.934029 0.486148
0.491255 0.931728 0.483847
0.656099 0.929720 0.481839
0.819765 0.927726 0.479845
0.937605 0.926291 0.478410
1.000000 0.924948 0.477067
0.000000 1.000000 0.487625
0.000000 1.000000 0.486152
0.109844 1.000000 0.483924
0.297778 1.000000 0.481635
0.486742 1.000000 0.479333
0.651585 1.000000 0.477325
0.815251 1.000000 0.475332
0.933092 1.000000 0.473896
1.000000 1.000000 0.472553
0.000000 0.000000 0.696902
0.000000 0.000000 0.695430
0.158619 0.000000 0.693201
0.346553 0.000000 0.690912
0.535517 0.000000 0.688610
0.700360 0.000000 0.686602
0.864026 0.000000 0.684609
0.981867 0.000000 0.683174
1.000000 0.000000 0.681830
0.000000 0.000000 0.692188
0.000000 0.000000 0.690716
0.153905 0.000000 0.688487
0.341839 0.000000 0.686198
0.530803 0.000000 0.683896
0.695646 0.000000 0.681888
0.859312 0.000000 0.679895
0.977153 0.000000 0.678459
1.000000 0.000000 0.677116
0.000000 0.156696 0.685006
0.000000 0.155224 0.683534
0.146723 0.152995 0.681305
0.334658 0.150706 0.679016
0.523621 0.148404 0.676715
0.688465 0.146396 0.674707
0.852130 0.144403 0.672713
0.969971 0.142967 0.671278
1.000000 0.141624 0.669935
0.000000 0.332922 0.677571
0.000000 0.331449 0.676099
0.139288 0.329221 0.673870
0.327222 0.326932 0.671581
0.516186 0.324630 0.669280
0.681030 0.322622 0.667272
0.844695 0.320628 0.665278
0.962536 0.319193 0.663843
1.000000 0.317850 0.662500
0.000000 0.511551 0.670035
0.000000 0.510079 0.668562
0.131751 0.507850 0.666334
0.319686 0.505561 0.664045
0.508649 0.503259 0.661743
0.673493 0.501252 0.659735
0.837158 0.499258 0.657742
0.954999 0.497823 0.656306
1.000000 0.496480 0.654963
0.000000 0.668578 0.663410
0.000000 0.667105 0.661937
0.125126 0.664877 0.659709
0.313061 0.662588 0.657420
0.502024 0.660286 0.655118
0.666868 0.658278 0.653110
0.830533 0.656284 0.651116
0.948374 0.654849 0.649681
1.000000 0.653506 0.648338
0.000000 0.825603 0.656785
0.000000 0.824130 0.655312
0.118501 0.821902 0.653084
0.306436 0.819613 0.650794
0.495399 0.817311 0.648493
0.660243 0.815303 0.646485
0.823908 0.813309 0.644491
0.941749 0.811874 0.643056
1.000000 0.810531 0.641713
0.000000 0.939363 0.651985
0.000000 0.937891 0.650513
0.113701 0.935663 0.648284
0.301636 0.933373 0.645995
0.490599 0.931072 0.643693
0.655443 0.929064 0.641685
0.819109 0.927070 0.639692
0.936949 0.925635 0.638256
1.000000 0.924292 0.636913
0.000000 1.000000 0.647471
0.000000 1.000000 0.645999
0.109188 1.000000 0.643770
0.297122 1.000000 0.641481
0.486086 1.000000 0.639179
0.650929 1.000000 0.637171
0.814595 1.000000 0.635178
0.932436 1.000000 0.633743
1.000000 1.000000 0.632399
0.000000 0.000000 0.856391
0.000000 0.000000 0.854919
0.157964 0.000000 0.852690
0.345899 0.000000 0.850401
0.534862 0.000000 0.848099
0.699706 0.000000 0.846091
0.863371 0.000000 0.844098
0.981212 0.000000 0.842663
1.000000 0.000000 0.841319
0.000000 0.000000 0.851677
0.000000 0.000000 0.850205
0.153250 0.000000 0.847976
0.341185 0.000000 0.845687
0.530148 0.000000 0.843385
0.694992 0.000000 0.841377
0.858657 0.000000 0.839384
0.976498 0.000000 0.837948
1.000000 0.000000 0.836605
0.000000 0.156041 0.844495
0.000000 0.154569 0.843023
0.146068 0.152340 0.840794
0.334003 0.150051 0.838505
0.522967 0.147750 0.836204
0.687810 0.145742 0.834196
0.851476 0.143748 0.832202
0.969316 0.142313 0.830767
1.000000 0.140970 0.829424
0.000000 0.332267 0.837060
0.000000 0.330795 0.835588
0.138633 0.328566 0.833359
0.326568 0.326277 0.831070
0.515531 0.323975 0.828768
0.680375 0.321968 0.826761
0.844041 0.319974 0.824767
0.961881 0.318539 0.823332
1.000000 0.317196 0.821989
0.000000 0.510897 0.829524
0.000000 0.509424 0.828051
0.131097 0.507196 0.825823
0.319031 0.504907 0.823534
0.507995 0.502605 0.821232
0.672839 0.500597 0.819224
0.836504 0.498604 0.817230
0.954345 0.497168 0.815795
1.000000 0.495825 0.814452
0.000000 0.667923 0.822899
0.000000 0.666451 0.821426
0.124472 0.664222 0.819198
0.312406 0.661933 0.816908
0.501370 0.659631 0.814607
0.666214 0.657624 0.812599
0.829879 0.655630 0.810605
0.947720 0.654195 0.809170
1.000000 0.652852 0.807827
0.000000 0.824948 0.816273
0.000000 0.823476 0.814801
0.117847 0.821247 0.812573
0.305781 0.818958 0.810283
0.494745 0.816656 0.807982
0.659588 0.814649 0.805974
0.823254 0.812655 0.803980
0.941095 0.811220 0.802545
1.000000 0.809877 0.801202
0.000000 0.938709 0.811474
0.000000 0.937237 0.810001
0.113047 0.935008 0.807773
0.300982 0.932719 0.805484
0.489945 0.930417 0.803182
0.654789 0.928409 0.801174
0.818454 0.926416 0.799181
0.936295 0.924980 0.797745
1.000000 0.923637 0.796402
0.000000 1.000000 0.806960
0.000000 1.000000 0.805488
0.108533 1.000000 0.803259
0.296468 1.000000 0.800970
0.485431 1.000000 0.798668
0.650275 1.000000 0.796660
0.813940 1.000000 0.794667
0.931781 1.000000 0.793232
1.000000 1.000000 0.791888
0.000000 0.000000 0.971716
0.000000 0.000000 0.970244
0.157491 0.000000 0.968015
0.345426 0.000000 0.965726
0.534389 0.000000 0.963424
0.699233 0.000000 0.961416
0.862898 0.000000 0.959423
0.980739 0.000000 0.957987
1.000000 0.000000 0.956644
0.000000 0.000000 0.967002
0.000000 0.000000 0.965530
0.152777 0.000000 0.963301
0.340711 0.000000 0.961012
0.529675 0.000000 0.958710
0.694519 0.000000 0.956702
0.858184 0.000000 0.954709
0.976025 0.000000 0.953273
1.000000 0.000000 0.951930
0.000000 0.155568 0.959820
0.000000 0.154096 0.958348
0.145595 0.151867 0.956119
0.333530 0.149578 0.953830
0.522493 0.147276 0.951529
0.687337 0.145269 0.949521
0.851002 0.143275 0.947527
0.968843 0.141840 0.946092
1.000000 0.140497 0.944749
0.000000 0.331794 0.952385
0.000000 0.330322 0.950913
0.138160 0.328093 0.948684
0.326095 0.325804 0.946395
0.515058 0.323502 0.944093
0.679902 0.321494 0.942086
0.843567 0.319501 0.940092
0.961408 0.318065 0.938657
1.000000 0.316722 0.937314
0.000000 0.510423 0.944849
0.000000 0.508951 0.943376
0.130624 0.506723 0.941148
0.318558 0.504433 0.938859
0.507522 0.502132 0.936557
0.672365 0.500124 0.934549
0.836031 0.498130 0.932555
0.953872 0.496695 0.931120
1.000000 0.495352 0.929777
0.000000 0.667450 0.938223
0.000000 0.665978 0.936751
0.123998 0.663749 0.934523
0.311933 0.661460 0.932233
0.500896 0.659158 0.929932
0.665740 0.657150 0.927924
0.829406 0.655157 0.925930
0.947246 0.653721 0.924495
1.000000 0.652378 0.923152
0.000000 0.824475 0.931598
0.000000 0.823003 0.930126
0.117373 0.820774 0.927898
0.305308 0.818485 0.925608
0.494271 0.816183 0.923307
0.659115 0.814175 0.921299
0.822781 0.812182 0.919305
0.940621 0.810746 0.917870
1.000000 0.809403 0.916527
0.000000 0.938236 0.926799
0.000000 0.936763 0.925326
0.112574 0.934535 0.923098
0.300508 0.932246 0.920809
0.489472 0.929944 0.918507
0.654316 0.927936 0.916499
0.817981 0.925943 0.914506
0.935822 0.924507 0.913070
1.000000 0.923164 0.911727
0.000000 1.000000 0.922285
0.000000 1.000000 0.920813
0.108060 1.000000 0.918584
0.295995 1.000000 0.916295
0.484958 1.000000 0.913993
0.649802 1.000000 0.911985
0.813467 1.000000 0.909992
0.931308 1.000000 0.908556
1.000000 1.000000 0.907213
0.000000 0.000000 1.000000
0.000000 0.000000 1.000000
0.157047 0.000000 1.000000
0.344981 0.000000 1.000000
0.533945 0.000000 1.000000
0.698788 0.000000 1.000000
0.862454 0.000000 1.000000
0.980295 0.000000 1.000000
1.000000 0.000000 1.000000
0.000000 0.000000 1.000000
0.000000 0.000000 1.000000
0.152332 0.000000 1.000000
0.340267 0.000000 1.000000
0.529230 0.000000 1.000000
0.694074 0.000000 1.000000
0.857740 0.000000 1.000000
0.975580 0.000000 1.000000
1.000000 0.000000 1.000000
0.000000 0.155124 1.000000
0.000000 0.153651 1.000000
0.145151 0.151423 1.000000
0.333085 0.149134 1.000000
0.522049 0.146832 1.000000
0.686893 0.144824 1.000000
0.850558 0.142831 1.000000
0.968399 0.141395 1.000000
1.000000 0.140052 1.000000
0.000000 0.331350 1.000000
0.000000 0.329877 1.000000
0.137716 0.327649 1.000000
0.325650 0.325359 1.000000
0.514614 0.323058 1.000000
0.679458 0.321050 1.000000
0.843123 0.319056 1.000000
0.960964 0.317621 1.000000
1.000000 0.316278 1.000000
0.000000 0.509979 1.000000
0.000000 0.508507 1.000000
0.130179 0.506278 1.000000
0.318114 0.503989 1.000000
0.507077 0.501687 1.000000
0.671921 0.499679 1.000000
0.835586 0.497686 1.000000
0.953427 0.496251 1.000000
1.000000 0.494907 1.000000
0.000000 0.667006 1.000000
0.000000 0.665533 1.000000
0.123554 0.663305 1.000000
0.311489 0.661016 1.000000
0.500452 0.658714 1.000000
0.665296 0.656706 1.000000
0.828961 0.654712 1.000000
0.946802 0.653277 1.000000
1.000000 0.651934 1.000000
0.000000 0.824031 1.000000
0.000000 0.822558 1.000000
0.116929 0.820330 1.000000
0.304864 0.818041 1.000000
0.493827 0.815739 1.000000
0.658671 0.813731 1.000000
0.822336 0.811737 1.000000
0.940177 0.810302 1.000000
1.000000 0.808959 1.000000
0.000000 0.937791 1.000000
0.000000 0.936319 1.000000
0.112129 0.934090 1.000000
0.300064 0.931801 1.000000
0.489027 0.929500 1.000000
0.653871 0.927492 1.000000
0.817537 0.925498 1.000000
0.935377 0.924063 1.000000
1.000000 0.922720 1.000000
0.000000 1.000000 1.000000
0.000000 1.000000 1.000000
0.107616 1.000000 1.000000
0.295550 1.000000 1.000000
0.484514 1.000000 1.000000
0.649357 1.000000 1.000000
0.813023 1.000000 1.000000
0.930864 1.000000 1.000000
1.000000 1.000000 1.000000
