assets/ricoh/Ricoh_GR2_CameraRaw_Presets/Presets/GR2_Positive_Film.xmp
<?xpacket begin="﻿" id="W5M0MpCehiHzreSzNTczkc9d"?>
<x:xmpmeta xmlns:x="adobe:ns:meta/" x:xmptk="Adobe XMP Core 7.0-c000 1.000000, 0000/00/00-00:00:00        ">
 <rdf:RDF xmlns:rdf="http://www.w3.org/1999/02/22-rdf-syntax-ns#">
  <rdf:Description rdf:about=""
    xmlns:crs="http://ns.adobe.com/camera-raw-settings/1.0/"
   crs:PresetType="Normal"
   crs:Cluster=""
   crs:UUID="02320D86655437B006F61A8875D02061"
   crs:SupportsAmount="False"
   crs:SupportsColor="True"
   crs:SupportsMonochrome="True"
   crs:SupportsHighDynamicRange="True"
   crs:SupportsNormalDynamicRange="True"
   crs:SupportsSceneReferred="True"
   crs:SupportsOutputReferred="True"
   crs:RequiresRGBTables="False"
   crs:Copyright=""
   crs:ContactInfo=""
   crs:Version="17.5"
   crs:ProcessVersion="15.4"
   crs:WhiteBalance="As Shot"
   crs:Temperature="0"
   crs:Tint="0"
   crs:Exposure2012="0"
   crs:Contrast2012="12"
   crs:Highlights2012="-26"
   crs:Shadows2012="14"
   crs:Whites2012="8"
   crs:Blacks2012="-9"
   crs:Texture="5"
   crs:Clarity2012="8"
   crs:Dehaze="0"
   crs:Vibrance="-5"
   crs:Saturation="-5"
   crs:ParametricShadows="0"
   crs:ParametricDarks="0"
   crs:ParametricLights="0"
   crs:ParametricHighlights="0"
   crs:ParametricShadowSplit="25"
   crs:ParametricMidtoneSplit="50"
   crs:ParametricHighlightSplit="75"
   crs:Sharpness="42"
   crs:SharpenRadius="+0.6"
   crs:SharpenDetail="28"
   crs:SharpenEdgeMasking="10"
   crs:LuminanceSmoothing="3"
   crs:ColorNoiseReduction="22"
   crs:ColorNoiseReductionDetail="50"
   crs:ColorNoiseReductionSmoothness="50"
   crs:HueAdjustmentRed="-3"
   crs:HueAdjustmentOrange="1"
   crs:HueAdjustmentYellow="-5"
   crs:HueAdjustmentGreen="5"
   crs:HueAdjustmentAqua="1"
   crs:HueAdjustmentBlue="-2"
   crs:HueAdjustmentPurple="0"
   crs:HueAdjustmentMagenta="2"
   crs:SaturationAdjustmentRed="6"
   crs:SaturationAdjustmentOrange="-2"
   crs:SaturationAdjustmentYellow="-12"
   crs:SaturationAdjustmentGreen="-18"
   crs:SaturationAdjustmentAqua="-4"
   crs:SaturationAdjustmentBlue="4"
   crs:SaturationAdjustmentPurple="-2"
   crs:SaturationAdjustmentMagenta="-8"
   crs:LuminanceAdjustmentRed="4"
   crs:LuminanceAdjustmentOrange="3"
   crs:LuminanceAdjustmentYellow="-8"
   crs:LuminanceAdjustmentGreen="-14"
   crs:LuminanceAdjustmentAqua="-6"
   crs:LuminanceAdjustmentBlue="-6"
   crs:LuminanceAdjustmentPurple="0"
   crs:LuminanceAdjustmentMagenta="-2"
   crs:SplitToningShadowHue="205"
   crs:SplitToningShadowSaturation="8"
   crs:SplitToningHighlightHue="42"
   crs:SplitToningHighlightSaturation="7"
   crs:SplitToningBalance="-10"
   crs:ColorGradeMidtoneHue="35"
   crs:ColorGradeMidtoneSat="3"
   crs:ColorGradeShadowLum="0"
   crs:ColorGradeMidtoneLum="0"
   crs:ColorGradeHighlightLum="0"
   crs:ColorGradeBlending="50"
   crs:ColorGradeGlobalHue="0"
   crs:ColorGradeGlobalSat="0"
   crs:ColorGradeGlobalLum="0"
   crs:AutoLateralCA="1"
   crs:LensProfileEnable="0"
   crs:LensManualDistortionAmount="0"
   crs:VignetteAmount="0"
   crs:DefringePurpleAmount="0"
   crs:DefringePurpleHueLo="30"
   crs:DefringePurpleHueHi="70"
   crs:DefringeGreenAmount="0"
   crs:DefringeGreenHueLo="40"
   crs:DefringeGreenHueHi="60"
   crs:GrainAmount="14"
   crs:GrainSize="18"
   crs:GrainFrequency="42"
   crs:PostCropVignetteAmount="-8"
   crs:PostCropVignetteMidpoint="50"
   crs:PostCropVignetteFeather="72"
   crs:PostCropVignetteRoundness="15"
   crs:PostCropVignetteStyle="1"
   crs:ShadowTint="0"
   crs:RedHue="0"
   crs:RedSaturation="0"
   crs:GreenHue="0"
   crs:GreenSaturation="0"
   crs:BlueHue="0"
   crs:BlueSaturation="0"
   crs:ConvertToGrayscale="False"
   crs:HDREditMode="0"
   crs:OverrideLookVignette="False"
   crs:ToneCurveName2012="Custom"
   crs:HasSettings="True"
   crs:CameraProfile="Adobe Standard"
   >
   <crs:Name>
    <rdf:Alt>
     <rdf:li xml:lang="x-default">GR2 正片 Positive Film</rdf:li>
    </rdf:Alt>
   </crs:Name>
   <crs:ShortName>
    <rdf:Alt>
     <rdf:li xml:lang="x-default">GR2 正片 Positive Film</rdf:li>
    </rdf:Alt>
   </crs:ShortName>
   <crs:Group>
    <rdf:Alt>
     <rdf:li xml:lang="x-default">GR2 Film Looks</rdf:li>
    </rdf:Alt>
   </crs:Group>
   <crs:Description>
    <rdf:Alt>
     <rdf:li xml:lang="x-default">GR2-inspired positive film look: deep greens, cyan shadows, warm highlights and restrained saturation.</rdf:li>
    </rdf:Alt>
   </crs:Description>
   <crs:ToneCurvePV2012>
    <rdf:Seq>
     <rdf:li>0, 3</rdf:li>
     <rdf:li>34, 28</rdf:li>
     <rdf:li>78, 72</rdf:li>
     <rdf:li>128, 132</rdf:li>
     <rdf:li>184, 195</rdf:li>
     <rdf:li>230, 229</rdf:li>
     <rdf:li>255, 248</rdf:li>
    </rdf:Seq>
   </crs:ToneCurvePV2012>
  </rdf:Description>
 </rdf:RDF>
</x:xmpmeta>
<?xpacket end="w"?>